( pcb2gcode 2.5.0 )
( Software-independent Gcode )

G94 ( Millimeters per minute feed rate. )
G21 ( Units == Millimeters. )

G90 ( Absolute coordinates. )
G00 S24000 ( RPM spindle speed. )
G01 F600.00000 ( Feedrate. )


G00 Z35.00000 (Retract to tool change height)
T1
M5      (Spindle stop.)
G04 P1.00000 (Wait for spindle to stop)
(MSG, Change tool bit to mill diameter 0.15000mm)
M0      (Temporary machine stop.)
M3 ( Spindle on clockwise. )
G04 P1.00000 (Wait for spindle to get up to speed)
G04 P0 ( dwell for no time -- G64 should not smooth over this point )
G00 Z2.00000 ( retract )

G00 X-99.42548 Y-92.12550 ( rapid move to begin. )
G01 F100.00000
( Mill infeed pass 1/1 )
G01 Z-0.10000
G04 P0 ( dwell for no time -- G64 should not smooth over this point )
G01 F600.00000
G01 X-99.42548 Y-92.12550
G01 X-99.42548 Y-59.37448
G01 X-99.44819 Y-59.28629
G01 X-99.45708 Y-59.26689
G01 X-99.52385 Y-59.20501
G01 X-99.55700 Y-59.18840
G01 X-99.62449 Y-59.17547
G01 X-137.87549 Y-59.17547
G01 X-137.89663 Y-59.17849
G01 X-137.98306 Y-59.20704
G01 X-138.04496 Y-59.27385
G01 X-138.05901 Y-59.29800
G01 X-138.07448 Y-59.37448
G01 X-138.07448 Y-92.12550
G01 X-138.05177 Y-92.21366
G01 X-138.04288 Y-92.23306
G01 X-137.97610 Y-92.29494
G01 X-137.94295 Y-92.31155
G01 X-137.87549 Y-92.32448
G01 X-99.62449 Y-92.32448
G01 X-99.53630 Y-92.30177
G01 X-99.50834 Y-92.28648
G01 X-99.44461 Y-92.21056
G01 X-99.42548 Y-92.12550
G04 P0 ( dwell for no time -- G64 should not smooth over this point )
G00 Z2.00000 ( retract )

G00 X-103.24978 Y-89.56192 ( rapid move to begin. )
G01 F100.00000
( Mill infeed pass 1/1 )
G01 Z-0.10000
G04 P0 ( dwell for no time -- G64 should not smooth over this point )
G01 F600.00000
G01 X-103.24978 Y-89.56192
G01 X-103.92286 Y-88.88885
G01 X-103.91993 Y-88.87739
G01 X-103.92286 Y-88.88885
G01 X-104.02915 Y-88.92111
G01 X-104.13578 Y-88.94031
G01 X-104.24396 Y-88.94719
G01 X-104.35265 Y-88.94163
G01 X-104.47035 Y-88.92121
G01 X-104.57472 Y-88.88981
G01 X-104.58000 Y-88.87742
G01 X-104.57711 Y-88.88885
G01 X-105.25016 Y-89.56192
G01 X-105.29618 Y-89.56797
G01 X-105.25016 Y-89.56192
G01 X-105.07119 Y-89.66525
G01 X-104.84683 Y-89.75819
G01 X-104.61219 Y-89.82105
G01 X-104.37139 Y-89.85275
G01 X-104.12852 Y-89.85293
G01 X-103.88770 Y-89.82121
G01 X-103.65303 Y-89.75834
G01 X-103.42867 Y-89.66540
G01 X-103.24978 Y-89.56192
G01 X-103.13711 Y-89.57246
G01 X-103.90637 Y-88.80320
G01 X-103.95420 Y-88.82337
G01 X-104.05019 Y-88.85177
G01 X-104.14879 Y-88.86901
G01 X-104.24871 Y-88.87488
G01 X-104.34912 Y-88.86922
G01 X-104.44932 Y-88.85184
G01 X-104.54571 Y-88.82337
G01 X-104.59359 Y-88.80320
G01 X-105.36283 Y-89.57246
G01 X-105.32171 Y-89.60399
G01 X-105.10319 Y-89.73017
G01 X-104.87007 Y-89.82672
G01 X-104.62626 Y-89.89202
G01 X-104.37609 Y-89.92499
G01 X-104.12379 Y-89.92499
G01 X-103.87363 Y-89.89202
G01 X-103.62989 Y-89.82672
G01 X-103.39672 Y-89.73017
G01 X-103.17820 Y-89.60399
G01 X-103.13711 Y-89.57246
G01 X-103.20371 Y-89.56797
G01 X-103.36736 Y-89.54643
G01 X-103.46065 Y-89.60048
G01 X-103.67635 Y-89.68981
G01 X-103.90185 Y-89.75021
G01 X-104.13327 Y-89.78069
G01 X-104.36667 Y-89.78054
G01 X-104.59801 Y-89.75006
G01 X-104.82364 Y-89.68991
G01 X-105.03919 Y-89.60035
G01 X-105.13256 Y-89.54643
G01 X-105.18562 Y-89.55585
G01 X-105.13256 Y-89.54643
G01 X-104.55697 Y-88.97084
G01 X-104.55976 Y-88.96109
G01 X-104.55697 Y-88.97084
G01 X-104.47398 Y-88.99416
G01 X-104.35626 Y-89.01384
G01 X-104.24350 Y-89.01941
G01 X-104.12707 Y-89.01199
G01 X-104.02458 Y-88.99390
G01 X-103.94300 Y-88.97084
G01 X-103.94015 Y-88.96093
G01 X-103.94300 Y-88.97084
G01 X-103.36736 Y-89.54643
G01 X-103.32136 Y-89.55250
G01 X-103.43739 Y-89.54681
G01 X-103.49276 Y-89.53543
G01 X-103.48501 Y-89.53096
G01 X-103.96352 Y-89.05243
G01 X-103.96065 Y-89.04422
G01 X-103.96352 Y-89.05243
G01 X-103.99009 Y-89.06022
G01 X-104.10187 Y-89.08120
G01 X-104.24859 Y-89.09159
G01 X-104.38610 Y-89.08268
G01 X-104.50924 Y-89.06038
G01 X-104.53642 Y-89.05245
G01 X-104.53911 Y-89.04450
G01 X-104.53642 Y-89.05245
G01 X-105.01490 Y-89.53096
G01 X-105.07114 Y-89.54198
G01 X-105.01490 Y-89.53096
G01 X-104.80030 Y-89.62113
G01 X-104.58397 Y-89.67907
G01 X-104.36189 Y-89.70833
G01 X-104.13799 Y-89.70848
G01 X-103.91595 Y-89.67922
G01 X-103.69961 Y-89.62128
G01 X-103.49276 Y-89.53543
G01 X-103.43739 Y-89.54681
G01 X-103.61155 Y-89.50650
G01 X-103.72288 Y-89.55273
G01 X-103.93007 Y-89.60825
G01 X-104.14272 Y-89.63627
G01 X-104.35720 Y-89.63612
G01 X-104.56990 Y-89.60838
G01 X-104.77701 Y-89.55260
G01 X-104.88833 Y-89.50650
G01 X-104.95305 Y-89.52222
G01 X-104.88833 Y-89.50650
G01 X-104.51506 Y-89.13320
G01 X-104.51765 Y-89.12570
G01 X-104.51506 Y-89.13320
G01 X-104.38762 Y-89.15555
G01 X-104.24259 Y-89.16383
G01 X-104.09939 Y-89.15397
G01 X-103.98486 Y-89.13320
G01 X-103.98227 Y-89.12558
G01 X-103.98486 Y-89.13320
G01 X-103.61155 Y-89.50650
G01 X-103.55491 Y-89.51775
G01 X-103.67881 Y-89.50279
G01 X-103.74617 Y-89.48405
G01 X-103.73906 Y-89.48113
G01 X-104.00899 Y-89.21123
G01 X-104.00617 Y-89.20358
G01 X-104.00899 Y-89.21123
G01 X-104.09603 Y-89.22644
G01 X-104.24711 Y-89.23607
G01 X-104.38999 Y-89.22809
G01 X-104.49085 Y-89.21112
G01 X-104.49344 Y-89.20383
G01 X-104.49085 Y-89.21112
G01 X-104.76085 Y-89.48113
G01 X-104.83009 Y-89.49952
G01 X-104.76085 Y-89.48113
G01 X-104.55572 Y-89.53711
G01 X-104.35247 Y-89.56388
G01 X-104.14747 Y-89.56403
G01 X-103.94419 Y-89.53726
G01 X-103.74617 Y-89.48405
G01 X-103.67881 Y-89.50279
G01 X-103.87782 Y-89.44455
G01 X-103.95831 Y-89.46629
G01 X-104.15222 Y-89.49182
G01 X-104.34775 Y-89.49192
G01 X-104.54160 Y-89.46614
G01 X-104.62214 Y-89.44455
G01 X-104.70302 Y-89.47026
G01 X-104.62214 Y-89.44455
G01 X-104.46626 Y-89.28867
G01 X-104.46883 Y-89.28166
G01 X-104.46626 Y-89.28867
G01 X-104.39273 Y-89.30048
G01 X-104.24165 Y-89.30828
G01 X-104.09230 Y-89.29875
G01 X-104.03337 Y-89.28900
G01 X-104.03081 Y-89.28189
G01 X-104.03337 Y-89.28900
G01 X-103.87782 Y-89.44455
G01 X-103.80805 Y-89.46324
G01 X-103.93644 Y-89.43104
G01 X-104.02273 Y-89.40178
G01 X-104.15692 Y-89.41961
G01 X-104.34300 Y-89.41946
G01 X-104.47721 Y-89.40178
G01 X-104.56344 Y-89.43104
G01 X-104.47721 Y-89.40178
G01 X-104.44170 Y-89.36624
G01 X-104.44419 Y-89.35954
G01 X-104.44170 Y-89.36624
G01 X-104.39578 Y-89.37280
G01 X-104.24122 Y-89.38049
G01 X-104.09458 Y-89.37168
G01 X-104.05778 Y-89.36670
G01 X-104.05524 Y-89.35992
G01 X-104.05778 Y-89.36670
G01 X-104.02273 Y-89.40178
G04 P0 ( dwell for no time -- G64 should not smooth over this point )
G00 Z2.00000 ( retract )

G00 X-102.83035 Y-88.09304 ( rapid move to begin. )
G01 F100.00000
( Mill infeed pass 1/1 )
G01 Z-0.10000
G04 P0 ( dwell for no time -- G64 should not smooth over this point )
G01 F600.00000
G01 X-102.83035 Y-88.09304
G01 X-102.83035 Y-87.90691
G01 X-102.84816 Y-87.77272
G01 X-102.81890 Y-87.68649
G01 X-102.84816 Y-87.77272
G01 X-102.88346 Y-87.80803
G01 X-102.89022 Y-87.80551
G01 X-102.88346 Y-87.80803
G01 X-102.87848 Y-87.84229
G01 X-102.86947 Y-87.99998
G01 X-102.87848 Y-88.15769
G01 X-102.88346 Y-88.19195
G01 X-102.89022 Y-88.19444
G01 X-102.88346 Y-88.19195
G01 X-102.84816 Y-88.22723
G01 X-102.81890 Y-88.31346
G01 X-102.84816 Y-88.22723
G01 X-102.83035 Y-88.09304
G01 X-102.75804 Y-88.09779
G01 X-102.78374 Y-88.29159
G01 X-102.80538 Y-88.37214
G01 X-102.77968 Y-88.45304
G01 X-102.80538 Y-88.37214
G01 X-102.96103 Y-88.21651
G01 X-102.96807 Y-88.21908
G01 X-102.96103 Y-88.21651
G01 X-102.95024 Y-88.14943
G01 X-102.94168 Y-87.99998
G01 X-102.95024 Y-87.85055
G01 X-102.96103 Y-87.78344
G01 X-102.96807 Y-87.78088
G01 X-102.96103 Y-87.78344
G01 X-102.80538 Y-87.62779
G01 X-102.78671 Y-87.55804
G01 X-102.80538 Y-87.62779
G01 X-102.78359 Y-87.70831
G01 X-102.75809 Y-87.90219
G01 X-102.75804 Y-88.09779
G01 X-102.68593 Y-88.10252
G01 X-102.71265 Y-88.30574
G01 X-102.76883 Y-88.51085
G01 X-102.75047 Y-88.58009
G01 X-102.76883 Y-88.51085
G01 X-103.03858 Y-88.24110
G01 X-103.04584 Y-88.24366
G01 X-103.03858 Y-88.24110
G01 X-103.02258 Y-88.14613
G01 X-103.01392 Y-87.99500
G01 X-103.02258 Y-87.85385
G01 X-103.03858 Y-87.75888
G01 X-103.04617 Y-87.75609
G01 X-103.03858 Y-87.75888
G01 X-102.76883 Y-87.48911
G01 X-102.76583 Y-87.49622
G01 X-102.74711 Y-87.42886
G01 X-102.76583 Y-87.49622
G01 X-102.71267 Y-87.69419
G01 X-102.68593 Y-87.89744
G01 X-102.68593 Y-88.10252
G01 X-102.61364 Y-88.10724
G01 X-102.64155 Y-88.31989
G01 X-102.69736 Y-88.52703
G01 X-102.74348 Y-88.63833
G01 X-102.72776 Y-88.70305
G01 X-102.74348 Y-88.63833
G01 X-103.11671 Y-88.26508
G01 X-103.12425 Y-88.26772
G01 X-103.11648 Y-88.26414
G01 X-103.09507 Y-88.14326
G01 X-103.08610 Y-87.99998
G01 X-103.09507 Y-87.85672
G01 X-103.11648 Y-87.73584
G01 X-103.12428 Y-87.73224
G01 X-103.11671 Y-87.73488
G01 X-102.74348 Y-87.36162
G01 X-102.73220 Y-87.30496
G01 X-102.74348 Y-87.36162
G01 X-102.69720 Y-87.47290
G01 X-102.64168 Y-87.68006
G01 X-102.61364 Y-87.89271
G01 X-102.61364 Y-88.10724
G01 X-102.54148 Y-88.11196
G01 X-102.57071 Y-88.33399
G01 X-102.62865 Y-88.55034
G01 X-102.71900 Y-88.76495
G01 X-102.70797 Y-88.82116
G01 X-102.71900 Y-88.76495
G01 X-103.19766 Y-88.28629
G01 X-103.20693 Y-88.28908
G01 X-103.19766 Y-88.28629
G01 X-103.18813 Y-88.25314
G01 X-103.16787 Y-88.14120
G01 X-103.15837 Y-88.00554
G01 X-103.16787 Y-87.85878
G01 X-103.18813 Y-87.74684
G01 X-103.19766 Y-87.71369
G01 X-103.20591 Y-87.71085
G01 X-103.19766 Y-87.71369
G01 X-102.71900 Y-87.23500
G01 X-102.71450 Y-87.24278
G01 X-102.70315 Y-87.18740
G01 X-102.71450 Y-87.24278
G01 X-102.62865 Y-87.44963
G01 X-102.57071 Y-87.66594
G01 X-102.54148 Y-87.88799
G01 X-102.54148 Y-88.11196
G01 X-102.46926 Y-88.11671
G01 X-102.49969 Y-88.34811
G01 X-102.56004 Y-88.57364
G01 X-102.64963 Y-88.78921
G01 X-102.70353 Y-88.88258
G01 X-102.69410 Y-88.93564
G01 X-102.70353 Y-88.88258
G01 X-103.27904 Y-88.30701
G01 X-103.28885 Y-88.30988
G01 X-103.27904 Y-88.30701
G01 X-103.25466 Y-88.21905
G01 X-103.23723 Y-88.11644
G01 X-103.23055 Y-87.99998
G01 X-103.23723 Y-87.88354
G01 X-103.25466 Y-87.78093
G01 X-103.27904 Y-87.69294
G01 X-103.28887 Y-87.69010
G01 X-103.27904 Y-87.69294
G01 X-102.70353 Y-87.11740
G01 X-102.69746 Y-87.07138
G01 X-102.70353 Y-87.11740
G01 X-102.64948 Y-87.21070
G01 X-102.56015 Y-87.42637
G01 X-102.49969 Y-87.65184
G01 X-102.46926 Y-87.88324
G01 X-102.46926 Y-88.11671
G01 X-102.39703 Y-88.12144
G01 X-102.42867 Y-88.36221
G01 X-102.49162 Y-88.59685
G01 X-102.58458 Y-88.82126
G01 X-102.68803 Y-89.00018
G01 X-102.68196 Y-89.04620
G01 X-102.68803 Y-89.00018
G01 X-103.36124 Y-88.32695
G01 X-103.37264 Y-88.32987
G01 X-103.36124 Y-88.32695
G01 X-103.35816 Y-88.31925
G01 X-103.32748 Y-88.21496
G01 X-103.30894 Y-88.10818
G01 X-103.30277 Y-87.99998
G01 X-103.30894 Y-87.89180
G01 X-103.32748 Y-87.78502
G01 X-103.35816 Y-87.68072
G01 X-103.36124 Y-87.67300
G01 X-103.37267 Y-87.67008
G01 X-103.36124 Y-87.67300
G01 X-102.68803 Y-86.99978
G01 X-102.68199 Y-86.95375
G01 X-102.68803 Y-86.99978
G01 X-102.58455 Y-87.17869
G01 X-102.49162 Y-87.40310
G01 X-102.42867 Y-87.63772
G01 X-102.39703 Y-87.87851
G01 X-102.39703 Y-88.12144
G01 X-102.32497 Y-88.12616
G01 X-102.35791 Y-88.37630
G01 X-102.42319 Y-88.62007
G01 X-102.51978 Y-88.85321
G01 X-102.64592 Y-89.07173
G01 X-102.67749 Y-89.11285
G01 X-103.44688 Y-88.34344
G01 X-103.42476 Y-88.29053
G01 X-103.39697 Y-88.19436
G01 X-103.38034 Y-88.09566
G01 X-103.37510 Y-87.99571
G01 X-103.38034 Y-87.90432
G01 X-103.39697 Y-87.80562
G01 X-103.42476 Y-87.70945
G01 X-103.44691 Y-87.65652
G01 X-102.67749 Y-86.88710
G01 X-102.64597 Y-86.92820
G01 X-102.51978 Y-87.14674
G01 X-102.42319 Y-87.37989
G01 X-102.35791 Y-87.62362
G01 X-102.32497 Y-87.87379
G01 X-102.32497 Y-88.12616
G04 P0 ( dwell for no time -- G64 should not smooth over this point )
G00 Z2.00000 ( retract )

G00 X-103.54683 Y-86.47773 ( rapid move to begin. )
G01 F100.00000
( Mill infeed pass 1/1 )
G01 Z-0.10000
G04 P0 ( dwell for no time -- G64 should not smooth over this point )
G01 F600.00000
G01 X-103.54683 Y-86.47773
G01 X-103.61155 Y-86.49345
G01 X-103.61785 Y-86.49086
G01 X-103.66982 Y-86.50044
G01 X-103.79695 Y-86.52970
G01 X-103.87782 Y-86.55540
G01 X-103.88321 Y-86.55395
G01 X-103.93652 Y-86.56891
G01 X-104.02273 Y-86.59818
G01 X-104.15692 Y-86.58034
G01 X-104.34300 Y-86.58050
G01 X-104.47721 Y-86.59818
G01 X-104.56344 Y-86.56891
G01 X-104.47721 Y-86.59818
G01 X-104.44211 Y-86.63325
G01 X-104.44465 Y-86.63996
G01 X-104.44211 Y-86.63325
G01 X-104.40957 Y-86.62873
G01 X-104.24805 Y-86.61949
G01 X-104.09458 Y-86.62830
G01 X-104.05783 Y-86.63325
G01 X-104.05532 Y-86.64001
G01 X-104.05783 Y-86.63325
G01 X-104.02273 Y-86.59818
G01 X-103.93652 Y-86.56891
G01 X-103.88321 Y-86.55395
G01 X-103.87782 Y-86.55540
G01 X-104.03340 Y-86.71098
G01 X-104.03083 Y-86.71806
G01 X-104.03340 Y-86.71098
G01 X-104.09230 Y-86.70122
G01 X-104.24328 Y-86.69170
G01 X-104.40609 Y-86.70102
G01 X-104.46657 Y-86.71095
G01 X-104.46906 Y-86.71796
G01 X-104.46657 Y-86.71095
G01 X-104.62214 Y-86.55540
G01 X-104.70302 Y-86.52970
G01 X-104.62214 Y-86.55540
G01 X-104.54160 Y-86.53381
G01 X-104.34775 Y-86.50803
G01 X-104.15219 Y-86.50803
G01 X-103.95834 Y-86.53381
G01 X-103.88321 Y-86.55395
G01 X-103.79695 Y-86.52970
G01 X-103.73906 Y-86.51883
G01 X-104.00904 Y-86.78873
G01 X-104.00642 Y-86.79604
G01 X-104.00904 Y-86.78873
G01 X-104.09603 Y-86.77354
G01 X-104.24876 Y-86.76394
G01 X-104.40284 Y-86.77339
G01 X-104.49093 Y-86.78873
G01 X-104.49352 Y-86.79602
G01 X-104.49093 Y-86.78873
G01 X-104.76083 Y-86.51883
G01 X-104.83009 Y-86.50044
G01 X-104.76083 Y-86.51883
G01 X-104.55572 Y-86.46284
G01 X-104.35247 Y-86.43607
G01 X-104.14747 Y-86.43592
G01 X-103.94419 Y-86.46267
G01 X-103.74290 Y-86.51728
G01 X-103.61785 Y-86.49086
G01 X-103.61155 Y-86.49345
G01 X-103.98493 Y-86.86678
G01 X-103.98229 Y-86.87438
G01 X-103.98493 Y-86.86678
G01 X-104.09939 Y-86.84600
G01 X-104.24373 Y-86.83612
G01 X-104.39997 Y-86.84590
G01 X-104.51503 Y-86.86676
G01 X-104.51765 Y-86.87427
G01 X-104.51503 Y-86.86676
G01 X-104.88833 Y-86.49345
G01 X-104.95305 Y-86.47773
G01 X-104.88833 Y-86.49345
G01 X-104.77701 Y-86.44735
G01 X-104.56990 Y-86.39157
G01 X-104.35720 Y-86.36384
G01 X-104.14272 Y-86.36368
G01 X-103.92999 Y-86.39157
G01 X-103.72293 Y-86.44735
G01 X-103.61785 Y-86.49086
G01 X-103.42880 Y-86.45797
G01 X-103.48501 Y-86.46899
G01 X-103.96355 Y-86.94753
G01 X-103.96088 Y-86.95550
G01 X-103.96355 Y-86.94753
G01 X-103.99009 Y-86.93975
G01 X-104.10187 Y-86.91877
G01 X-104.24985 Y-86.90839
G01 X-104.39804 Y-86.91877
G01 X-104.50990 Y-86.93975
G01 X-104.53637 Y-86.94753
G01 X-104.53908 Y-86.95548
G01 X-104.53637 Y-86.94753
G01 X-105.01490 Y-86.46899
G01 X-105.07114 Y-86.45797
G01 X-105.01490 Y-86.46899
G01 X-104.80030 Y-86.37882
G01 X-104.58397 Y-86.32088
G01 X-104.36189 Y-86.29162
G01 X-104.13799 Y-86.29147
G01 X-103.91595 Y-86.32073
G01 X-103.69961 Y-86.37867
G01 X-103.48501 Y-86.46899
G01 X-103.42880 Y-86.45797
G01 X-103.31432 Y-86.44410
G01 X-103.36736 Y-86.45350
G01 X-103.94302 Y-87.02914
G01 X-103.94015 Y-87.03904
G01 X-103.94302 Y-87.02914
G01 X-104.02458 Y-87.00607
G01 X-104.12707 Y-86.98799
G01 X-104.24859 Y-86.98060
G01 X-104.36779 Y-86.98743
G01 X-104.47536 Y-87.00607
G01 X-104.55694 Y-87.02914
G01 X-104.55976 Y-87.03897
G01 X-104.55694 Y-87.02914
G01 X-105.13256 Y-86.45352
G01 X-105.18562 Y-86.44410
G01 X-105.13256 Y-86.45352
G01 X-105.03919 Y-86.39960
G01 X-104.82364 Y-86.31004
G01 X-104.59801 Y-86.24989
G01 X-104.36667 Y-86.21941
G01 X-104.13327 Y-86.21926
G01 X-103.90185 Y-86.24974
G01 X-103.67627 Y-86.31004
G01 X-103.46075 Y-86.39962
G01 X-103.36736 Y-86.45350
G01 X-103.20371 Y-86.43196
G01 X-103.24978 Y-86.43803
G01 X-103.92288 Y-87.11113
G01 X-103.91999 Y-87.12258
G01 X-103.92527 Y-87.11016
G01 X-104.02915 Y-87.07887
G01 X-104.13578 Y-87.05967
G01 X-104.24439 Y-87.05278
G01 X-104.36367 Y-87.05962
G01 X-104.46258 Y-87.07714
G01 X-104.57470 Y-87.11016
G01 X-104.57993 Y-87.12139
G01 X-104.57703 Y-87.11110
G01 X-105.25016 Y-86.43803
G01 X-105.29618 Y-86.43198
G01 X-105.25016 Y-86.43803
G01 X-105.07119 Y-86.33470
G01 X-104.84683 Y-86.24176
G01 X-104.61219 Y-86.17890
G01 X-104.37139 Y-86.14720
G01 X-104.12852 Y-86.14702
G01 X-103.88770 Y-86.17875
G01 X-103.65303 Y-86.24161
G01 X-103.42867 Y-86.33457
G01 X-103.24978 Y-86.43803
G01 X-103.13711 Y-86.42749
G01 X-103.90640 Y-87.19678
G01 X-103.95420 Y-87.17661
G01 X-104.05019 Y-87.14821
G01 X-104.14879 Y-87.13097
G01 X-104.24919 Y-87.12512
G01 X-104.35072 Y-87.13094
G01 X-104.44978 Y-87.14821
G01 X-104.54571 Y-87.17661
G01 X-104.59357 Y-87.19678
G01 X-105.36283 Y-86.42749
G01 X-105.32171 Y-86.39597
G01 X-105.10319 Y-86.26978
G01 X-104.87007 Y-86.17323
G01 X-104.62626 Y-86.10793
G01 X-104.37609 Y-86.07496
G01 X-104.12379 Y-86.07496
G01 X-103.87363 Y-86.10793
G01 X-103.62989 Y-86.17323
G01 X-103.39672 Y-86.26978
G01 X-103.17820 Y-86.39597
G01 X-103.13711 Y-86.42749
G04 P0 ( dwell for no time -- G64 should not smooth over this point )
G00 Z2.00000 ( retract )

G00 X-104.92496 Y-84.42498 ( rapid move to begin. )
G01 F100.00000
( Mill infeed pass 1/1 )
G01 Z-0.10000
G04 P0 ( dwell for no time -- G64 should not smooth over this point )
G01 F600.00000
G01 X-104.92496 Y-84.42498
G01 X-104.92496 Y-83.37464
G01 X-105.27586 Y-83.37197
G01 X-105.32608 Y-83.36333
G01 X-105.37401 Y-83.34949
G01 X-105.41927 Y-83.33077
G01 X-105.47162 Y-83.30120
G01 X-105.52862 Y-83.25678
G01 X-105.57154 Y-83.21180
G01 X-105.61902 Y-83.14190
G01 X-105.64871 Y-83.07598
G01 X-105.66530 Y-83.01713
G01 X-105.67373 Y-82.95615
G01 X-105.67436 Y-82.87497
G01 X-106.72498 Y-82.87497
G01 X-106.72498 Y-82.99491
G01 X-106.71503 Y-83.13605
G01 X-106.66171 Y-83.37268
G01 X-106.57129 Y-83.59737
G01 X-106.44599 Y-83.80461
G01 X-106.28909 Y-83.98909
G01 X-106.10461 Y-84.14601
G01 X-105.89735 Y-84.27128
G01 X-105.67269 Y-84.36171
G01 X-105.43598 Y-84.41502
G01 X-105.29489 Y-84.42498
G01 X-104.92496 Y-84.42498
G01 X-104.99715 Y-84.35274
G01 X-104.99715 Y-83.44652
G01 X-104.97632 Y-83.42589
G01 X-104.99715 Y-83.44652
G01 X-105.27602 Y-83.44469
G01 X-105.34713 Y-83.43273
G01 X-105.40248 Y-83.41611
G01 X-105.45567 Y-83.39348
G01 X-105.51706 Y-83.35790
G01 X-105.58206 Y-83.30606
G01 X-105.62450 Y-83.26092
G01 X-105.68450 Y-83.17235
G01 X-105.71455 Y-83.10677
G01 X-105.73489 Y-83.03773
G01 X-105.74604 Y-82.94721
G01 X-105.73047 Y-82.92937
G01 X-105.74604 Y-82.94721
G01 X-106.65275 Y-82.94721
G01 X-106.67649 Y-82.92468
G01 X-106.65275 Y-82.94721
G01 X-106.64363 Y-83.12554
G01 X-106.59255 Y-83.35114
G01 X-106.50647 Y-83.56498
G01 X-106.38721 Y-83.76227
G01 X-106.23786 Y-83.93786
G01 X-106.06227 Y-84.08721
G01 X-105.86496 Y-84.20646
G01 X-105.65112 Y-84.29254
G01 X-105.42549 Y-84.34337
G01 X-105.29235 Y-84.35274
G01 X-104.99715 Y-84.35274
G01 X-105.06941 Y-84.28053
G01 X-105.06941 Y-83.51840
G01 X-105.04950 Y-83.49945
G01 X-105.06941 Y-83.51840
G01 X-105.30025 Y-83.51431
G01 X-105.36804 Y-83.50194
G01 X-105.42702 Y-83.48403
G01 X-105.49184 Y-83.45609
G01 X-105.55315 Y-83.42059
G01 X-105.64274 Y-83.34741
G01 X-105.69148 Y-83.29328
G01 X-105.73878 Y-83.22384
G01 X-105.78008 Y-83.13732
G01 X-105.80169 Y-83.06778
G01 X-105.81104 Y-83.01942
G01 X-105.79913 Y-83.00415
G01 X-105.81104 Y-83.01942
G01 X-106.57845 Y-83.01942
G01 X-106.60929 Y-82.99359
G01 X-106.57845 Y-83.01942
G01 X-106.57172 Y-83.11497
G01 X-106.52374 Y-83.32968
G01 X-106.44165 Y-83.53262
G01 X-106.32841 Y-83.71990
G01 X-106.18661 Y-83.88662
G01 X-106.01990 Y-84.02843
G01 X-105.83261 Y-84.14164
G01 X-105.62958 Y-84.22338
G01 X-105.41495 Y-84.27171
G01 X-105.28976 Y-84.28053
G01 X-105.06941 Y-84.28053
G01 X-105.14160 Y-84.20832
G01 X-105.14160 Y-83.59028
G01 X-105.12224 Y-83.57222
G01 X-105.14160 Y-83.59028
G01 X-105.28379 Y-83.58896
G01 X-105.37152 Y-83.57522
G01 X-105.44658 Y-83.55371
G01 X-105.50388 Y-83.53024
G01 X-105.59842 Y-83.47723
G01 X-105.68816 Y-83.40438
G01 X-105.74457 Y-83.34263
G01 X-105.79199 Y-83.27456
G01 X-105.81549 Y-83.23323
G01 X-105.85336 Y-83.14741
G01 X-105.86994 Y-83.09163
G01 X-105.86123 Y-83.07895
G01 X-105.86994 Y-83.09163
G01 X-106.50096 Y-83.09163
G01 X-106.53425 Y-83.06476
G01 X-106.50096 Y-83.09163
G01 X-106.45419 Y-83.30801
G01 X-106.37685 Y-83.50024
G01 X-106.26961 Y-83.67756
G01 X-106.13537 Y-83.83539
G01 X-105.97756 Y-83.96963
G01 X-105.80025 Y-84.07682
G01 X-105.60802 Y-84.15419
G01 X-105.40441 Y-84.20006
G01 X-105.28727 Y-84.20832
G01 X-105.14160 Y-84.20832
G01 X-105.28605 Y-84.06361
G01 X-105.28605 Y-83.73354
G01 X-105.26992 Y-83.72043
G01 X-105.28605 Y-83.73354
G01 X-105.31655 Y-83.73085
G01 X-105.40812 Y-83.71510
G01 X-105.48722 Y-83.69242
G01 X-105.58930 Y-83.64962
G01 X-105.68869 Y-83.59033
G01 X-105.77853 Y-83.51782
G01 X-105.86418 Y-83.42409
G01 X-105.93746 Y-83.31236
G01 X-105.97342 Y-83.23608
G01 X-105.96796 Y-83.22655
G01 X-105.97342 Y-83.23608
G01 X-106.32234 Y-83.23608
G01 X-106.36735 Y-83.20494
G01 X-106.32234 Y-83.23608
G01 X-106.31587 Y-83.26491
G01 X-106.24749 Y-83.43562
G01 X-106.15206 Y-83.59285
G01 X-106.03291 Y-83.73293
G01 X-105.89285 Y-83.85205
G01 X-105.73550 Y-83.94718
G01 X-105.56491 Y-84.01586
G01 X-105.38336 Y-84.05673
G01 X-105.28605 Y-84.06361
G01 X-105.43050 Y-83.89805
G01 X-105.43050 Y-83.85800
G01 X-105.41693 Y-83.84827
G01 X-105.43156 Y-83.85780
G01 X-105.55961 Y-83.81997
G01 X-105.65348 Y-83.77903
G01 X-105.75211 Y-83.72196
G01 X-105.86875 Y-83.63100
G01 X-105.94945 Y-83.54761
G01 X-105.98368 Y-83.50552
G01 X-106.04221 Y-83.41970
G01 X-106.06479 Y-83.38050
G01 X-106.06037 Y-83.37212
G01 X-106.06479 Y-83.38050
G01 X-106.11165 Y-83.38050
G01 X-106.17680 Y-83.34378
G01 X-106.11165 Y-83.38050
G01 X-106.03446 Y-83.50814
G01 X-105.93045 Y-83.63047
G01 X-105.80817 Y-83.73448
G01 X-105.67076 Y-83.81756
G01 X-105.52179 Y-83.87751
G01 X-105.43050 Y-83.89805
G01 X-105.33527 Y-84.01078
G01 X-105.35829 Y-83.98612
G01 X-105.54332 Y-83.94667
G01 X-105.70309 Y-83.88236
G01 X-105.85051 Y-83.79328
G01 X-105.98168 Y-83.68170
G01 X-106.09326 Y-83.55051
G01 X-106.18239 Y-83.40311
G01 X-106.22054 Y-83.30829
G01 X-106.26761 Y-83.27649
G01 X-106.22054 Y-83.30829
G01 X-106.01952 Y-83.30829
G01 X-106.01460 Y-83.29938
G01 X-106.01952 Y-83.30829
G01 X-105.99296 Y-83.36143
G01 X-105.91058 Y-83.48195
G01 X-105.82366 Y-83.57443
G01 X-105.73377 Y-83.64685
G01 X-105.62595 Y-83.71195
G01 X-105.52001 Y-83.75757
G01 X-105.42986 Y-83.78421
G01 X-105.35829 Y-83.79747
G01 X-105.34317 Y-83.78584
G01 X-105.35829 Y-83.79747
G01 X-105.35829 Y-83.98612
G01 X-105.26309 Y-84.08825
G01 X-105.19270 Y-84.15724
G01 X-105.21384 Y-84.13610
G01 X-105.28473 Y-84.13610
G01 X-105.39387 Y-84.12838
G01 X-105.58640 Y-84.08502
G01 X-105.76781 Y-84.01200
G01 X-105.93520 Y-83.91086
G01 X-106.08414 Y-83.78416
G01 X-106.21084 Y-83.63519
G01 X-106.31203 Y-83.46785
G01 X-106.38500 Y-83.28647
G01 X-106.41259 Y-83.16384
G01 X-106.44655 Y-83.13674
G01 X-106.41259 Y-83.16384
G01 X-105.92389 Y-83.16384
G01 X-105.91625 Y-83.15213
G01 X-105.92389 Y-83.16384
G01 X-105.92270 Y-83.16775
G01 X-105.88097 Y-83.26369
G01 X-105.86237 Y-83.29861
G01 X-105.81091 Y-83.37466
G01 X-105.73337 Y-83.46115
G01 X-105.63459 Y-83.53994
G01 X-105.53210 Y-83.59671
G01 X-105.47612 Y-83.61987
G01 X-105.39677 Y-83.64362
G01 X-105.31478 Y-83.65823
G01 X-105.26489 Y-83.66191
G01 X-105.21384 Y-83.66214
G01 X-105.19562 Y-83.64596
G01 X-105.21384 Y-83.66214
G01 X-105.21384 Y-84.13610
G04 P0 ( dwell for no time -- G64 should not smooth over this point )
G00 Z2.00000 ( retract )

G00 X-103.08831 Y-83.38050 ( rapid move to begin. )
G01 F100.00000
( Mill infeed pass 1/1 )
G01 Z-0.10000
G04 P0 ( dwell for no time -- G64 should not smooth over this point )
G01 F600.00000
G01 X-103.08831 Y-83.38050
G01 X-103.16527 Y-83.50829
G01 X-103.26934 Y-83.63064
G01 X-103.39167 Y-83.73468
G01 X-103.52900 Y-83.81794
G01 X-103.67815 Y-83.87751
G01 X-103.76941 Y-83.89805
G01 X-103.79949 Y-83.93981
G01 X-103.76941 Y-83.89805
G01 X-103.76941 Y-83.85592
G01 X-103.78336 Y-83.84573
G01 X-103.76941 Y-83.85592
G01 X-103.65255 Y-83.82444
G01 X-103.55814 Y-83.78477
G01 X-103.44963 Y-83.72312
G01 X-103.33373 Y-83.63339
G01 X-103.24734 Y-83.54362
G01 X-103.21313 Y-83.50153
G01 X-103.15997 Y-83.42356
G01 X-103.13543 Y-83.38050
G01 X-103.13980 Y-83.37220
G01 X-103.13543 Y-83.38050
G01 X-103.08831 Y-83.38050
G01 X-103.02316 Y-83.34378
G01 X-102.93236 Y-83.27649
G01 X-102.97942 Y-83.30829
G01 X-103.18057 Y-83.30829
G01 X-103.18547 Y-83.29933
G01 X-103.18057 Y-83.30829
G01 X-103.20861 Y-83.36412
G01 X-103.28618 Y-83.47796
G01 X-103.37101 Y-83.56951
G01 X-103.46726 Y-83.64733
G01 X-103.51254 Y-83.67730
G01 X-103.58473 Y-83.71733
G01 X-103.67957 Y-83.75741
G01 X-103.72913 Y-83.77253
G01 X-103.84165 Y-83.79772
G01 X-103.85669 Y-83.78614
G01 X-103.84165 Y-83.79772
G01 X-103.84165 Y-83.98612
G01 X-103.86845 Y-84.01921
G01 X-103.84165 Y-83.98612
G01 X-103.65654 Y-83.94692
G01 X-103.49669 Y-83.88259
G01 X-103.34930 Y-83.79348
G01 X-103.21808 Y-83.68187
G01 X-103.10650 Y-83.55063
G01 X-103.01737 Y-83.40321
G01 X-102.97942 Y-83.30829
G01 X-102.93236 Y-83.27649
G01 X-102.78730 Y-83.16384
G01 X-103.27632 Y-83.16384
G01 X-103.28387 Y-83.15223
G01 X-103.27632 Y-83.16384
G01 X-103.29715 Y-83.21749
G01 X-103.33911 Y-83.30133
G01 X-103.38582 Y-83.37067
G01 X-103.46888 Y-83.46326
G01 X-103.56472 Y-83.53943
G01 X-103.66675 Y-83.59645
G01 X-103.73332 Y-83.62323
G01 X-103.77134 Y-83.63412
G01 X-103.87025 Y-83.65612
G01 X-103.91963 Y-83.66115
G01 X-103.98610 Y-83.66168
G01 X-104.00629 Y-83.64225
G01 X-103.98610 Y-83.66168
G01 X-103.98610 Y-84.13610
G01 X-104.00835 Y-84.15932
G01 X-103.98610 Y-84.13610
G01 X-103.91521 Y-84.13610
G01 X-103.80602 Y-84.12869
G01 X-103.61343 Y-84.08525
G01 X-103.43197 Y-84.01223
G01 X-103.26456 Y-83.91106
G01 X-103.11564 Y-83.78434
G01 X-102.98890 Y-83.63534
G01 X-102.88770 Y-83.46796
G01 X-102.81470 Y-83.28652
G01 X-102.78730 Y-83.16384
G01 X-102.62151 Y-83.01944
G01 X-103.38897 Y-83.01942
G01 X-103.40068 Y-83.00430
G01 X-103.38897 Y-83.01942
G01 X-103.39756 Y-83.06603
G01 X-103.42278 Y-83.14484
G01 X-103.46426 Y-83.22912
G01 X-103.50530 Y-83.28929
G01 X-103.56093 Y-83.35086
G01 X-103.65351 Y-83.42500
G01 X-103.71534 Y-83.45968
G01 X-103.78054 Y-83.48673
G01 X-103.90175 Y-83.51487
G01 X-104.13053 Y-83.51812
G01 X-104.15118 Y-83.49788
G01 X-104.13053 Y-83.51812
G01 X-104.13053 Y-84.28053
G01 X-104.15234 Y-84.30290
G01 X-104.13053 Y-84.28053
G01 X-103.91013 Y-84.28053
G01 X-103.78491 Y-84.27204
G01 X-103.57030 Y-84.22358
G01 X-103.36720 Y-84.14187
G01 X-103.17991 Y-84.02864
G01 X-103.01318 Y-83.88678
G01 X-102.87135 Y-83.72005
G01 X-102.75809 Y-83.53270
G01 X-102.67638 Y-83.32963
G01 X-102.62801 Y-83.11500
G01 X-102.62151 Y-83.01944
G01 X-102.59685 Y-82.99643
G01 X-102.54714 Y-82.99237
G01 X-102.55634 Y-83.12554
G01 X-102.60719 Y-83.35119
G01 X-102.69327 Y-83.56509
G01 X-102.81255 Y-83.76239
G01 X-102.96192 Y-83.93801
G01 X-103.13754 Y-84.08741
G01 X-103.33485 Y-84.20669
G01 X-103.54876 Y-84.29277
G01 X-103.77439 Y-84.34372
G01 X-103.90756 Y-84.35274
G01 X-104.20274 Y-84.35274
G01 X-104.22445 Y-84.37494
G01 X-104.20274 Y-84.35274
G01 X-104.20274 Y-83.44634
G01 X-104.22357 Y-83.42569
G01 X-104.20274 Y-83.44634
G01 X-103.90950 Y-83.44301
G01 X-103.79667 Y-83.41566
G01 X-103.75069 Y-83.39658
G01 X-103.68885 Y-83.36183
G01 X-103.62237 Y-83.31020
G01 X-103.57231 Y-83.25693
G01 X-103.51887 Y-83.17857
G01 X-103.48793 Y-83.11340
G01 X-103.46662 Y-83.04464
G01 X-103.45641 Y-82.98454
G01 X-103.45433 Y-82.94721
G01 X-103.46974 Y-82.92945
G01 X-103.45433 Y-82.94721
G01 X-102.54722 Y-82.94721
G01 X-102.52606 Y-82.92605
G01 X-102.54722 Y-82.94721
G01 X-102.54714 Y-82.99237
G01 X-102.47498 Y-82.99491
G01 X-102.48494 Y-83.13605
G01 X-102.53825 Y-83.37268
G01 X-102.62865 Y-83.59734
G01 X-102.75395 Y-83.80461
G01 X-102.91087 Y-83.98909
G01 X-103.09532 Y-84.14601
G01 X-103.30259 Y-84.27128
G01 X-103.52728 Y-84.36171
G01 X-103.76390 Y-84.41502
G01 X-103.90505 Y-84.42498
G01 X-104.27498 Y-84.42498
G01 X-104.27498 Y-83.37453
G01 X-103.92311 Y-83.37199
G01 X-103.82395 Y-83.34880
G01 X-103.77795 Y-83.32940
G01 X-103.72415 Y-83.29833
G01 X-103.67579 Y-83.26087
G01 X-103.62524 Y-83.20781
G01 X-103.58953 Y-83.15693
G01 X-103.55743 Y-83.09216
G01 X-103.53827 Y-83.03303
G01 X-103.52763 Y-82.97281
G01 X-103.52578 Y-82.87497
G01 X-102.47498 Y-82.87497
G01 X-102.47498 Y-82.99491
G01 X-102.54714 Y-82.99237
G01 X-102.59685 Y-82.99643
G01 X-102.69901 Y-83.09163
G01 X-102.74549 Y-83.30809
G01 X-102.82291 Y-83.50034
G01 X-102.93012 Y-83.67768
G01 X-103.06441 Y-83.83557
G01 X-103.22225 Y-83.96983
G01 X-103.39959 Y-84.07705
G01 X-103.59187 Y-84.15442
G01 X-103.79547 Y-84.20036
G01 X-103.91267 Y-84.20832
G01 X-104.05831 Y-84.20832
G01 X-104.08026 Y-84.23097
G01 X-104.05831 Y-84.20832
G01 X-104.05831 Y-83.58990
G01 X-104.07919 Y-83.56928
G01 X-104.05831 Y-83.58990
G01 X-103.91935 Y-83.58889
G01 X-103.87721 Y-83.58401
G01 X-103.75097 Y-83.55284
G01 X-103.68803 Y-83.52673
G01 X-103.60911 Y-83.48226
G01 X-103.51455 Y-83.40687
G01 X-103.45219 Y-83.33864
G01 X-103.41054 Y-83.27898
G01 X-103.38874 Y-83.24124
G01 X-103.34970 Y-83.15594
G01 X-103.32974 Y-83.09163
G01 X-103.33825 Y-83.07911
G01 X-103.32974 Y-83.09163
G01 X-102.69901 Y-83.09163
G01 X-102.67432 Y-83.06864
G01 X-102.87762 Y-83.23608
G01 X-102.88389 Y-83.26496
G01 X-102.95255 Y-83.43560
G01 X-103.04770 Y-83.59300
G01 X-103.16688 Y-83.73311
G01 X-103.30696 Y-83.85226
G01 X-103.46433 Y-83.94741
G01 X-103.63495 Y-84.01624
G01 X-103.81653 Y-84.05673
G01 X-103.91386 Y-84.06361
G01 X-103.93952 Y-84.09404
G01 X-103.91386 Y-84.06361
G01 X-103.91386 Y-83.73318
G01 X-103.93009 Y-83.71997
G01 X-103.91386 Y-83.73318
G01 X-103.88686 Y-83.73128
G01 X-103.72583 Y-83.69671
G01 X-103.62057 Y-83.65452
G01 X-103.52037 Y-83.59658
G01 X-103.42362 Y-83.51985
G01 X-103.33926 Y-83.42869
G01 X-103.26853 Y-83.32325
G01 X-103.22621 Y-83.23608
G01 X-103.23162 Y-83.22653
G01 X-103.22621 Y-83.23608
G01 X-102.87762 Y-83.23608
G04 P0 ( dwell for no time -- G64 should not smooth over this point )
G00 Z2.00000 ( retract )

G00 X-103.61592 Y-78.79240 ( rapid move to begin. )
G01 F100.00000
( Mill infeed pass 1/1 )
G01 Z-0.10000
G04 P0 ( dwell for no time -- G64 should not smooth over this point )
G01 F600.00000
G01 X-103.61592 Y-78.79240
G01 X-103.55694 Y-78.74221
G01 X-103.53289 Y-78.71457
G01 X-103.47759 Y-78.64343
G01 X-103.44427 Y-78.58041
G01 X-103.42037 Y-78.52872
G01 X-103.39862 Y-78.44676
G01 X-103.38897 Y-78.39997
G01 X-103.38585 Y-78.32966
G01 X-103.52502 Y-78.33009
G01 X-103.52502 Y-77.56990
G01 X-103.53322 Y-77.49088
G01 X-103.54922 Y-77.42979
G01 X-103.57749 Y-77.36434
G01 X-103.60972 Y-77.31239
G01 X-103.64173 Y-77.27277
G01 X-103.69370 Y-77.22392
G01 X-103.74391 Y-77.18903
G01 X-103.79837 Y-77.16126
G01 X-103.85608 Y-77.14112
G01 X-103.90591 Y-77.13045
G01 X-103.96680 Y-77.12519
G01 X-105.22499 Y-77.12499
G01 X-105.27815 Y-77.12827
G01 X-105.34879 Y-77.14257
G01 X-105.42742 Y-77.17340
G01 X-105.51018 Y-77.22718
G01 X-105.56291 Y-77.27813
G01 X-105.60713 Y-77.33787
G01 X-105.64508 Y-77.41448
G01 X-105.66659 Y-77.48996
G01 X-106.60944 Y-77.48996
G01 X-110.82998 Y-73.26942
G01 X-110.82998 Y-70.68497
G01 X-106.23974 Y-70.68492
G01 X-106.16486 Y-70.68121
G01 X-106.08841 Y-70.67146
G01 X-106.01295 Y-70.65569
G01 X-105.94320 Y-70.63499
G01 X-105.21932 Y-70.63423
G01 X-105.19882 Y-70.62821
G01 X-105.18082 Y-70.61667
G01 X-105.16690 Y-70.60054
G01 X-105.15803 Y-70.58111
G01 X-105.15498 Y-70.55998
G01 X-105.15498 Y-68.85998
G01 X-105.15803 Y-68.83885
G01 X-105.17330 Y-68.81086
G01 X-105.18945 Y-68.79689
G01 X-105.20886 Y-68.78803
G01 X-105.22999 Y-68.78498
G01 X-105.94317 Y-68.78498
G01 X-106.01295 Y-68.76428
G01 X-106.08841 Y-68.74850
G01 X-106.16486 Y-68.73875
G01 X-106.23974 Y-68.73504
G01 X-110.93905 Y-68.73499
G01 X-110.95355 Y-68.67779
G01 X-110.97311 Y-68.62364
G01 X-107.65351 Y-65.30226
G01 X-107.61525 Y-65.25191
G01 X-107.58477 Y-65.19766
G01 X-107.56189 Y-65.13980
G01 X-107.54703 Y-65.07937
G01 X-107.54012 Y-65.01044
G01 X-107.53999 Y-64.74262
G01 X-107.42186 Y-64.67986
G01 X-107.34929 Y-64.63058
G01 X-107.27296 Y-64.56870
G01 X-107.20713 Y-64.50513
G01 X-107.14525 Y-64.43431
G01 X-107.09107 Y-64.36053
G01 X-107.04170 Y-64.27960
G01 X-106.98960 Y-64.17183
G01 X-106.95254 Y-64.06878
G01 X-106.92392 Y-63.95217
G01 X-106.90824 Y-63.83315
G01 X-106.90570 Y-63.71313
G01 X-106.91632 Y-63.59355
G01 X-106.93997 Y-63.47582
G01 X-106.97637 Y-63.36142
G01 X-107.02506 Y-63.25169
G01 X-107.08099 Y-63.15481
G01 X-107.15168 Y-63.05779
G01 X-107.23062 Y-62.97097
G01 X-107.31411 Y-62.89652
G01 X-107.41863 Y-62.82218
G01 X-107.52371 Y-62.76411
G01 X-107.63344 Y-62.71821
G01 X-107.71685 Y-62.69228
G01 X-107.79618 Y-62.67417
G01 X-107.88256 Y-62.66137
G01 X-107.96971 Y-62.65545
G01 X-108.06300 Y-62.65685
G01 X-108.14401 Y-62.66454
G01 X-108.23006 Y-62.67948
G01 X-108.31464 Y-62.70122
G01 X-108.39722 Y-62.72964
G01 X-108.47728 Y-62.76454
G01 X-108.55432 Y-62.80572
G01 X-108.62780 Y-62.85291
G01 X-108.69732 Y-62.90579
G01 X-108.76237 Y-62.96406
G01 X-108.82259 Y-63.02733
G01 X-108.87756 Y-63.09520
G01 X-108.94337 Y-63.19426
G01 X-109.00189 Y-63.30841
G01 X-109.04431 Y-63.42113
G01 X-109.07441 Y-63.53934
G01 X-109.09107 Y-63.65862
G01 X-109.09450 Y-63.77864
G01 X-109.08480 Y-63.89830
G01 X-109.06204 Y-64.01618
G01 X-109.02277 Y-64.14071
G01 X-108.97370 Y-64.25070
G01 X-108.90209 Y-64.37046
G01 X-108.82155 Y-64.47371
G01 X-108.72955 Y-64.56639
G01 X-108.63547 Y-64.64158
G01 X-108.53232 Y-64.70673
G01 X-108.45998 Y-64.74183
G01 X-108.45998 Y-64.80945
G01 X-111.55096 Y-67.90042
G01 X-112.23290 Y-67.21856
G01 X-112.29195 Y-67.16474
G01 X-112.36025 Y-67.11135
G01 X-112.41916 Y-67.07175
G01 X-112.49442 Y-67.02872
G01 X-112.63968 Y-66.96601
G01 X-112.71720 Y-66.94218
G01 X-112.79180 Y-66.92499
G01 X-112.87750 Y-66.91191
G01 X-112.95383 Y-66.90599
G01 X-134.01393 Y-66.90512
G01 X-134.09544 Y-66.90921
G01 X-134.17192 Y-66.91861
G01 X-134.31865 Y-66.95255
G01 X-134.46895 Y-67.01053
G01 X-134.58487 Y-67.07500
G01 X-135.02000 Y-67.07500
G01 X-135.05114 Y-67.08176
G01 X-135.06910 Y-67.09331
G01 X-135.08309 Y-67.10944
G01 X-135.09196 Y-67.12885
G01 X-135.09498 Y-67.14998
G01 X-135.09498 Y-68.84998
G01 X-135.09196 Y-68.87111
G01 X-135.08309 Y-68.89054
G01 X-135.06910 Y-68.90667
G01 X-135.05114 Y-68.91820
G01 X-135.03067 Y-68.92422
G01 X-134.58383 Y-68.92498
G01 X-134.48223 Y-68.98292
G01 X-134.36102 Y-69.03359
G01 X-134.23428 Y-69.06946
G01 X-134.10329 Y-69.08996
G01 X-133.99999 Y-69.09498
G01 X-113.45352 Y-69.09498
G01 X-112.76698 Y-69.78145
G01 X-112.67077 Y-69.86529
G01 X-112.55319 Y-69.94477
G01 X-112.42596 Y-70.00855
G01 X-112.29157 Y-70.05528
G01 X-112.19243 Y-70.07609
G01 X-112.17011 Y-70.12932
G01 X-112.12322 Y-70.21617
G01 X-112.07384 Y-70.28965
G01 X-112.01606 Y-70.36059
G01 X-111.95406 Y-70.42379
G01 X-111.87847 Y-70.48724
G01 X-111.79653 Y-70.54296
G01 X-111.74999 Y-70.56836
G01 X-111.74984 Y-73.47039
G01 X-111.74062 Y-73.55159
G01 X-111.72414 Y-73.61159
G01 X-111.70420 Y-73.65972
G01 X-111.66645 Y-73.72380
G01 X-111.61525 Y-73.78522
G01 X-107.11802 Y-78.28227
G01 X-107.05470 Y-78.33269
G01 X-106.99321 Y-78.36713
G01 X-106.92465 Y-78.39255
G01 X-106.83027 Y-78.40878
G01 X-105.66662 Y-78.40990
G01 X-105.64508 Y-78.48549
G01 X-105.60713 Y-78.56210
G01 X-105.54551 Y-78.64046
G01 X-105.49164 Y-78.68714
G01 X-105.41823 Y-78.73106
G01 X-105.33791 Y-78.76029
G01 X-105.26469 Y-78.77302
G01 X-103.97503 Y-78.77498
G01 X-103.91628 Y-78.77099
G01 X-103.85608 Y-78.75885
G01 X-103.79837 Y-78.73873
G01 X-103.74391 Y-78.71094
G01 X-103.69370 Y-78.67607
G01 X-103.64869 Y-78.63469
G01 X-103.60388 Y-78.57924
G01 X-103.57282 Y-78.52659
G01 X-103.55260 Y-78.47980
G01 X-103.53327 Y-78.41010
G01 X-103.52502 Y-78.33009
G01 X-103.45280 Y-78.33009
G01 X-103.45280 Y-77.56990
G01 X-103.46322 Y-77.47114
G01 X-103.48267 Y-77.40084
G01 X-103.51569 Y-77.32695
G01 X-103.54754 Y-77.27498
G01 X-103.58557 Y-77.22735
G01 X-103.64384 Y-77.17117
G01 X-103.70167 Y-77.13000
G01 X-103.77383 Y-77.09334
G01 X-103.83121 Y-77.07292
G01 X-103.89083 Y-77.05984
G01 X-103.96144 Y-77.05319
G01 X-105.22499 Y-77.05278
G01 X-105.28280 Y-77.05621
G01 X-105.37642 Y-77.07523
G01 X-105.45470 Y-77.10655
G01 X-105.47952 Y-77.11956
G01 X-105.55961 Y-77.17457
G01 X-105.61257 Y-77.22502
G01 X-105.66484 Y-77.29350
G01 X-105.71147 Y-77.38527
G01 X-105.72130 Y-77.41775
G01 X-105.71391 Y-77.42926
G01 X-105.72130 Y-77.41775
G01 X-106.57952 Y-77.41775
G01 X-106.58180 Y-77.42324
G01 X-106.57952 Y-77.41775
G01 X-110.75777 Y-73.23950
G01 X-110.76325 Y-73.24179
G01 X-110.75777 Y-73.23950
G01 X-110.75777 Y-70.75721
G01 X-110.77892 Y-70.73605
G01 X-110.75777 Y-70.75721
G01 X-106.23974 Y-70.75714
G01 X-106.16123 Y-70.75333
G01 X-106.07906 Y-70.74306
G01 X-105.99796 Y-70.72633
G01 X-105.93261 Y-70.70669
G01 X-105.20904 Y-70.70570
G01 X-105.16883 Y-70.69391
G01 X-105.13352 Y-70.67126
G01 X-105.10609 Y-70.63958
G01 X-105.08874 Y-70.60146
G01 X-105.08277 Y-70.55998
G01 X-105.08315 Y-68.84949
G01 X-105.09204 Y-68.80855
G01 X-105.11213 Y-68.77177
G01 X-105.14175 Y-68.74213
G01 X-105.18851 Y-68.71873
G01 X-105.22999 Y-68.71277
G01 X-105.93261 Y-68.71322
G01 X-105.99796 Y-68.69364
G01 X-106.07906 Y-68.67690
G01 X-106.16123 Y-68.66664
G01 X-106.23974 Y-68.66283
G01 X-110.88273 Y-68.66275
G01 X-110.89254 Y-68.67637
G01 X-110.88273 Y-68.66275
G01 X-110.88959 Y-68.64223
G01 X-110.90194 Y-68.63933
G01 X-110.88959 Y-68.64223
G01 X-107.59498 Y-65.34528
G01 X-107.55152 Y-65.28661
G01 X-107.51696 Y-65.22347
G01 X-107.49120 Y-65.15621
G01 X-107.47672 Y-65.09586
G01 X-107.46791 Y-65.01049
G01 X-107.46781 Y-64.78867
G01 X-107.47626 Y-64.78382
G01 X-107.46781 Y-64.78867
G01 X-107.38147 Y-64.73972
G01 X-107.30398 Y-64.68681
G01 X-107.22280 Y-64.62067
G01 X-107.14838 Y-64.54805
G01 X-107.08704 Y-64.47704
G01 X-107.02592 Y-64.39291
G01 X-106.97680 Y-64.31125
G01 X-106.92173 Y-64.19654
G01 X-106.88246 Y-64.08626
G01 X-106.85366 Y-63.96985
G01 X-106.83649 Y-63.84303
G01 X-106.83329 Y-63.71506
G01 X-106.84413 Y-63.58755
G01 X-106.86887 Y-63.46198
G01 X-106.90720 Y-63.33985
G01 X-106.95866 Y-63.22268
G01 X-107.02267 Y-63.11184
G01 X-107.10321 Y-63.00313
G01 X-107.18256 Y-62.91704
G01 X-107.27223 Y-62.83742
G01 X-107.37652 Y-62.76322
G01 X-107.48830 Y-62.70089
G01 X-107.61182 Y-62.64930
G01 X-107.70078 Y-62.62187
G01 X-107.78010 Y-62.60376
G01 X-107.87215 Y-62.58989
G01 X-107.96501 Y-62.58339
G01 X-108.05810 Y-62.58433
G01 X-108.15084 Y-62.59266
G01 X-108.24258 Y-62.60836
G01 X-108.33280 Y-62.63132
G01 X-108.42092 Y-62.66142
G01 X-108.50634 Y-62.69843
G01 X-108.58853 Y-62.74214
G01 X-108.66699 Y-62.79225
G01 X-108.74121 Y-62.84846
G01 X-108.81070 Y-62.91039
G01 X-108.87504 Y-62.97767
G01 X-108.93382 Y-63.04989
G01 X-109.00791 Y-63.16134
G01 X-109.06630 Y-63.27524
G01 X-109.11197 Y-63.39517
G01 X-109.14624 Y-63.52977
G01 X-109.16348 Y-63.65695
G01 X-109.16669 Y-63.78491
G01 X-109.15584 Y-63.91245
G01 X-109.13102 Y-64.03835
G01 X-109.08876 Y-64.17066
G01 X-109.03582 Y-64.28798
G01 X-108.96440 Y-64.40752
G01 X-108.87898 Y-64.51796
G01 X-108.78129 Y-64.61714
G01 X-108.68104 Y-64.69791
G01 X-108.57090 Y-64.76779
G01 X-108.53753 Y-64.78486
G01 X-108.49338 Y-64.77963
G01 X-108.53753 Y-64.78486
G01 X-111.55096 Y-67.79829
G01 X-111.55096 Y-67.82821
G01 X-111.55096 Y-67.79829
G01 X-112.18182 Y-67.16748
G01 X-112.24732 Y-67.10797
G01 X-112.31997 Y-67.05138
G01 X-112.38822 Y-67.00604
G01 X-112.46582 Y-66.96217
G01 X-112.61082 Y-66.89956
G01 X-112.69596 Y-66.87315
G01 X-112.77577 Y-66.85458
G01 X-112.86678 Y-66.84048
G01 X-112.94844 Y-66.83398
G01 X-134.01754 Y-66.83299
G01 X-134.09905 Y-66.83708
G01 X-134.18094 Y-66.84696
G01 X-134.34507 Y-66.88496
G01 X-134.50199 Y-66.94632
G01 X-134.57486 Y-66.98425
G01 X-134.60484 Y-67.00434
G01 X-135.02000 Y-67.00276
G01 X-135.05129 Y-67.00614
G01 X-135.08114 Y-67.01607
G01 X-135.10821 Y-67.03212
G01 X-135.13125 Y-67.05359
G01 X-135.14921 Y-67.07944
G01 X-135.16125 Y-67.10850
G01 X-135.16722 Y-67.14998
G01 X-135.16722 Y-68.84998
G01 X-135.16384 Y-68.88127
G01 X-135.14921 Y-68.92054
G01 X-135.12409 Y-68.95409
G01 X-135.09053 Y-68.97919
G01 X-135.05129 Y-68.99384
G01 X-135.02000 Y-68.99720
G01 X-134.60275 Y-68.99544
G01 X-134.51858 Y-69.04566
G01 X-134.39765 Y-69.09712
G01 X-134.26338 Y-69.13684
G01 X-134.10641 Y-69.16232
G01 X-133.99999 Y-69.16720
G01 X-113.48344 Y-69.16720
G01 X-113.48123 Y-69.16184
G01 X-113.48344 Y-69.16720
G01 X-112.81806 Y-69.83250
G01 X-112.71100 Y-69.92562
G01 X-112.58527 Y-70.00984
G01 X-112.44933 Y-70.07723
G01 X-112.30585 Y-70.12640
G01 X-112.24456 Y-70.13918
G01 X-112.24072 Y-70.13456
G01 X-112.24456 Y-70.13918
G01 X-112.24011 Y-70.14997
G01 X-112.18332 Y-70.25620
G01 X-112.12982 Y-70.33527
G01 X-112.06259 Y-70.41672
G01 X-111.99500 Y-70.48411
G01 X-111.92472 Y-70.54271
G01 X-111.82416 Y-70.61053
G01 X-111.81372 Y-70.60707
G01 X-111.82220 Y-70.61159
G01 X-111.82185 Y-73.47836
G01 X-111.81047 Y-73.56998
G01 X-111.79434 Y-73.62990
G01 X-111.77090 Y-73.68736
G01 X-111.72937 Y-73.76028
G01 X-111.66632 Y-73.83630
G01 X-107.16910 Y-78.33335
G01 X-107.10062 Y-78.38912
G01 X-107.00570 Y-78.44046
G01 X-106.93679 Y-78.46431
G01 X-106.84276 Y-78.48046
G01 X-105.72133 Y-78.48206
G01 X-105.71406 Y-78.47073
G01 X-105.72133 Y-78.48206
G01 X-105.71147 Y-78.51470
G01 X-105.66171 Y-78.61122
G01 X-105.60609 Y-78.68194
G01 X-105.53890 Y-78.74170
G01 X-105.43761 Y-78.80190
G01 X-105.34907 Y-78.83225
G01 X-105.27594 Y-78.84437
G01 X-103.97510 Y-78.84721
G01 X-103.90091 Y-78.84193
G01 X-103.84099 Y-78.82946
G01 X-103.76454 Y-78.80292
G01 X-103.70167 Y-78.76997
G01 X-103.64384 Y-78.72880
G01 X-103.59217 Y-78.68018
G01 X-103.54208 Y-78.61663
G01 X-103.51082 Y-78.56428
G01 X-103.48631 Y-78.50845
G01 X-103.46091 Y-78.41684
G01 X-103.45280 Y-78.33009
G01 X-103.38585 Y-78.32966
G01 X-103.38585 Y-77.57038
G01 X-103.38928 Y-77.50030
G01 X-103.42029 Y-77.37127
G01 X-103.45910 Y-77.29022
G01 X-103.48178 Y-77.25044
G01 X-103.53279 Y-77.18542
G01 X-103.55692 Y-77.15773
G01 X-103.58872 Y-77.13007
G01 X-103.65687 Y-77.07711
G01 X-103.75316 Y-77.02847
G01 X-103.79631 Y-77.01310
G01 X-103.90038 Y-76.98854
G01 X-103.97277 Y-76.98585
G01 X-105.29039 Y-76.98773
G01 X-105.42791 Y-77.02067
G01 X-105.51912 Y-77.06426
G01 X-105.57398 Y-77.10046
G01 X-105.64284 Y-77.15781
G01 X-105.72255 Y-77.24986
G01 X-105.77274 Y-77.34445
G01 X-105.76697 Y-77.35588
G01 X-105.77314 Y-77.34554
G01 X-105.92252 Y-77.34554
G01 X-105.80042 Y-77.32578
G01 X-105.79839 Y-77.32982
G01 X-105.80042 Y-77.32578
G01 X-105.78066 Y-77.31481
G01 X-105.72255 Y-77.24986
G01 X-105.78066 Y-77.31481
G01 X-105.79313 Y-77.32357
G01 X-105.92018 Y-77.34529
G01 X-105.99730 Y-77.35082
G01 X-106.38279 Y-77.35082
G01 X-106.45915 Y-77.34554
G01 X-106.54962 Y-77.34554
G01 X-106.55188 Y-77.35103
G01 X-106.54962 Y-77.34554
G01 X-106.61541 Y-77.27973
G01 X-106.54391 Y-77.33190
G01 X-106.54495 Y-77.33434
G01 X-106.54391 Y-77.33190
G01 X-106.45915 Y-77.34554
G01 X-106.54391 Y-77.33190
G01 X-106.61353 Y-77.28125
G01 X-106.67197 Y-77.23063
G01 X-110.57131 Y-73.33130
G01 X-110.62152 Y-73.27364
G01 X-110.68555 Y-73.20961
G01 X-110.69104 Y-73.21187
G01 X-110.68555 Y-73.20961
G01 X-110.68555 Y-73.11652
G01 X-110.67425 Y-73.19546
G01 X-110.67679 Y-73.19648
G01 X-110.67425 Y-73.19546
G01 X-110.66752 Y-73.21164
G01 X-110.62152 Y-73.27364
G01 X-110.67189 Y-73.20397
G01 X-110.68528 Y-73.11893
G01 X-110.69084 Y-73.04184
G01 X-110.69084 Y-71.23448
G01 X-110.68555 Y-71.15650
G01 X-110.68555 Y-70.82942
G01 X-110.70669 Y-70.80827
G01 X-110.68555 Y-70.82942
G01 X-110.35541 Y-70.82942
G01 X-110.42749 Y-70.83938
G01 X-110.60389 Y-70.89320
G01 X-110.60808 Y-70.88828
G01 X-110.60389 Y-70.89320
G01 X-110.61962 Y-70.90707
G01 X-110.64938 Y-70.98345
G01 X-110.68126 Y-71.11952
G01 X-110.68555 Y-71.15650
G01 X-110.68126 Y-71.11952
G01 X-110.64865 Y-70.98370
G01 X-110.61532 Y-70.90146
G01 X-110.59549 Y-70.88975
G01 X-110.43267 Y-70.84085
G01 X-110.35500 Y-70.82937
G01 X-110.28048 Y-70.82412
G01 X-108.36648 Y-70.82409
G01 X-108.28701 Y-70.82940
G01 X-106.23974 Y-70.82937
G01 X-106.14889 Y-70.82485
G01 X-106.06108 Y-70.81337
G01 X-105.97408 Y-70.79491
G01 X-105.92201 Y-70.77893
G01 X-105.20914 Y-70.77842
G01 X-105.16817 Y-70.77055
G01 X-105.12943 Y-70.75503
G01 X-105.09430 Y-70.73247
G01 X-105.05826 Y-70.69658
G01 X-105.09430 Y-70.73247
G01 X-105.12943 Y-70.75503
G01 X-105.16817 Y-70.77055
G01 X-105.20914 Y-70.77842
G01 X-105.92196 Y-70.77944
G01 X-105.97408 Y-70.79491
G01 X-106.06108 Y-70.81337
G01 X-106.14889 Y-70.82485
G01 X-106.22862 Y-70.82907
G01 X-108.28701 Y-70.82940
G01 X-108.18777 Y-70.84593
G01 X-108.11800 Y-70.86547
G01 X-108.03595 Y-70.90161
G01 X-106.55379 Y-70.90159
G01 X-106.50278 Y-70.89584
G01 X-106.63880 Y-70.91202
G01 X-106.74226 Y-70.92894
G01 X-106.94413 Y-70.97382
G01 X-107.88825 Y-70.97382
G01 X-107.92737 Y-70.95005
G01 X-108.03595 Y-70.90161
G01 X-107.92310 Y-70.95231
G01 X-107.85323 Y-70.99546
G01 X-107.78401 Y-71.04604
G01 X-107.18427 Y-71.04601
G01 X-107.34784 Y-71.10778
G01 X-107.53443 Y-71.19048
G01 X-107.61635 Y-71.19048
G01 X-107.53443 Y-71.19048
G01 X-107.58876 Y-71.21705
G01 X-107.70870 Y-71.10164
G01 X-107.78401 Y-71.04604
G01 X-107.71238 Y-71.09851
G01 X-107.69140 Y-71.11825
G01 X-107.37294 Y-71.11825
G01 X-107.18427 Y-71.04601
G01 X-107.03568 Y-70.99859
G01 X-106.92201 Y-70.96783
G01 X-106.77886 Y-70.93590
G01 X-106.60535 Y-70.90740
G01 X-106.46661 Y-70.89275
G01 X-106.34248 Y-70.88563
G01 X-106.04472 Y-70.88375
G01 X-105.95623 Y-70.86486
G01 X-105.91140 Y-70.85114
G01 X-105.21980 Y-70.85147
G01 X-105.16936 Y-70.84527
G01 X-105.14279 Y-70.83826
G01 X-105.13901 Y-70.83303
G01 X-105.20398 Y-70.92290
G01 X-105.20954 Y-70.92330
G01 X-105.65397 Y-70.92386
G01 X-105.77960 Y-70.89935
G01 X-105.90207 Y-70.88208
G01 X-106.04472 Y-70.88375
G01 X-105.89684 Y-70.88266
G01 X-105.77960 Y-70.89935
G01 X-105.61010 Y-70.93389
G01 X-105.43286 Y-70.96031
G01 X-105.30764 Y-70.99607
G01 X-105.25684 Y-70.99607
G01 X-105.30764 Y-70.99607
G01 X-105.26636 Y-71.00951
G01 X-105.13901 Y-70.83303
G01 X-105.09733 Y-70.76783
G01 X-105.06017 Y-70.70113
G01 X-105.01808 Y-70.59960
G01 X-105.01693 Y-68.82862
G01 X-105.04127 Y-68.75686
G01 X-105.07792 Y-68.70791
G01 X-105.12682 Y-68.67129
G01 X-105.18968 Y-68.64817
G01 X-105.89532 Y-68.64426
G01 X-105.92493 Y-68.64157
G01 X-106.05234 Y-68.61345
G01 X-106.14096 Y-68.60027
G01 X-106.24000 Y-68.59587
G01 X-109.75785 Y-68.59585
G01 X-109.82439 Y-68.59057
G01 X-110.73582 Y-68.59054
G01 X-110.84242 Y-68.63484
G01 X-110.73582 Y-68.59054
G01 X-110.09605 Y-67.95041
G01 X-110.04987 Y-67.89710
G01 X-110.09714 Y-67.95168
G01 X-110.14423 Y-68.01452
G01 X-110.22444 Y-68.16441
G01 X-110.23493 Y-68.19158
G01 X-110.56155 Y-68.51833
G01 X-110.66910 Y-68.56291
G01 X-110.56155 Y-68.51833
G01 X-110.09887 Y-68.51833
G01 X-110.18101 Y-68.47891
G01 X-110.27613 Y-68.42376
G01 X-110.29257 Y-68.40299
G01 X-110.30991 Y-68.40979
G01 X-110.29257 Y-68.40299
G01 X-110.29279 Y-68.38290
G01 X-110.25429 Y-68.24386
G01 X-110.23493 Y-68.19158
G01 X-110.25429 Y-68.24386
G01 X-110.28081 Y-68.33959
G01 X-110.38726 Y-68.44612
G01 X-110.49483 Y-68.49069
G01 X-110.38726 Y-68.44612
G01 X-110.23763 Y-68.44612
G01 X-110.10633 Y-68.51586
G01 X-109.92312 Y-68.57644
G01 X-109.82439 Y-68.59057
G01 X-109.92863 Y-68.57474
G01 X-110.10633 Y-68.51586
G01 X-110.18299 Y-68.47784
G01 X-110.27613 Y-68.42376
G01 X-110.29000 Y-68.40926
G01 X-110.29279 Y-68.38290
G01 X-110.25429 Y-68.24386
G01 X-110.22650 Y-68.16890
G01 X-110.14103 Y-68.01020
G01 X-110.09714 Y-67.95168
G01 X-110.04812 Y-67.89519
G01 X-107.55500 Y-65.40142
G01 X-107.53578 Y-65.38095
G01 X-107.50408 Y-65.33591
G01 X-107.47055 Y-65.28275
G01 X-107.44995 Y-65.23723
G01 X-107.42524 Y-65.17434
G01 X-107.41165 Y-65.11237
G01 X-107.39565 Y-64.98699
G01 X-107.39559 Y-64.83116
G01 X-107.40238 Y-64.82745
G01 X-107.39559 Y-64.83116
G01 X-107.35597 Y-64.80881
G01 X-107.25795 Y-64.74249
G01 X-107.09664 Y-64.59085
G01 X-106.96943 Y-64.44696
G01 X-106.90553 Y-64.36652
G01 X-106.82503 Y-64.25471
G01 X-106.74434 Y-64.12875
G01 X-106.71287 Y-64.00229
G01 X-106.69212 Y-63.84920
G01 X-106.68912 Y-63.70541
G01 X-106.70189 Y-63.56215
G01 X-106.73326 Y-63.41095
G01 X-106.74713 Y-63.36668
G01 X-106.85892 Y-63.19543
G01 X-106.94467 Y-63.08204
G01 X-107.02087 Y-62.99187
G01 X-106.96219 Y-63.07234
G01 X-106.89425 Y-63.19004
G01 X-106.83959 Y-63.31448
G01 X-106.79887 Y-63.44415
G01 X-106.77261 Y-63.57750
G01 X-106.76110 Y-63.71290
G01 X-106.76448 Y-63.84877
G01 X-106.78274 Y-63.98344
G01 X-106.81546 Y-64.11481
G01 X-106.85389 Y-64.22123
G01 X-106.92186 Y-64.36114
G01 X-106.97464 Y-64.44600
G01 X-107.05432 Y-64.54597
G01 X-107.17596 Y-64.66878
G01 X-107.28381 Y-64.76444
G01 X-107.36605 Y-64.84531
G01 X-107.36941 Y-64.84351
G01 X-107.36605 Y-64.84531
G01 X-107.38193 Y-64.89850
G01 X-107.39565 Y-64.98699
G01 X-107.38193 Y-64.89850
G01 X-107.36605 Y-64.84531
G01 X-107.28381 Y-64.76444
G01 X-107.19181 Y-64.68356
G01 X-107.11099 Y-64.60546
G01 X-107.05432 Y-64.54597
G01 X-106.96943 Y-64.44696
G01 X-106.89036 Y-64.34628
G01 X-106.80781 Y-64.22918
G01 X-106.73471 Y-64.11272
G01 X-106.67378 Y-64.00485
G01 X-106.67444 Y-63.49467
G01 X-106.77718 Y-63.31697
G01 X-106.85892 Y-63.19543
G01 X-106.94467 Y-63.08204
G01 X-107.03463 Y-62.97579
G01 X-107.13910 Y-62.86597
G01 X-107.21901 Y-62.79330
G01 X-107.35361 Y-62.69662
G01 X-107.44746 Y-62.64659
G01 X-107.52734 Y-62.60866
G01 X-107.66905 Y-62.56053
G01 X-107.76354 Y-62.53838
G01 X-107.90278 Y-62.51809
G01 X-108.09663 Y-62.51801
G01 X-108.28812 Y-62.54826
G01 X-108.44312 Y-62.59728
G01 X-108.53212 Y-62.63632
G01 X-108.64535 Y-62.69601
G01 X-108.78261 Y-62.79446
G01 X-108.85470 Y-62.85964
G01 X-108.92457 Y-62.93094
G01 X-108.98520 Y-63.00668
G01 X-109.05388 Y-63.10485
G01 X-109.13417 Y-63.26063
G01 X-109.17138 Y-63.36200
G01 X-109.20113 Y-63.46185
G01 X-109.23222 Y-63.65296
G01 X-109.23384 Y-63.77417
G01 X-109.23151 Y-63.84679
G01 X-109.22401 Y-63.90830
G01 X-109.20151 Y-64.03922
G01 X-109.14692 Y-64.20891
G01 X-109.10123 Y-64.30673
G01 X-109.05312 Y-64.39540
G01 X-108.93897 Y-64.55339
G01 X-108.91002 Y-64.58971
G01 X-108.82973 Y-64.67071
G01 X-108.72305 Y-64.75666
G01 X-108.65493 Y-64.80012
G01 X-108.61637 Y-64.79718
G01 X-108.65493 Y-64.80012
G01 X-108.91220 Y-65.05743
G01 X-108.86534 Y-64.99482
G01 X-108.78502 Y-64.84488
G01 X-108.77621 Y-64.81930
G01 X-108.76925 Y-64.81234
G01 X-108.75851 Y-64.81201
G01 X-108.76925 Y-64.81234
G01 X-108.77697 Y-64.80637
G01 X-108.76925 Y-64.81234
G01 X-108.77621 Y-64.81930
G01 X-108.78000 Y-64.79802
G01 X-108.82757 Y-64.70950
G01 X-108.88061 Y-64.62791
G01 X-108.91002 Y-64.58971
G01 X-108.88061 Y-64.62791
G01 X-108.82813 Y-64.70856
G01 X-108.78000 Y-64.79802
G01 X-108.77596 Y-64.81252
G01 X-108.78502 Y-64.84488
G01 X-108.86562 Y-64.99464
G01 X-108.91220 Y-65.05743
G01 X-108.96143 Y-65.11409
G01 X-111.26081 Y-67.41348
G01 X-111.31977 Y-67.46499
G01 X-111.55096 Y-67.69616
G01 X-111.55086 Y-67.72567
G01 X-111.55096 Y-67.69616
G01 X-111.78456 Y-67.46258
G01 X-111.72632 Y-67.50672
G01 X-111.55672 Y-67.59514
G01 X-111.55713 Y-67.60215
G01 X-111.55672 Y-67.59514
G01 X-111.53595 Y-67.59232
G01 X-111.46772 Y-67.56151
G01 X-111.34885 Y-67.48803
G01 X-111.31977 Y-67.46499
G01 X-111.34885 Y-67.48803
G01 X-111.47186 Y-67.56306
G01 X-111.54265 Y-67.59463
G01 X-111.56752 Y-67.59184
G01 X-111.72160 Y-67.50931
G01 X-111.78456 Y-67.46258
G01 X-111.84113 Y-67.41348
G01 X-112.20458 Y-67.05437
G01 X-112.35398 Y-66.94622
G01 X-112.52764 Y-66.85895
G01 X-112.71126 Y-66.79837
G01 X-112.87443 Y-66.77134
G01 X-112.95972 Y-66.76624
G01 X-113.37600 Y-66.76624
G01 X-113.43193 Y-66.76326
G01 X-113.49114 Y-66.75664
G01 X-113.62720 Y-66.72423
G01 X-113.70620 Y-66.69428
G01 X-113.91580 Y-66.57673
G01 X-113.99177 Y-66.52011
G01 X-114.12893 Y-66.40022
G01 X-127.37031 Y-66.39977
G01 X-127.29619 Y-66.32753
G01 X-114.20378 Y-66.32799
G01 X-114.12893 Y-66.40022
G01 X-114.27600 Y-66.25577
G01 X-127.22395 Y-66.25529
G01 X-127.35100 Y-66.38229
G01 X-127.47381 Y-66.49309
G01 X-127.52977 Y-66.53820
G01 X-127.73007 Y-66.66436
G01 X-127.80884 Y-66.70032
G01 X-127.97163 Y-66.74957
G01 X-128.05077 Y-66.76083
G01 X-128.12398 Y-66.76596
G01 X-134.09745 Y-66.76791
G01 X-134.21324 Y-66.78455
G01 X-134.28835 Y-66.79928
G01 X-134.34842 Y-66.81605
G01 X-134.47296 Y-66.85915
G01 X-134.60776 Y-66.91986
G01 X-134.62523 Y-66.93179
G01 X-134.65203 Y-66.93055
G01 X-134.63176 Y-66.92928
G01 X-134.60776 Y-66.91986
G01 X-134.63199 Y-66.92816
G01 X-134.72627 Y-66.93578
G01 X-135.06031 Y-66.93817
G01 X-135.12310 Y-66.96128
G01 X-135.17204 Y-66.99791
G01 X-135.20867 Y-67.04686
G01 X-135.23303 Y-67.11864
G01 X-135.23412 Y-68.84934
G01 X-135.23178 Y-68.89031
G01 X-135.20867 Y-68.95310
G01 X-135.17204 Y-69.00205
G01 X-135.12272 Y-69.03895
G01 X-135.00705 Y-69.07911
G01 X-134.89275 Y-69.12300
G01 X-134.85505 Y-69.14164
G01 X-134.64144 Y-69.13992
G01 X-134.57484 Y-69.17883
G01 X-134.44385 Y-69.23418
G01 X-134.57484 Y-69.17883
G01 X-134.64182 Y-69.14164
G01 X-134.85505 Y-69.14164
G01 X-134.89275 Y-69.12300
G01 X-135.04349 Y-69.06814
G01 X-134.88952 Y-69.12440
G01 X-134.81667 Y-69.16105
G01 X-134.73206 Y-69.21386
G01 X-134.66051 Y-69.21144
G01 X-134.62612 Y-69.23390
G01 X-134.66115 Y-69.21386
G01 X-134.73206 Y-69.21386
G01 X-134.69457 Y-69.23728
G01 X-134.67598 Y-69.23367
G01 X-134.18373 Y-69.23293
G01 X-133.95472 Y-69.23438
G01 X-133.83184 Y-69.23941
G01 X-113.51336 Y-69.23941
G01 X-113.51115 Y-69.23405
G01 X-113.51336 Y-69.23941
G01 X-112.86912 Y-69.88358
G01 X-112.75847 Y-69.98018
G01 X-112.62556 Y-70.06989
G01 X-112.48151 Y-70.14200
G01 X-112.32937 Y-70.19480
G01 X-112.29467 Y-70.20268
G01 X-112.29162 Y-70.19892
G01 X-112.29467 Y-70.20268
G01 X-112.24341 Y-70.29623
G01 X-112.19228 Y-70.37255
G01 X-112.12119 Y-70.45983
G01 X-112.04918 Y-70.53265
G01 X-111.97097 Y-70.59818
G01 X-111.89442 Y-70.65117
G01 X-111.88769 Y-70.64804
G01 X-111.89442 Y-70.65117
G01 X-111.89396 Y-73.48228
G01 X-111.88479 Y-73.56704
G01 X-111.86432 Y-73.64824
G01 X-111.83363 Y-73.72406
G01 X-111.79193 Y-73.79670
G01 X-111.71738 Y-73.88736
G01 X-107.22016 Y-78.38440
G01 X-107.14114 Y-78.44892
G01 X-107.04713 Y-78.50157
G01 X-106.95503 Y-78.53418
G01 X-106.85816 Y-78.55143
G01 X-105.77327 Y-78.55425
G01 X-105.76837 Y-78.54533
G01 X-105.77274 Y-78.55552
G01 X-105.71919 Y-78.65501
G01 X-105.65516 Y-78.73520
G01 X-105.57815 Y-78.80294
G01 X-105.46230 Y-78.86982
G01 X-105.36659 Y-78.90231
G01 X-105.27589 Y-78.91719
G01 X-103.97518 Y-78.91943
G01 X-103.90594 Y-78.91506
G01 X-103.81620 Y-78.89778
G01 X-103.74000 Y-78.87096
G01 X-103.65966 Y-78.82885
G01 X-103.61592 Y-78.79240
G01 X-103.75090 Y-78.91534
G01 X-103.88651 Y-79.06380
G01 X-105.55945 Y-79.06388
G01 X-105.68694 Y-78.99161
G01 X-105.78196 Y-78.91335
G01 X-105.82598 Y-78.86934
G01 X-105.88323 Y-78.79730
G01 X-105.90253 Y-78.77078
G01 X-105.89900 Y-78.76360
G01 X-105.90253 Y-78.77078
G01 X-106.83060 Y-78.76987
G01 X-106.89361 Y-78.76525
G01 X-107.01485 Y-78.74244
G01 X-107.14137 Y-78.69669
G01 X-107.25828 Y-78.63121
G01 X-107.36517 Y-78.54559
G01 X-111.87059 Y-74.04057
G01 X-111.96912 Y-73.92144
G01 X-112.02558 Y-73.82480
G01 X-112.06810 Y-73.72213
G01 X-112.09691 Y-73.61179
G01 X-112.11052 Y-73.48929
G01 X-112.11108 Y-70.76346
G01 X-112.10503 Y-70.76082
G01 X-112.11108 Y-70.76346
G01 X-112.18794 Y-70.69920
G01 X-112.28238 Y-70.60458
G01 X-112.37272 Y-70.49270
G01 X-112.42944 Y-70.40756
G01 X-112.44095 Y-70.38315
G01 X-112.56056 Y-70.34383
G01 X-112.71357 Y-70.26890
G01 X-112.89929 Y-70.14492
G01 X-113.02230 Y-70.03679
G01 X-113.60307 Y-69.45607
G01 X-113.60092 Y-69.45074
G01 X-113.60307 Y-69.45607
G01 X-132.93138 Y-69.45607
G01 X-132.76913 Y-69.52828
G01 X-113.63300 Y-69.52828
G01 X-113.63084 Y-69.52295
G01 X-113.63300 Y-69.52828
G01 X-113.04737 Y-70.11210
G01 X-112.92187 Y-70.21881
G01 X-112.76632 Y-70.32226
G01 X-112.59848 Y-70.40613
G01 X-112.48969 Y-70.44294
G01 X-112.42761 Y-70.54012
G01 X-112.33935 Y-70.64919
G01 X-112.24100 Y-70.74868
G01 X-112.18329 Y-70.79727
G01 X-112.17742 Y-70.79475
G01 X-112.18329 Y-70.79727
G01 X-112.18210 Y-73.50341
G01 X-112.17214 Y-73.59820
G01 X-112.16231 Y-73.65136
G01 X-112.13808 Y-73.74054
G01 X-112.10453 Y-73.82556
G01 X-112.07882 Y-73.87862
G01 X-112.03130 Y-73.95842
G01 X-111.94786 Y-74.06338
G01 X-107.42442 Y-78.58869
G01 X-107.32945 Y-78.66901
G01 X-107.26641 Y-78.71076
G01 X-107.18587 Y-78.75534
G01 X-107.13641 Y-78.77713
G01 X-107.02795 Y-78.81369
G01 X-106.89501 Y-78.83794
G01 X-106.83067 Y-78.84211
G01 X-105.93923 Y-78.84295
G01 X-105.93616 Y-78.83644
G01 X-105.93923 Y-78.84295
G01 X-105.85295 Y-78.94604
G01 X-105.75884 Y-79.02834
G01 X-105.70807 Y-79.06385
G01 X-105.55945 Y-79.06388
G01 X-105.82882 Y-79.06385
G01 X-105.91998 Y-78.98074
G01 X-105.97434 Y-78.91513
G01 X-105.97195 Y-78.90952
G01 X-105.97434 Y-78.91513
G01 X-106.84055 Y-78.91422
G01 X-106.90908 Y-78.90894
G01 X-107.00766 Y-78.89225
G01 X-107.08406 Y-78.87231
G01 X-107.19615 Y-78.83047
G01 X-107.31028 Y-78.76888
G01 X-107.37566 Y-78.72458
G01 X-107.47548 Y-78.63975
G01 X-112.00265 Y-74.11042
G01 X-112.09350 Y-73.99528
G01 X-112.14595 Y-73.90641
G01 X-112.17125 Y-73.85319
G01 X-112.20498 Y-73.76825
G01 X-112.23216 Y-73.66975
G01 X-112.24395 Y-73.60602
G01 X-112.25385 Y-73.51230
G01 X-112.25550 Y-70.83107
G01 X-112.24981 Y-70.82869
G01 X-112.25550 Y-70.83107
G01 X-112.28934 Y-70.80232
G01 X-112.39355 Y-70.69691
G01 X-112.47951 Y-70.59143
G01 X-112.53666 Y-70.50336
G01 X-112.63102 Y-70.47070
G01 X-112.80719 Y-70.38203
G01 X-112.97008 Y-70.27296
G01 X-113.09472 Y-70.16661
G01 X-113.66292 Y-69.60052
G01 X-113.66073 Y-69.59519
G01 X-113.66292 Y-69.60052
G01 X-126.23889 Y-69.60052
G01 X-126.17808 Y-69.61772
G01 X-126.01824 Y-69.67273
G01 X-113.69281 Y-69.67273
G01 X-113.69065 Y-69.66740
G01 X-113.69281 Y-69.67273
G01 X-113.14209 Y-70.22114
G01 X-113.01809 Y-70.32722
G01 X-112.85695 Y-70.43628
G01 X-112.67303 Y-70.53082
G01 X-112.61430 Y-70.55533
G01 X-112.58329 Y-70.56387
G01 X-112.54095 Y-70.62983
G01 X-112.45050 Y-70.74151
G01 X-112.34997 Y-70.84461
G01 X-112.32772 Y-70.86476
G01 X-112.32225 Y-70.86249
G01 X-112.32772 Y-70.86476
G01 X-112.32563 Y-73.52086
G01 X-112.31433 Y-73.62452
G01 X-112.30201 Y-73.68814
G01 X-112.27496 Y-73.78667
G01 X-112.23795 Y-73.88083
G01 X-112.20836 Y-73.94283
G01 X-112.15576 Y-74.03203
G01 X-112.06541 Y-74.14801
G01 X-112.02378 Y-74.19378
G01 X-107.52656 Y-78.69083
G01 X-107.42094 Y-78.78084
G01 X-107.34576 Y-78.83177
G01 X-107.22135 Y-78.89832
G01 X-107.09839 Y-78.94361
G01 X-107.01017 Y-78.96517
G01 X-106.91094 Y-78.98153
G01 X-106.84086 Y-78.98646
G01 X-106.00944 Y-78.98732
G01 X-106.00682 Y-78.98135
G01 X-106.00944 Y-78.98732
G01 X-105.99644 Y-79.00335
G01 X-105.93865 Y-79.06385
G01 X-105.82882 Y-79.06385
G01 X-106.03959 Y-79.06385
G01 X-106.04340 Y-79.05951
G01 X-106.84111 Y-79.05867
G01 X-106.92262 Y-79.05283
G01 X-107.08267 Y-79.02334
G01 X-107.21784 Y-78.97795
G01 X-107.28358 Y-78.94871
G01 X-107.37228 Y-78.89979
G01 X-107.45813 Y-78.84338
G01 X-107.57761 Y-78.74188
G01 X-112.11476 Y-74.20153
G01 X-112.17979 Y-74.12253
G01 X-112.21949 Y-74.06648
G01 X-112.27077 Y-73.97925
G01 X-112.30468 Y-73.90846
G01 X-112.34186 Y-73.81438
G01 X-112.37163 Y-73.70747
G01 X-112.38504 Y-73.64011
G01 X-112.39741 Y-73.52924
G01 X-112.39993 Y-70.89673
G01 X-112.39548 Y-70.89508
G01 X-112.39993 Y-70.89673
G01 X-112.40920 Y-70.88779
G01 X-112.50717 Y-70.78640
G01 X-112.59010 Y-70.68462
G01 X-112.63023 Y-70.62465
G01 X-112.70524 Y-70.59546
G01 X-112.84280 Y-70.52729
G01 X-112.89739 Y-70.49618
G01 X-113.05794 Y-70.38762
G01 X-113.18946 Y-70.27565
G01 X-113.72273 Y-69.74495
G01 X-113.72045 Y-69.73946
G01 X-113.72273 Y-69.74495
G01 X-125.84090 Y-69.74495
G01 X-126.08184 Y-69.64926
G01 X-126.23183 Y-69.60227
G01 X-126.38321 Y-69.56712
G01 X-126.47755 Y-69.55107
G01 X-126.69345 Y-69.53255
G01 X-126.77516 Y-69.53176
G01 X-126.89299 Y-69.53689
G01 X-127.02388 Y-69.55135
G01 X-132.72257 Y-69.55135
G01 X-132.88180 Y-69.47685
G01 X-133.01363 Y-69.42320
G01 X-133.21081 Y-69.35513
G01 X-133.36857 Y-69.31165
G01 X-133.21081 Y-69.35513
G01 X-133.12427 Y-69.38386
G01 X-113.57318 Y-69.38386
G01 X-113.57099 Y-69.37850
G01 X-113.57318 Y-69.38386
G01 X-112.97125 Y-69.98571
G01 X-112.85154 Y-70.09069
G01 X-112.71397 Y-70.18477
G01 X-112.67305 Y-70.20850
G01 X-112.52838 Y-70.27898
G01 X-112.39243 Y-70.32610
G01 X-112.39063 Y-70.32384
G01 X-112.39243 Y-70.32610
G01 X-112.36993 Y-70.36651
G01 X-112.31192 Y-70.45361
G01 X-112.23249 Y-70.55195
G01 X-112.14257 Y-70.64291
G01 X-112.04895 Y-70.72061
G01 X-112.03884 Y-70.72790
G01 X-112.03267 Y-70.72516
G01 X-112.03884 Y-70.72790
G01 X-112.03859 Y-73.48024
G01 X-112.02685 Y-73.59332
G01 X-112.00120 Y-73.69439
G01 X-111.96305 Y-73.78827
G01 X-111.90704 Y-73.88428
G01 X-111.81951 Y-73.98951
G01 X-107.32229 Y-78.48653
G01 X-107.22219 Y-78.56847
G01 X-107.11609 Y-78.62875
G01 X-107.00144 Y-78.67119
G01 X-106.88168 Y-78.69400
G01 X-106.83055 Y-78.69766
G01 X-105.86169 Y-78.69860
G01 X-105.85783 Y-78.69098
G01 X-105.86169 Y-78.69860
G01 X-105.84383 Y-78.72860
G01 X-105.76977 Y-78.82392
G01 X-105.73469 Y-78.85877
G01 X-105.65757 Y-78.92397
G01 X-105.52742 Y-78.99911
G01 X-105.42222 Y-79.03665
G01 X-105.37007 Y-79.04886
G01 X-105.25328 Y-79.06281
G01 X-103.97528 Y-79.06388
G01 X-103.88120 Y-79.05778
G01 X-103.79164 Y-78.95638
G01 X-103.80312 Y-78.96893
G01 X-103.87056 Y-78.98333
G01 X-103.97518 Y-78.99164
G01 X-105.25326 Y-78.99060
G01 X-105.35882 Y-78.97752
G01 X-105.39898 Y-78.96824
G01 X-105.49684 Y-78.93365
G01 X-105.58833 Y-78.88303
G01 X-105.62499 Y-78.85798
G01 X-105.70357 Y-78.78902
G01 X-105.76971 Y-78.70802
G01 X-105.79443 Y-78.67114
G01 X-105.81770 Y-78.62641
G01 X-105.81328 Y-78.61808
G01 X-105.81770 Y-78.62641
G01 X-106.85018 Y-78.62476
G01 X-106.95876 Y-78.60744
G01 X-106.99699 Y-78.59677
G01 X-107.08145 Y-78.56525
G01 X-107.17754 Y-78.51145
G01 X-107.27121 Y-78.43548
G01 X-111.76846 Y-73.93843
G01 X-111.84506 Y-73.84682
G01 X-111.90041 Y-73.75169
G01 X-111.93122 Y-73.67603
G01 X-111.95014 Y-73.60674
G01 X-111.96574 Y-73.49145
G01 X-111.96663 Y-70.68957
G01 X-111.96018 Y-70.68665
G01 X-111.96663 Y-70.68957
G01 X-112.00160 Y-70.66580
G01 X-112.08748 Y-70.59506
G01 X-112.17801 Y-70.50458
G01 X-112.25842 Y-70.40397
G01 X-112.31339 Y-70.32041
G01 X-112.34265 Y-70.26605
G01 X-112.34034 Y-70.26300
G01 X-112.34265 Y-70.26605
G01 X-112.36180 Y-70.26024
G01 X-112.52220 Y-70.20265
G01 X-112.65769 Y-70.13481
G01 X-112.80590 Y-70.03471
G01 X-112.92020 Y-69.93466
G01 X-113.54326 Y-69.31165
G01 X-113.54107 Y-69.30626
G01 X-113.54326 Y-69.31165
G01 X-133.36857 Y-69.31165
G01 X-133.54553 Y-69.27423
G01 X-133.72904 Y-69.24838
G01 X-133.93143 Y-69.23486
G01 X-134.11294 Y-69.23423
G01 X-134.25658 Y-69.21218
G01 X-134.41764 Y-69.16689
G01 X-134.54672 Y-69.11228
G01 X-134.62211 Y-69.06768
G01 X-135.04349 Y-69.06814
G01 X-135.12272 Y-69.03895
G01 X-135.17204 Y-69.00205
G01 X-135.20867 Y-68.95310
G01 X-135.23178 Y-68.89031
G01 X-135.23412 Y-68.84934
G01 X-135.23412 Y-67.15059
G01 X-135.23178 Y-67.10967
G01 X-135.20867 Y-67.04686
G01 X-135.17204 Y-66.99791
G01 X-135.12310 Y-66.96128
G01 X-135.06031 Y-66.93817
G01 X-134.72843 Y-66.93583
G01 X-134.63199 Y-66.92816
G01 X-134.47296 Y-66.85915
G01 X-134.34842 Y-66.81605
G01 X-134.28835 Y-66.79928
G01 X-134.21324 Y-66.78455
G01 X-134.10027 Y-66.76819
G01 X-128.12138 Y-66.76588
G01 X-127.97696 Y-66.75039
G01 X-127.80421 Y-66.69857
G01 X-127.73007 Y-66.66436
G01 X-127.52977 Y-66.53820
G01 X-127.45032 Y-66.47195
G01 X-114.04630 Y-66.47243
G01 X-113.95918 Y-66.54465
G01 X-127.53970 Y-66.54416
G01 X-127.65387 Y-66.61640
G01 X-113.84420 Y-66.61688
G01 X-113.71542 Y-66.68910
G01 X-127.78235 Y-66.68861
G01 X-127.80884 Y-66.70032
G01 X-127.97170 Y-66.74922
G01 X-128.05077 Y-66.76083
G01 X-113.45042 Y-66.76133
G01 X-113.44272 Y-66.68953
G01 X-113.49538 Y-66.67693
G01 X-113.54486 Y-66.65369
G01 X-113.62400 Y-66.58834
G01 X-113.65903 Y-66.54978
G01 X-113.68766 Y-66.49428
G01 X-113.71321 Y-66.40723
G01 X-113.71915 Y-66.36593
G01 X-113.71941 Y-59.96943
G01 X-113.69825 Y-59.94827
G01 X-113.71941 Y-59.96943
G01 X-127.78054 Y-59.96943
G01 X-127.80170 Y-59.94827
G01 X-127.78054 Y-59.96943
G01 X-127.78054 Y-66.35549
G01 X-127.78336 Y-66.39057
G01 X-127.79936 Y-66.46428
G01 X-127.81029 Y-66.49527
G01 X-127.83182 Y-66.53339
G01 X-127.89809 Y-66.61122
G01 X-127.94719 Y-66.64983
G01 X-127.98514 Y-66.66718
G01 X-128.05844 Y-66.68894
G01 X-128.12527 Y-66.69375
G01 X-134.10070 Y-66.69542
G01 X-134.22666 Y-66.71358
G01 X-134.30364 Y-66.72870
G01 X-134.36851 Y-66.74637
G01 X-134.49854 Y-66.79159
G01 X-134.64525 Y-66.85697
G01 X-134.66011 Y-66.85877
G01 X-134.62765 Y-66.85006
G01 X-134.66039 Y-66.85882
G01 X-134.72950 Y-66.86362
G01 X-135.05561 Y-66.86481
G01 X-135.08177 Y-66.86796
G01 X-135.16254 Y-66.89964
G01 X-135.22729 Y-66.94996
G01 X-135.26966 Y-67.00779
G01 X-135.30202 Y-67.08821
G01 X-135.30514 Y-67.11432
G01 X-135.30397 Y-68.90423
G01 X-135.27037 Y-68.99257
G01 X-135.21997 Y-69.05727
G01 X-135.15411 Y-69.10471
G01 X-135.06722 Y-69.13641
G01 X-135.01152 Y-69.17134
G01 X-134.97555 Y-69.20903
G01 X-134.92762 Y-69.27347
G01 X-134.91195 Y-69.30060
G01 X-134.90029 Y-69.32968
G01 X-134.89142 Y-69.37045
G01 X-134.88497 Y-69.46100
G01 X-134.88645 Y-69.49227
G01 X-134.90265 Y-69.55262
G01 X-134.94507 Y-69.63240
G01 X-134.84954 Y-69.49867
G01 X-134.81428 Y-69.43326
G01 X-134.81934 Y-69.36534
G01 X-134.82673 Y-69.32437
G01 X-134.84852 Y-69.26593
G01 X-134.88744 Y-69.20621
G01 X-134.92025 Y-69.18978
G01 X-135.06722 Y-69.13641
G01 X-134.92025 Y-69.18978
G01 X-134.85348 Y-69.22320
G01 X-134.76516 Y-69.27835
G01 X-134.75569 Y-69.31088
G01 X-134.76516 Y-69.27835
G01 X-134.74634 Y-69.29008
G01 X-134.81098 Y-69.42686
G01 X-134.84954 Y-69.49867
G01 X-134.89948 Y-69.57258
G01 X-135.02320 Y-69.72729
G01 X-135.11390 Y-69.85485
G01 X-135.20768 Y-70.03710
G01 X-135.27164 Y-70.23268
G01 X-135.30285 Y-70.42747
G01 X-135.30511 Y-70.61017
G01 X-135.28820 Y-70.75561
G01 X-135.27057 Y-70.84675
G01 X-135.23468 Y-70.96628
G01 X-135.20702 Y-71.04141
G01 X-135.14395 Y-71.18370
G01 X-135.13846 Y-71.23537
G01 X-135.14062 Y-71.27545
G01 X-135.14555 Y-71.27761
G01 X-135.14062 Y-71.27545
G01 X-134.47867 Y-71.93740
G01 X-134.48160 Y-71.95025
G01 X-134.47867 Y-71.93740
G01 X-134.34809 Y-71.89043
G01 X-134.25162 Y-71.86635
G01 X-134.15411 Y-71.85017
G01 X-134.10773 Y-71.84606
G01 X-133.55625 Y-71.84621
G01 X-133.42109 Y-71.90303
G01 X-133.32226 Y-71.95698
G01 X-133.24390 Y-72.00839
G01 X-133.14314 Y-72.08710
G01 X-133.07431 Y-72.15071
G01 X-133.00382 Y-72.22703
G01 X-132.92465 Y-72.32924
G01 X-132.87400 Y-72.40725
G01 X-132.81901 Y-72.50966
G01 X-132.78140 Y-72.59470
G01 X-132.74660 Y-72.69338
G01 X-132.71962 Y-72.79521
G01 X-132.70133 Y-72.89747
G01 X-132.68963 Y-73.02624
G01 X-132.68891 Y-73.11923
G01 X-132.69631 Y-73.22431
G01 X-132.71419 Y-73.33917
G01 X-132.73933 Y-73.44222
G01 X-132.77243 Y-73.54151
G01 X-132.78378 Y-73.54440
G01 X-132.77243 Y-73.54151
G01 X-132.30794 Y-74.00597
G01 X-132.29814 Y-74.05982
G01 X-132.30794 Y-74.00597
G01 X-132.26679 Y-73.93468
G01 X-132.16981 Y-73.70122
G01 X-132.10449 Y-73.45700
G01 X-132.07147 Y-73.20636
G01 X-132.07147 Y-72.95360
G01 X-132.10449 Y-72.70293
G01 X-132.16989 Y-72.45876
G01 X-132.26664 Y-72.22520
G01 X-132.39305 Y-72.00626
G01 X-132.54957 Y-71.80252
G01 X-132.57296 Y-71.76691
G01 X-132.62143 Y-71.65251
G01 X-132.63039 Y-71.61413
G01 X-132.63420 Y-71.56501
G01 X-132.61965 Y-71.44624
G01 X-132.60591 Y-71.39610
G01 X-132.57799 Y-71.34032
G01 X-132.53169 Y-71.28233
G01 X-132.51172 Y-71.27319
G01 X-132.35384 Y-71.22579
G01 X-132.28589 Y-71.21616
G01 X-132.36842 Y-71.24144
G01 X-132.41416 Y-71.26641
G01 X-132.44571 Y-71.29374
G01 X-132.51139 Y-71.37070
G01 X-132.53225 Y-71.40684
G01 X-132.54810 Y-71.45647
G01 X-132.56103 Y-71.54667
G01 X-132.55942 Y-71.60049
G01 X-132.54873 Y-71.64225
G01 X-132.50502 Y-71.74006
G01 X-132.33288 Y-71.96605
G01 X-132.20174 Y-72.19320
G01 X-132.10136 Y-72.43549
G01 X-132.03349 Y-72.68881
G01 X-131.99925 Y-72.94888
G01 X-131.99925 Y-73.21108
G01 X-132.03349 Y-73.47113
G01 X-132.10136 Y-73.72444
G01 X-132.20174 Y-73.96676
G01 X-132.29245 Y-74.12360
G01 X-132.28640 Y-74.16963
G01 X-132.29245 Y-74.12360
G01 X-132.85747 Y-73.55860
G01 X-132.87024 Y-73.56150
G01 X-132.85747 Y-73.55860
G01 X-132.80873 Y-73.42215
G01 X-132.78503 Y-73.32505
G01 X-132.76806 Y-73.21624
G01 X-132.76110 Y-73.11707
G01 X-132.76209 Y-73.01822
G01 X-132.77103 Y-72.91921
G01 X-132.78833 Y-72.81987
G01 X-132.81835 Y-72.70636
G01 X-132.84850 Y-72.62142
G01 X-132.89275 Y-72.52332
G01 X-132.93601 Y-72.44428
G01 X-132.99006 Y-72.36150
G01 X-133.05086 Y-72.28286
G01 X-133.11894 Y-72.20849
G01 X-133.20535 Y-72.12899
G01 X-133.27647 Y-72.07364
G01 X-133.35945 Y-72.01891
G01 X-133.46560 Y-71.96188
G01 X-133.55818 Y-71.92195
G01 X-133.66087 Y-71.88799
G01 X-133.75696 Y-71.86475
G01 X-133.89013 Y-71.84624
G01 X-134.44045 Y-71.84545
G01 X-134.46135 Y-71.85259
G01 X-134.46267 Y-71.85652
G01 X-134.46135 Y-71.85259
G01 X-134.48071 Y-71.83323
G01 X-134.46478 Y-71.84268
G01 X-134.46603 Y-71.84634
G01 X-134.46478 Y-71.84268
G01 X-134.44045 Y-71.84545
G01 X-134.45838 Y-71.84461
G01 X-134.47075 Y-71.83961
G01 X-134.58205 Y-71.76663
G01 X-134.69142 Y-71.68571
G01 X-134.83184 Y-71.56806
G01 X-134.96201 Y-71.44263
G01 X-135.11591 Y-71.26956
G01 X-135.14395 Y-71.18370
G01 X-135.11007 Y-71.27603
G01 X-134.98835 Y-71.41505
G01 X-134.86023 Y-71.54215
G01 X-134.69142 Y-71.68571
G01 X-134.58205 Y-71.76663
G01 X-134.46478 Y-71.84268
G01 X-134.38530 Y-71.84608
G01 X-133.37459 Y-71.84596
G01 X-133.28068 Y-71.89777
G01 X-133.18825 Y-71.95922
G01 X-133.10888 Y-72.02122
G01 X-133.02691 Y-72.09605
G01 X-132.93077 Y-72.20176
G01 X-132.86958 Y-72.28175
G01 X-132.80481 Y-72.38281
G01 X-132.75709 Y-72.47148
G01 X-132.71256 Y-72.57250
G01 X-132.67619 Y-72.67672
G01 X-132.65023 Y-72.77466
G01 X-132.62613 Y-72.91550
G01 X-132.61762 Y-73.01583
G01 X-132.61746 Y-73.13590
G01 X-132.62513 Y-73.23752
G01 X-132.64441 Y-73.35835
G01 X-132.66857 Y-73.45736
G01 X-132.68970 Y-73.52208
G01 X-132.70060 Y-73.52497
G01 X-132.68970 Y-73.52208
G01 X-132.32508 Y-73.88669
G01 X-132.31381 Y-73.94336
G01 X-132.32508 Y-73.88669
G01 X-132.23842 Y-73.67793
G01 X-132.17545 Y-73.44288
G01 X-132.14368 Y-73.20163
G01 X-132.14368 Y-72.95832
G01 X-132.17545 Y-72.71705
G01 X-132.23842 Y-72.48202
G01 X-132.33156 Y-72.25723
G01 X-132.45323 Y-72.04646
G01 X-132.62470 Y-71.82109
G01 X-132.64939 Y-71.77568
G01 X-132.68538 Y-71.68904
G01 X-132.70276 Y-71.61870
G01 X-132.70583 Y-71.54634
G01 X-132.68924 Y-71.42577
G01 X-132.66948 Y-71.36054
G01 X-132.75503 Y-71.41373
G01 X-132.76423 Y-71.43567
G01 X-132.77665 Y-71.52551
G01 X-132.77853 Y-71.57677
G01 X-132.77284 Y-71.63803
G01 X-132.75859 Y-71.69788
G01 X-132.71604 Y-71.80354
G01 X-132.68734 Y-71.85716
G01 X-132.51343 Y-72.08667
G01 X-132.39648 Y-72.28924
G01 X-132.30695 Y-72.50529
G01 X-132.24645 Y-72.73117
G01 X-132.21592 Y-72.96307
G01 X-132.21592 Y-73.19688
G01 X-132.24632 Y-73.42878
G01 X-132.30710 Y-73.65462
G01 X-132.35043 Y-73.75921
G01 X-132.33446 Y-73.82439
G01 X-132.35043 Y-73.75921
G01 X-132.60700 Y-73.50267
G01 X-132.61650 Y-73.50549
G01 X-132.60700 Y-73.50267
G01 X-132.59585 Y-73.46452
G01 X-132.57256 Y-73.36744
G01 X-132.55389 Y-73.24966
G01 X-132.54474 Y-73.12934
G01 X-132.54604 Y-73.00161
G01 X-132.55757 Y-72.88149
G01 X-132.58292 Y-72.74616
G01 X-132.60690 Y-72.65634
G01 X-132.64111 Y-72.55754
G01 X-132.69707 Y-72.42998
G01 X-132.75922 Y-72.31840
G01 X-132.81017 Y-72.24065
G01 X-132.87365 Y-72.15756
G01 X-132.96570 Y-72.05518
G01 X-133.05409 Y-71.97301
G01 X-133.14533 Y-71.90115
G01 X-133.22788 Y-71.84591
G01 X-133.37459 Y-71.84596
G01 X-133.09849 Y-71.84593
G01 X-133.01177 Y-71.91416
G01 X-132.93667 Y-71.98261
G01 X-132.83707 Y-72.08848
G01 X-132.75465 Y-72.19404
G01 X-132.67797 Y-72.31372
G01 X-132.62971 Y-72.40318
G01 X-132.58800 Y-72.49587
G01 X-132.54266 Y-72.61984
G01 X-132.50804 Y-72.74857
G01 X-132.48335 Y-72.89183
G01 X-132.47357 Y-73.00382
G01 X-132.47215 Y-73.10544
G01 X-132.47990 Y-73.23785
G01 X-132.50395 Y-73.39211
G01 X-132.52567 Y-73.48164
G01 X-132.53481 Y-73.48461
G01 X-132.52567 Y-73.48164
G01 X-132.37581 Y-73.63173
G01 X-132.35711 Y-73.70145
G01 X-132.37581 Y-73.63173
G01 X-132.31741 Y-73.41464
G01 X-132.28813 Y-73.19216
G01 X-132.28813 Y-72.96780
G01 X-132.31741 Y-72.74530
G01 X-132.37550 Y-72.52856
G01 X-132.46138 Y-72.32124
G01 X-132.57360 Y-72.12688
G01 X-132.72747 Y-71.92642
G01 X-132.76969 Y-71.85850
G01 X-132.82201 Y-71.73592
G01 X-132.84571 Y-71.63918
G01 X-132.88574 Y-71.77192
G01 X-132.88142 Y-71.78309
G01 X-132.84462 Y-71.86971
G01 X-132.80908 Y-71.93486
G01 X-132.63377 Y-72.16709
G01 X-132.52630 Y-72.35325
G01 X-132.44403 Y-72.55182
G01 X-132.38841 Y-72.75942
G01 X-132.36034 Y-72.97255
G01 X-132.36024 Y-73.18743
G01 X-132.38856 Y-73.40049
G01 X-132.41315 Y-73.49226
G01 X-132.38752 Y-73.57300
G01 X-132.41315 Y-73.49226
G01 X-132.44594 Y-73.45947
G01 X-132.45468 Y-73.46224
G01 X-132.44594 Y-73.45947
G01 X-132.43189 Y-73.40054
G01 X-132.40700 Y-73.23216
G01 X-132.40004 Y-73.12325
G01 X-132.40075 Y-73.02335
G01 X-132.41132 Y-72.88627
G01 X-132.44332 Y-72.70913
G01 X-132.47195 Y-72.60379
G01 X-132.51475 Y-72.48352
G01 X-132.56702 Y-72.36704
G01 X-132.62841 Y-72.25510
G01 X-132.69852 Y-72.14842
G01 X-132.79110 Y-72.03161
G01 X-132.87355 Y-71.94299
G01 X-132.98063 Y-71.84636
G01 X-133.09849 Y-71.84593
G01 X-132.92595 Y-71.84514
G01 X-132.92450 Y-71.84926
G01 X-132.92595 Y-71.84514
G01 X-132.91340 Y-71.83991
G01 X-132.90032 Y-71.82447
G01 X-132.89740 Y-71.82640
G01 X-132.90032 Y-71.82447
G01 X-132.85330 Y-71.66051
G01 X-132.82394 Y-71.57801
G01 X-132.75503 Y-71.41373
G01 X-132.57723 Y-71.30313
G01 X-132.51172 Y-71.27319
G01 X-132.35384 Y-71.22579
G01 X-132.21851 Y-71.21134
G01 X-127.12863 Y-71.21134
G01 X-127.07831 Y-71.21335
G01 X-127.03272 Y-71.22010
G01 X-126.93912 Y-71.26712
G01 X-127.03272 Y-71.22010
G01 X-126.99403 Y-71.22582
G01 X-126.88811 Y-71.31129
G01 X-122.73572 Y-75.46365
G01 X-122.70161 Y-75.50061
G01 X-122.67408 Y-75.53769
G01 X-122.64116 Y-75.63703
G01 X-122.67408 Y-75.53769
G01 X-122.65078 Y-75.56906
G01 X-122.63633 Y-75.70442
G01 X-122.63633 Y-79.61600
G01 X-122.64116 Y-79.68567
G01 X-122.65513 Y-79.74139
G01 X-122.67169 Y-79.77889
G01 X-122.69495 Y-79.81264
G01 X-122.75624 Y-79.87932
G01 X-122.78858 Y-79.90568
G01 X-122.81578 Y-79.92120
G01 X-122.85492 Y-79.93555
G01 X-122.93270 Y-79.95567
G01 X-122.98456 Y-79.96032
G01 X-123.03610 Y-79.95262
G01 X-123.13204 Y-79.92057
G01 X-123.15980 Y-79.90609
G01 X-123.27169 Y-79.82946
G01 X-123.43793 Y-79.75597
G01 X-123.61736 Y-79.71363
G01 X-123.68451 Y-79.70942
G01 X-124.03554 Y-79.70942
G01 X-124.05698 Y-79.68772
G01 X-124.03554 Y-79.70942
G01 X-124.03554 Y-80.47055
G01 X-124.05667 Y-80.49166
G01 X-124.03554 Y-80.47055
G01 X-123.74054 Y-80.47081
G01 X-123.67920 Y-80.48262
G01 X-123.62370 Y-80.51124
G01 X-123.57849 Y-80.55435
G01 X-123.54728 Y-80.60842
G01 X-123.53379 Y-80.65877
G01 X-123.53155 Y-82.72998
G01 X-123.53773 Y-82.78172
G01 X-123.56094 Y-82.83971
G01 X-123.59218 Y-82.88142
G01 X-123.63234 Y-82.91459
G01 X-123.67920 Y-82.93735
G01 X-123.73013 Y-82.94842
G01 X-124.33793 Y-82.94944
G01 X-124.47341 Y-82.94418
G01 X-124.59973 Y-82.94571
G01 X-124.71740 Y-82.95274
G01 X-124.84783 Y-82.96681
G01 X-124.98116 Y-82.98802
G01 X-125.13602 Y-83.02165
G01 X-125.26917 Y-83.02147
G01 X-125.32954 Y-83.01299
G01 X-125.39591 Y-82.98751
G01 X-125.43041 Y-82.96595
G01 X-125.46160 Y-82.93979
G01 X-125.48883 Y-82.90954
G01 X-125.51156 Y-82.87581
G01 X-125.52942 Y-82.83926
G01 X-125.54199 Y-82.80055
G01 X-125.55065 Y-82.72998
G01 X-125.55065 Y-82.25163
G01 X-125.53041 Y-82.23100
G01 X-125.55065 Y-82.25163
G01 X-126.16731 Y-82.25163
G01 X-126.18847 Y-82.23047
G01 X-126.16731 Y-82.25163
G01 X-126.16764 Y-82.79399
G01 X-126.16325 Y-82.85274
G01 X-126.12436 Y-83.02003
G01 X-126.05621 Y-83.17403
G01 X-125.96109 Y-83.31299
G01 X-125.83858 Y-83.43494
G01 X-125.80668 Y-83.45919
G01 X-125.77666 Y-83.48863
G01 X-125.75116 Y-83.52206
G01 X-125.71113 Y-83.58807
G01 X-125.70981 Y-83.45609
G01 X-125.74125 Y-83.42114
G01 X-125.79147 Y-83.37992
G01 X-125.90526 Y-83.26664
G01 X-125.99284 Y-83.13872
G01 X-126.05558 Y-82.99699
G01 X-126.09159 Y-82.84190
G01 X-126.09543 Y-82.79148
G01 X-126.09510 Y-82.32384
G01 X-126.11623 Y-82.30271
G01 X-126.09510 Y-82.32384
G01 X-125.62286 Y-82.32384
G01 X-125.60173 Y-82.30271
G01 X-125.62286 Y-82.32384
G01 X-125.62271 Y-82.74020
G01 X-125.61773 Y-82.79094
G01 X-125.60567 Y-82.84050
G01 X-125.59114 Y-82.87860
G01 X-125.56708 Y-82.92358
G01 X-125.53701 Y-82.96476
G01 X-125.50897 Y-82.99440
G01 X-125.47780 Y-83.02074
G01 X-125.43500 Y-83.04845
G01 X-125.38875 Y-83.06994
G01 X-125.35680 Y-83.07936
G01 X-125.49114 Y-83.09915
G01 X-125.54105 Y-83.06260
G01 X-125.59160 Y-83.01205
G01 X-125.62784 Y-82.96262
G01 X-125.65682 Y-82.90860
G01 X-125.68316 Y-82.83131
G01 X-125.69497 Y-82.74022
G01 X-125.69507 Y-82.39608
G01 X-125.67399 Y-82.37494
G01 X-125.69507 Y-82.39608
G01 X-126.02286 Y-82.39608
G01 X-126.04402 Y-82.37492
G01 X-126.02286 Y-82.39608
G01 X-126.02322 Y-82.78899
G01 X-126.01997 Y-82.83108
G01 X-125.98679 Y-82.97393
G01 X-125.92949 Y-83.10342
G01 X-125.84951 Y-83.22033
G01 X-125.74435 Y-83.32490
G01 X-125.71468 Y-83.34784
G01 X-125.72390 Y-83.24322
G01 X-125.79363 Y-83.17393
G01 X-125.86612 Y-83.06813
G01 X-125.91801 Y-82.95089
G01 X-125.94831 Y-82.82023
G01 X-125.95101 Y-82.78650
G01 X-125.95065 Y-82.46829
G01 X-125.97181 Y-82.44713
G01 X-125.95065 Y-82.46829
G01 X-125.76731 Y-82.46829
G01 X-125.74621 Y-82.44718
G01 X-125.76731 Y-82.46829
G01 X-125.76688 Y-82.75046
G01 X-125.75489 Y-82.84167
G01 X-125.73427 Y-82.91025
G01 X-125.69919 Y-82.98414
G01 X-125.65273 Y-83.05147
G01 X-125.59924 Y-83.10758
G01 X-125.51743 Y-83.10253
G01 X-125.39924 Y-83.08736
G01 X-125.26869 Y-83.05752
G01 X-125.13602 Y-83.02165
G01 X-125.26869 Y-83.05752
G01 X-125.39924 Y-83.08736
G01 X-125.57636 Y-83.10682
G01 X-125.70531 Y-83.11383
G01 X-125.70955 Y-83.10679
G01 X-125.70531 Y-83.11383
G01 X-125.71664 Y-83.12178
G01 X-125.72581 Y-83.13918
G01 X-125.71136 Y-83.11726
G01 X-125.69182 Y-83.11070
G01 X-125.70531 Y-83.11383
G01 X-125.71664 Y-83.12178
G01 X-125.72413 Y-83.13341
G01 X-125.72670 Y-83.14703
G01 X-125.72307 Y-83.25980
G01 X-125.71070 Y-83.40979
G01 X-125.71016 Y-83.57022
G01 X-125.71611 Y-83.67918
G01 X-125.74473 Y-83.83044
G01 X-125.74118 Y-83.71647
G01 X-125.74986 Y-83.67563
G01 X-125.76612 Y-83.63717
G01 X-125.81326 Y-83.55912
G01 X-125.83343 Y-83.53349
G01 X-125.88570 Y-83.48995
G01 X-126.01687 Y-83.35932
G01 X-126.11956 Y-83.20931
G01 X-126.19314 Y-83.04309
G01 X-126.23488 Y-82.86359
G01 X-126.23985 Y-82.79648
G01 X-126.23952 Y-82.17941
G01 X-126.26068 Y-82.15826
G01 X-126.23952 Y-82.17941
G01 X-125.47841 Y-82.17941
G01 X-125.45774 Y-82.15851
G01 X-125.47841 Y-82.17941
G01 X-125.47620 Y-82.76123
G01 X-125.46272 Y-82.81154
G01 X-125.43147 Y-82.86565
G01 X-125.38626 Y-82.90872
G01 X-125.33076 Y-82.93735
G01 X-125.30051 Y-82.94545
G01 X-125.25898 Y-82.94942
G01 X-124.66762 Y-82.94942
G01 X-124.47341 Y-82.94418
G01 X-124.31855 Y-82.95074
G01 X-124.18827 Y-82.96333
G01 X-124.05550 Y-82.98322
G01 X-123.92091 Y-83.01025
G01 X-123.65703 Y-83.07855
G01 X-123.54420 Y-83.09707
G01 X-123.48931 Y-83.10283
G01 X-123.31243 Y-83.11035
G01 X-123.26617 Y-83.04931
G01 X-123.23051 Y-82.98713
G01 X-123.20227 Y-82.91949
G01 X-123.18210 Y-82.84555
G01 X-123.24268 Y-82.66702
G01 X-123.24433 Y-82.77088
G01 X-123.25744 Y-82.85162
G01 X-123.28746 Y-82.93859
G01 X-123.33265 Y-83.01873
G01 X-123.37052 Y-83.06707
G01 X-123.41019 Y-83.10710
G01 X-123.54420 Y-83.09707
G01 X-123.51964 Y-83.09963
G01 X-123.49300 Y-83.08160
G01 X-123.43902 Y-83.03471
G01 X-123.39937 Y-82.98797
G01 X-123.36668 Y-82.93613
G01 X-123.34522 Y-82.88978
G01 X-123.32932 Y-82.84121
G01 X-123.31921 Y-82.79112
G01 X-123.31489 Y-82.72998
G01 X-123.31489 Y-82.41731
G01 X-123.35774 Y-82.22249
G01 X-123.38710 Y-82.00921
G01 X-123.38726 Y-82.74020
G01 X-123.39622 Y-82.81096
G01 X-123.42315 Y-82.88787
G01 X-123.46650 Y-82.95686
G01 X-123.51621 Y-83.00801
G01 X-123.58398 Y-83.05328
G01 X-123.65025 Y-83.07964
G01 X-123.87468 Y-83.02165
G01 X-123.71040 Y-83.01881
G01 X-123.66087 Y-83.00738
G01 X-123.60516 Y-82.98256
G01 X-123.54839 Y-82.93979
G01 X-123.50920 Y-82.89308
G01 X-123.48058 Y-82.83926
G01 X-123.46376 Y-82.78063
G01 X-123.45934 Y-82.72998
G01 X-123.45952 Y-80.67980
G01 X-123.47062 Y-80.60959
G01 X-123.48454 Y-80.57137
G01 X-123.50364 Y-80.53542
G01 X-123.52757 Y-80.50251
G01 X-123.55584 Y-80.47325
G01 X-123.58789 Y-80.44820
G01 X-123.62312 Y-80.42786
G01 X-123.68042 Y-80.40700
G01 X-123.74080 Y-80.39852
G01 X-123.96333 Y-80.39834
G01 X-123.98441 Y-80.41935
G01 X-123.96333 Y-80.39834
G01 X-123.96333 Y-79.78163
G01 X-123.98479 Y-79.75991
G01 X-123.96333 Y-79.78163
G01 X-123.68703 Y-79.78163
G01 X-123.62820 Y-79.78529
G01 X-123.46097 Y-79.82473
G01 X-123.30699 Y-79.89283
G01 X-123.20067 Y-79.96570
G01 X-123.15444 Y-79.98950
G01 X-123.03831 Y-80.02636
G01 X-122.99709 Y-80.03202
G01 X-122.95548 Y-80.03174
G01 X-122.91433 Y-80.02557
G01 X-122.80689 Y-79.99590
G01 X-122.76016 Y-79.97317
G01 X-122.71144 Y-79.93642
G01 X-122.68007 Y-79.86093
G01 X-122.64560 Y-79.72435
G01 X-122.63951 Y-79.67147
G01 X-122.64560 Y-79.72435
G01 X-122.68007 Y-79.86093
G01 X-122.70547 Y-79.92610
G01 X-122.78629 Y-80.06527
G01 X-122.88594 Y-80.09298
G01 X-122.93697 Y-80.10251
G01 X-122.98883 Y-80.10469
G01 X-123.04047 Y-80.09946
G01 X-123.08093 Y-80.09004
G01 X-123.17684 Y-80.05831
G01 X-123.23270 Y-80.03080
G01 X-123.34230 Y-79.95623
G01 X-123.48403 Y-79.89349
G01 X-123.63905 Y-79.85694
G01 X-123.89112 Y-79.85384
G01 X-123.91260 Y-79.83205
G01 X-123.89112 Y-79.85384
G01 X-123.89112 Y-80.32610
G01 X-123.91161 Y-80.34609
G01 X-123.89112 Y-80.32610
G01 X-123.74077 Y-80.32626
G01 X-123.67001 Y-80.33525
G01 X-123.60237 Y-80.35785
G01 X-123.54042 Y-80.39324
G01 X-123.48657 Y-80.44000
G01 X-123.44288 Y-80.49638
G01 X-123.40753 Y-80.56982
G01 X-123.39226 Y-80.62902
G01 X-123.38726 Y-80.67977
G01 X-123.38710 Y-81.40062
G01 X-123.36686 Y-81.25224
G01 X-123.33994 Y-81.10804
G01 X-123.31489 Y-80.99890
G01 X-123.31537 Y-80.66954
G01 X-123.32254 Y-80.60868
G01 X-123.33498 Y-80.55912
G01 X-123.36668 Y-80.48386
G01 X-123.41187 Y-80.41582
G01 X-123.46894 Y-80.35740
G01 X-123.53590 Y-80.31063
G01 X-123.62012 Y-80.27398
G01 X-123.69998 Y-80.25689
G01 X-123.81888 Y-80.25389
G01 X-123.83803 Y-80.27154
G01 X-123.81888 Y-80.25389
G01 X-123.81888 Y-79.92608
G01 X-123.84049 Y-79.90408
G01 X-123.81888 Y-79.92608
G01 X-123.64989 Y-79.92859
G01 X-123.50707 Y-79.96227
G01 X-123.37760 Y-80.01963
G01 X-123.28233 Y-80.08490
G01 X-123.22790 Y-80.11500
G01 X-123.10331 Y-80.15872
G01 X-123.04260 Y-80.17228
G01 X-122.99094 Y-80.17688
G01 X-122.93910 Y-80.17533
G01 X-122.84321 Y-80.15646
G01 X-122.82724 Y-80.13573
G01 X-122.78629 Y-80.06527
G01 X-122.82724 Y-80.13573
G01 X-122.87885 Y-80.20258
G01 X-122.91797 Y-80.24571
G01 X-122.97232 Y-80.24927
G01 X-123.02411 Y-80.24721
G01 X-123.11576 Y-80.23029
G01 X-123.24088 Y-80.18821
G01 X-123.31443 Y-80.15008
G01 X-123.41286 Y-80.08292
G01 X-123.53013 Y-80.03103
G01 X-123.66071 Y-80.00027
G01 X-123.74667 Y-79.99829
G01 X-123.76854 Y-79.97584
G01 X-123.74667 Y-79.99829
G01 X-123.74667 Y-80.18170
G01 X-123.76330 Y-80.19552
G01 X-123.74667 Y-80.18170
G01 X-123.67956 Y-80.18671
G01 X-123.59975 Y-80.20469
G01 X-123.53308 Y-80.23075
G01 X-123.47931 Y-80.26037
G01 X-123.42165 Y-80.30279
G01 X-123.37738 Y-80.34533
G01 X-123.33265 Y-80.40124
G01 X-123.28746 Y-80.48137
G01 X-123.25744 Y-80.56834
G01 X-123.24433 Y-80.64909
G01 X-123.24268 Y-80.75303
G01 X-123.18220 Y-80.57388
G01 X-123.21367 Y-80.47020
G01 X-123.26061 Y-80.37927
G01 X-123.30262 Y-80.32120
G01 X-123.35149 Y-80.26878
G01 X-123.39825 Y-80.22890
G01 X-123.45777 Y-80.18894
G01 X-123.53120 Y-80.15267
G01 X-123.59909 Y-80.12968
G01 X-123.67445 Y-80.11455
G01 X-123.68865 Y-80.12506
G01 X-123.67445 Y-80.11455
G01 X-123.67445 Y-80.07208
G01 X-123.70173 Y-80.03779
G01 X-123.67445 Y-80.07208
G01 X-123.55317 Y-80.09979
G01 X-123.44822 Y-80.14640
G01 X-123.35528 Y-80.20969
G01 X-123.29175 Y-80.24459
G01 X-123.23420 Y-80.26801
G01 X-123.12818 Y-80.30180
G01 X-123.05711 Y-80.31612
G01 X-122.98670 Y-80.32143
G01 X-122.91797 Y-80.24571
G01 X-123.02635 Y-80.36509
G01 X-123.08881 Y-80.38427
G01 X-123.18840 Y-80.35900
G01 X-123.26650 Y-80.29583
G01 X-123.18840 Y-80.35900
G01 X-123.14654 Y-80.44360
G01 X-123.15035 Y-80.45900
G01 X-123.13765 Y-80.41099
G01 X-123.14347 Y-80.40573
G01 X-123.13765 Y-80.41099
G01 X-123.12231 Y-80.39494
G01 X-123.08881 Y-80.38427
G01 X-123.12231 Y-80.39494
G01 X-123.13765 Y-80.41099
G01 X-123.18710 Y-80.59064
G01 X-123.26704 Y-80.82796
G01 X-123.30293 Y-80.95226
G01 X-123.33994 Y-81.10804
G01 X-123.36686 Y-81.25224
G01 X-123.38484 Y-81.38028
G01 X-123.39716 Y-81.51325
G01 X-123.40397 Y-81.69595
G01 X-123.40118 Y-81.83684
G01 X-123.39356 Y-81.95061
G01 X-123.37778 Y-82.09387
G01 X-123.35774 Y-82.22249
G01 X-123.32566 Y-82.37583
G01 X-123.28820 Y-82.51998
G01 X-123.24997 Y-82.64543
G01 X-123.18520 Y-82.83412
G01 X-123.14745 Y-82.97281
G01 X-123.25231 Y-83.11060
G01 X-123.35609 Y-83.11002
G01 X-123.54420 Y-83.09707
G01 X-123.65703 Y-83.07855
G01 X-123.92177 Y-83.01004
G01 X-124.08484 Y-82.97827
G01 X-124.18827 Y-82.96333
G01 X-124.31766 Y-82.95081
G01 X-124.47341 Y-82.94418
G01 X-124.69208 Y-82.95076
G01 X-124.84783 Y-82.96681
G01 X-124.98116 Y-82.98802
G01 X-125.08372 Y-83.00903
G01 X-125.39924 Y-83.08736
G01 X-125.51743 Y-83.10253
G01 X-125.69665 Y-83.11134
G01 X-125.74382 Y-83.04931
G01 X-125.77945 Y-82.98713
G01 X-125.80719 Y-82.92104
G01 X-125.82655 Y-82.85203
G01 X-125.83917 Y-82.75048
G01 X-125.83952 Y-82.54050
G01 X-125.81867 Y-82.51952
G01 X-125.83952 Y-82.54050
G01 X-125.87844 Y-82.54050
G01 X-125.89990 Y-82.51919
G01 X-125.87844 Y-82.54050
G01 X-125.87712 Y-82.80946
G01 X-125.84915 Y-82.92780
G01 X-125.80282 Y-83.03288
G01 X-125.73759 Y-83.12739
G01 X-125.72581 Y-83.13918
G01 X-125.72462 Y-83.22963
G01 X-125.71379 Y-83.35729
G01 X-125.70922 Y-83.48718
G01 X-125.71611 Y-83.67918
G01 X-125.74473 Y-83.83044
G01 X-125.77752 Y-83.94647
G01 X-125.80048 Y-84.08111
G01 X-125.81039 Y-84.18515
G01 X-125.80899 Y-84.35175
G01 X-125.77712 Y-84.55345
G01 X-125.71362 Y-84.74939
G01 X-125.61956 Y-84.93486
G01 X-125.50038 Y-85.09805
G01 X-125.35510 Y-85.24408
G01 X-125.18766 Y-85.36589
G01 X-125.04357 Y-85.44077
G01 X-124.94501 Y-85.48058
G01 X-124.80859 Y-85.52254
G01 X-124.66843 Y-85.54662
G01 X-124.56338 Y-85.55556
G01 X-124.43397 Y-85.55553
G01 X-124.30435 Y-85.54072
G01 X-124.19858 Y-85.52203
G01 X-124.03993 Y-85.47146
G01 X-123.92081 Y-85.41850
G01 X-123.81984 Y-85.36470
G01 X-123.65670 Y-85.24550
G01 X-123.47026 Y-85.05934
G01 X-123.44187 Y-85.04171
G01 X-123.36826 Y-85.00781
G01 X-123.31865 Y-84.99193
G01 X-123.26668 Y-84.98822
G01 X-123.16645 Y-85.00186
G01 X-123.12642 Y-85.01362
G01 X-123.08068 Y-85.03862
G01 X-123.00372 Y-85.10433
G01 X-122.97641 Y-85.13585
G01 X-122.95144 Y-85.18157
G01 X-122.92617 Y-85.26404
G01 X-122.95556 Y-85.17197
G01 X-122.98931 Y-85.11944
G01 X-123.08068 Y-85.03862
G01 X-123.13620 Y-85.00996
G01 X-123.16645 Y-85.00186
G01 X-123.25627 Y-84.98896
G01 X-123.30834 Y-84.99020
G01 X-123.36826 Y-85.00781
G01 X-123.44187 Y-85.04171
G01 X-123.47654 Y-85.06419
G01 X-123.36170 Y-84.96252
G01 X-123.29869 Y-84.91657
G01 X-123.24596 Y-84.91743
G01 X-123.16262 Y-84.92927
G01 X-123.24596 Y-84.91743
G01 X-123.29869 Y-84.91657
G01 X-123.23702 Y-84.87537
G01 X-123.16076 Y-84.93062
G01 X-123.08157 Y-84.99734
G01 X-123.00232 Y-85.08009
G01 X-122.94466 Y-85.15022
G01 X-122.92632 Y-85.26203
G01 X-122.92134 Y-85.33158
G01 X-122.92170 Y-86.56983
G01 X-122.92912 Y-86.64397
G01 X-122.96938 Y-86.73917
G01 X-122.99912 Y-86.78189
G01 X-123.02965 Y-86.81027
G01 X-123.09551 Y-86.85619
G01 X-123.13209 Y-86.87392
G01 X-123.10425 Y-86.86193
G01 X-123.02965 Y-86.81027
G01 X-122.99912 Y-86.78189
G01 X-122.98004 Y-86.75710
G01 X-122.96468 Y-86.72985
G01 X-122.92912 Y-86.64397
G01 X-122.92170 Y-86.56983
G01 X-122.93133 Y-86.66627
G01 X-122.94464 Y-86.73280
G01 X-122.96973 Y-86.81720
G01 X-123.24474 Y-86.91090
G01 X-123.35126 Y-86.97585
G01 X-123.39594 Y-87.01811
G01 X-123.44001 Y-87.06376
G01 X-123.50834 Y-87.17351
G01 X-123.54651 Y-87.29015
G01 X-123.55576 Y-87.36127
G01 X-123.55520 Y-88.13863
G01 X-123.54809 Y-88.20445
G01 X-123.50887 Y-88.32423
G01 X-123.44415 Y-88.43104
G01 X-123.39208 Y-88.48542
G01 X-123.33270 Y-88.53571
G01 X-123.20740 Y-88.61044
G01 X-123.14766 Y-88.66729
G01 X-123.11550 Y-88.71151
G01 X-123.10184 Y-88.74138
G01 X-123.07446 Y-88.82842
G01 X-123.06732 Y-88.88006
G01 X-123.07049 Y-88.92164
G01 X-123.08429 Y-88.97587
G01 X-123.09996 Y-89.02931
G01 X-123.11598 Y-89.05791
G01 X-122.99528 Y-88.87396
G01 X-123.00293 Y-88.81684
G01 X-123.03958 Y-88.70257
G01 X-123.21751 Y-88.60279
G01 X-123.06051 Y-88.68969
G01 X-122.98517 Y-88.73924
G01 X-122.94050 Y-88.77201
G01 X-122.93882 Y-88.77755
G01 X-122.94050 Y-88.77201
G01 X-122.93712 Y-88.77450
G01 X-122.99305 Y-88.87049
G01 X-123.14024 Y-89.09332
G01 X-123.18891 Y-89.17488
G01 X-123.22655 Y-89.29030
G01 X-123.23521 Y-89.36129
G01 X-123.23623 Y-90.11026
G01 X-123.23580 Y-90.14173
G01 X-123.22655 Y-90.20457
G01 X-123.18906 Y-90.32514
G01 X-123.16196 Y-90.37216
G01 X-123.12409 Y-90.43172
G01 X-123.03153 Y-90.52420
G01 X-122.94014 Y-90.58034
G01 X-122.88784 Y-90.60297
G01 X-122.80890 Y-90.62626
G01 X-122.73765 Y-90.63599
G01 X-121.79524 Y-90.63632
G01 X-121.69026 Y-90.62669
G01 X-121.57062 Y-90.58717
G01 X-121.46336 Y-90.51989
G01 X-121.40171 Y-90.46642
G01 X-121.36204 Y-90.44795
G01 X-121.28886 Y-90.42616
G01 X-121.36204 Y-90.44795
G01 X-121.40283 Y-90.46713
G01 X-121.36531 Y-90.43711
G01 X-121.29087 Y-90.42631
G01 X-121.22145 Y-90.42133
G01 X-118.02770 Y-90.42133
G01 X-117.97751 Y-90.42331
G01 X-117.93014 Y-90.43065
G01 X-117.83695 Y-90.47780
G01 X-117.93014 Y-90.43065
G01 X-117.88623 Y-90.43744
G01 X-117.78130 Y-90.52359
G01 X-117.68005 Y-90.58669
G01 X-117.55443 Y-90.62867
G01 X-117.44996 Y-90.63634
G01 X-116.54394 Y-90.63639
G01 X-116.44018 Y-90.62717
G01 X-116.32446 Y-90.58882
G01 X-116.21336 Y-90.51989
G01 X-116.15171 Y-90.46642
G01 X-116.11204 Y-90.44795
G01 X-116.03883 Y-90.42616
G01 X-116.11204 Y-90.44795
G01 X-116.15278 Y-90.46708
G01 X-116.11531 Y-90.43711
G01 X-116.04087 Y-90.42631
G01 X-115.97145 Y-90.42133
G01 X-113.99937 Y-90.42149
G01 X-113.92847 Y-90.41867
G01 X-113.80688 Y-90.39509
G01 X-113.68138 Y-90.34300
G01 X-113.57750 Y-90.27323
G01 X-113.53762 Y-90.23695
G01 X-110.61476 Y-87.31420
G01 X-110.57611 Y-87.27948
G01 X-110.52843 Y-87.24664
G01 X-110.48284 Y-87.22670
G01 X-110.44387 Y-87.21849
G01 X-110.35381 Y-87.21209
G01 X-110.32254 Y-87.21357
G01 X-110.28180 Y-87.22243
G01 X-110.25274 Y-87.23406
G01 X-110.18599 Y-87.27023
G01 X-110.27192 Y-87.22586
G01 X-110.31223 Y-87.21507
G01 X-110.34337 Y-87.21209
G01 X-110.43394 Y-87.21755
G01 X-110.47326 Y-87.22398
G01 X-110.51075 Y-87.23742
G01 X-110.56079 Y-87.26716
G01 X-110.53737 Y-87.24829
G01 X-110.42208 Y-87.17768
G01 X-110.37562 Y-87.15644
G01 X-110.24088 Y-87.22896
G01 X-110.13496 Y-87.31443
G01 X-108.95968 Y-88.48961
G01 X-108.90771 Y-88.53381
G01 X-108.81474 Y-88.59434
G01 X-108.69442 Y-88.64351
G01 X-108.56511 Y-88.66985
G01 X-108.05010 Y-88.67120
G01 X-107.97504 Y-88.67612
G01 X-107.93382 Y-88.68608
G01 X-107.89608 Y-88.70300
G01 X-107.81533 Y-88.76248
G01 X-107.89608 Y-88.70300
G01 X-107.93382 Y-88.68608
G01 X-107.97504 Y-88.67612
G01 X-107.88033 Y-88.69253
G01 X-107.70154 Y-88.89512
G01 X-107.60111 Y-88.99332
G01 X-107.45318 Y-89.10206
G01 X-107.43194 Y-89.11689
G01 X-107.25112 Y-89.20772
G01 X-107.14477 Y-89.24552
G01 X-107.05653 Y-89.27092
G01 X-106.85480 Y-89.30429
G01 X-106.64861 Y-89.30361
G01 X-106.57606 Y-89.29512
G01 X-106.44294 Y-89.27163
G01 X-106.25066 Y-89.20861
G01 X-106.06819 Y-89.11664
G01 X-105.90177 Y-88.99540
G01 X-105.82803 Y-88.92512
G01 X-105.71615 Y-88.80518
G01 X-105.22082 Y-88.30742
G01 X-105.21109 Y-88.31021
G01 X-105.22082 Y-88.30742
G01 X-105.24533 Y-88.21905
G01 X-105.26276 Y-88.11644
G01 X-105.26944 Y-87.99998
G01 X-105.26276 Y-87.88354
G01 X-105.24533 Y-87.78093
G01 X-105.22082 Y-87.69253
G01 X-105.21112 Y-87.68974
G01 X-105.22082 Y-87.69253
G01 X-105.71165 Y-87.19927
G01 X-105.62455 Y-87.30419
G01 X-105.53814 Y-87.42045
G01 X-105.43383 Y-87.58085
G01 X-105.30215 Y-87.71316
G01 X-105.29418 Y-87.71049
G01 X-105.30215 Y-87.71316
G01 X-105.31185 Y-87.74684
G01 X-105.33212 Y-87.85878
G01 X-105.34157 Y-88.00554
G01 X-105.33212 Y-88.14120
G01 X-105.31185 Y-88.25314
G01 X-105.30218 Y-88.28679
G01 X-105.29288 Y-88.28959
G01 X-105.30218 Y-88.28679
G01 X-105.43517 Y-88.42047
G01 X-105.47746 Y-88.48933
G01 X-105.56123 Y-88.61194
G01 X-105.62994 Y-88.70282
G01 X-105.71615 Y-88.80518
G01 X-105.62994 Y-88.70282
G01 X-105.54170 Y-88.58458
G01 X-105.45872 Y-88.45979
G01 X-105.37868 Y-88.32362
G01 X-105.35262 Y-88.26988
G01 X-105.34995 Y-88.27061
G01 X-105.35262 Y-88.26988
G01 X-105.35427 Y-87.98049
G01 X-105.35333 Y-87.72401
G01 X-105.35067 Y-87.72327
G01 X-105.35333 Y-87.72401
G01 X-105.43578 Y-87.57750
G01 X-105.51846 Y-87.44877
G01 X-105.60558 Y-87.32840
G01 X-105.69593 Y-87.21740
G01 X-105.79138 Y-87.11227
G01 X-105.89877 Y-87.00605
G01 X-106.06816 Y-86.88426
G01 X-106.13032 Y-86.84946
G01 X-106.26034 Y-86.78733
G01 X-106.42189 Y-86.73442
G01 X-106.53527 Y-86.71151
G01 X-106.64556 Y-86.69619
G01 X-106.81975 Y-86.69470
G01 X-106.85480 Y-86.69576
G01 X-106.99369 Y-86.71646
G01 X-107.05658 Y-86.72921
G01 X-107.12480 Y-86.74859
G01 X-107.24860 Y-86.79116
G01 X-107.43192 Y-86.88309
G01 X-107.59897 Y-87.00475
G01 X-107.70078 Y-87.10402
G01 X-107.81899 Y-87.24247
G01 X-107.85551 Y-87.27397
G01 X-107.90085 Y-87.29858
G01 X-107.98312 Y-87.32375
G01 X-108.05056 Y-87.32860
G01 X-107.98312 Y-87.32375
G01 X-107.90085 Y-87.29858
G01 X-107.85551 Y-87.27397
G01 X-107.80989 Y-87.23155
G01 X-107.88007 Y-87.30765
G01 X-107.98117 Y-87.32363
G01 X-108.05056 Y-87.32860
G01 X-108.14903 Y-87.32497
G01 X-108.19983 Y-87.31255
G01 X-108.27019 Y-87.27356
G01 X-108.20969 Y-87.30823
G01 X-108.17349 Y-87.32136
G01 X-108.21627 Y-87.31501
G01 X-108.32173 Y-87.22876
G01 X-112.38575 Y-83.16476
G01 X-112.43282 Y-83.11076
G01 X-112.45332 Y-83.07842
G01 X-112.47011 Y-83.04230
G01 X-112.48146 Y-82.99386
G01 X-112.48786 Y-82.90385
G01 X-112.48291 Y-82.85201
G01 X-112.46589 Y-82.80278
G01 X-112.42977 Y-82.73611
G01 X-112.47412 Y-82.82198
G01 X-112.48489 Y-82.86224
G01 X-112.48786 Y-82.89341
G01 X-112.48240 Y-82.98393
G01 X-112.47598 Y-83.02325
G01 X-112.46254 Y-83.06074
G01 X-112.43282 Y-83.11076
G01 X-112.45167 Y-83.08736
G01 X-112.52228 Y-82.97207
G01 X-112.54349 Y-82.92564
G01 X-112.47100 Y-82.79092
G01 X-112.38509 Y-82.68454
G01 X-112.11552 Y-82.41563
G01 X-112.05741 Y-82.36854
G01 X-111.96848 Y-82.33313
G01 X-111.91753 Y-82.32234
G01 X-111.86546 Y-82.32386
G01 X-111.78647 Y-82.33928
G01 X-111.86546 Y-82.32386
G01 X-111.91753 Y-82.32234
G01 X-111.96848 Y-82.33313
G01 X-112.05741 Y-82.36854
G01 X-111.98027 Y-82.31487
G01 X-111.92617 Y-82.28442
G01 X-111.79272 Y-82.33661
G01 X-111.69355 Y-82.38091
G01 X-111.60737 Y-82.40867
G01 X-111.53239 Y-82.42676
G01 X-111.40232 Y-82.43633
G01 X-110.34964 Y-82.43542
G01 X-110.26031 Y-82.42562
G01 X-110.15502 Y-82.39796
G01 X-110.10552 Y-82.38066
G01 X-109.96818 Y-82.30944
G01 X-109.84395 Y-82.20878
G01 X-109.74652 Y-82.09044
G01 X-109.68858 Y-81.98556
G01 X-109.65706 Y-81.91089
G01 X-109.62434 Y-81.78968
G01 X-109.61883 Y-81.74954
G01 X-109.61362 Y-81.65582
G01 X-109.61362 Y-81.26044
G01 X-109.60872 Y-81.18917
G01 X-109.59757 Y-81.14205
G01 X-109.58667 Y-81.11421
G01 X-109.56044 Y-81.07192
G01 X-109.50130 Y-81.00372
G01 X-109.47817 Y-80.98267
G01 X-109.42409 Y-80.95145
G01 X-109.34151 Y-80.92620
G01 X-109.43366 Y-80.95557
G01 X-109.46115 Y-80.97058
G01 X-109.49394 Y-80.99633
G01 X-109.55409 Y-81.06423
G01 X-109.57733 Y-81.09659
G01 X-109.59437 Y-81.13260
G01 X-109.60872 Y-81.18917
G01 X-109.60552 Y-81.15912
G01 X-109.57392 Y-81.02763
G01 X-109.55607 Y-80.97980
G01 X-109.40951 Y-80.93580
G01 X-109.34360 Y-80.92633
G01 X-109.27418 Y-80.92133
G01 X-106.65775 Y-80.92133
G01 X-106.58460 Y-80.92625
G01 X-106.52407 Y-80.94276
G01 X-106.47782 Y-80.96900
G01 X-106.41536 Y-81.01983
G01 X-106.39260 Y-81.04137
G01 X-106.36740 Y-81.07467
G01 X-106.34909 Y-81.11216
G01 X-106.32115 Y-81.19849
G01 X-106.31406 Y-81.23964
G01 X-106.31396 Y-81.27096
G01 X-106.32074 Y-81.31213
G01 X-106.34868 Y-81.40929
G01 X-106.44165 Y-81.56732
G01 X-106.52374 Y-81.77027
G01 X-106.57172 Y-81.98498
G01 X-106.57845 Y-82.08053
G01 X-106.60929 Y-82.10636
G01 X-106.57845 Y-82.08053
G01 X-105.81185 Y-82.08053
G01 X-105.80235 Y-82.09384
G01 X-105.81185 Y-82.08053
G01 X-105.78602 Y-81.97903
G01 X-105.73878 Y-81.87639
G01 X-105.66517 Y-81.77553
G01 X-105.58846 Y-81.70565
G01 X-105.54962 Y-81.67802
G01 X-105.44373 Y-81.62260
G01 X-105.33535 Y-81.59090
G01 X-105.22499 Y-81.58056
G01 X-103.97498 Y-81.58056
G01 X-103.85491 Y-81.59303
G01 X-103.78338 Y-81.61228
G01 X-103.70223 Y-81.64685
G01 X-103.60751 Y-81.70802
G01 X-103.54627 Y-81.76329
G01 X-103.48981 Y-81.83202
G01 X-103.43070 Y-81.93611
G01 X-103.39349 Y-82.05165
G01 X-103.38895 Y-82.08053
G01 X-103.39906 Y-82.09440
G01 X-103.38895 Y-82.08053
G01 X-102.62151 Y-82.08053
G01 X-102.62824 Y-81.98498
G01 X-102.67622 Y-81.77027
G01 X-102.75809 Y-81.56725
G01 X-102.87135 Y-81.37990
G01 X-103.01285 Y-81.21355
G01 X-103.20414 Y-81.05262
G01 X-103.24219 Y-81.01112
G01 X-103.28821 Y-80.94528
G01 X-103.31072 Y-80.89826
G01 X-103.32148 Y-80.84729
G01 X-103.32499 Y-80.76928
G01 X-103.32148 Y-80.84729
G01 X-103.31072 Y-80.89826
G01 X-103.28821 Y-80.94528
G01 X-103.24219 Y-81.01112
G01 X-103.20414 Y-81.05262
G01 X-103.01285 Y-81.21355
G01 X-102.87135 Y-81.37990
G01 X-102.75809 Y-81.56725
G01 X-102.67658 Y-81.77037
G01 X-102.62824 Y-81.98498
G01 X-102.62177 Y-82.07687
G01 X-102.59068 Y-82.10636
G01 X-102.62151 Y-82.08053
G01 X-102.59068 Y-82.10636
G01 X-102.52339 Y-82.17540
G01 X-102.54722 Y-82.15274
G01 X-103.45336 Y-82.15053
G01 X-103.46573 Y-82.16608
G01 X-103.45336 Y-82.15053
G01 X-103.46162 Y-82.08104
G01 X-103.49639 Y-81.96621
G01 X-103.55410 Y-81.86588
G01 X-103.60124 Y-81.81022
G01 X-103.64699 Y-81.76867
G01 X-103.72499 Y-81.71721
G01 X-103.79484 Y-81.68508
G01 X-103.86294 Y-81.66496
G01 X-103.97498 Y-81.65277
G01 X-105.22499 Y-81.65277
G01 X-105.31671 Y-81.66092
G01 X-105.42397 Y-81.69224
G01 X-105.51437 Y-81.74104
G01 X-105.54040 Y-81.75958
G01 X-105.61523 Y-81.82803
G01 X-105.67419 Y-81.90875
G01 X-105.71645 Y-81.99857
G01 X-105.74152 Y-82.10006
G01 X-105.74650 Y-82.15274
G01 X-105.73322 Y-82.16903
G01 X-105.74650 Y-82.15274
G01 X-106.65275 Y-82.15274
G01 X-106.67649 Y-82.17527
G01 X-106.65275 Y-82.15274
G01 X-106.64363 Y-81.97441
G01 X-106.59255 Y-81.74881
G01 X-106.50647 Y-81.53497
G01 X-106.41518 Y-81.38109
G01 X-106.38660 Y-81.27304
G01 X-106.38996 Y-81.22084
G01 X-106.42719 Y-81.11551
G01 X-106.46113 Y-81.07571
G01 X-106.52331 Y-81.02524
G01 X-106.54995 Y-81.01023
G01 X-106.57916 Y-81.00103
G01 X-106.65686 Y-80.98826
G01 X-109.28599 Y-80.98864
G01 X-109.38401 Y-81.01391
G01 X-109.42211 Y-81.03131
G01 X-109.44662 Y-81.05107
G01 X-109.49950 Y-81.11152
G01 X-109.52218 Y-81.14680
G01 X-109.53212 Y-81.17667
G01 X-109.54631 Y-81.24896
G01 X-109.54669 Y-81.70146
G01 X-109.55485 Y-81.80047
G01 X-109.60313 Y-81.96826
G01 X-109.68352 Y-82.12216
G01 X-109.79323 Y-82.25671
G01 X-109.92782 Y-82.36641
G01 X-110.08167 Y-82.44683
G01 X-110.24949 Y-82.49478
G01 X-110.34847 Y-82.50331
G01 X-111.45147 Y-82.50324
G01 X-111.55050 Y-82.49496
G01 X-111.71814 Y-82.44647
G01 X-111.79045 Y-82.41248
G01 X-111.87958 Y-82.39481
G01 X-111.92147 Y-82.39559
G01 X-112.02599 Y-82.43349
G01 X-112.05936 Y-82.45533
G01 X-112.34610 Y-82.74068
G01 X-112.39772 Y-82.82810
G01 X-112.40976 Y-82.85716
G01 X-112.41535 Y-82.88812
G01 X-112.40737 Y-82.99958
G01 X-112.39274 Y-83.03885
G01 X-112.33912 Y-83.11675
G01 X-108.27362 Y-87.18225
G01 X-108.25239 Y-87.19983
G01 X-108.17116 Y-87.24623
G01 X-108.14911 Y-87.25306
G01 X-108.09237 Y-87.26132
G01 X-108.02831 Y-87.26020
G01 X-107.93133 Y-87.23292
G01 X-107.89641 Y-87.21443
G01 X-107.84784 Y-87.17041
G01 X-107.79745 Y-87.10534
G01 X-107.64482 Y-86.95225
G01 X-107.46974 Y-86.82545
G01 X-107.27713 Y-86.72731
G01 X-107.07154 Y-86.66051
G01 X-106.85805 Y-86.62670
G01 X-106.64187 Y-86.62647
G01 X-106.42836 Y-86.66028
G01 X-106.22272 Y-86.72711
G01 X-106.03009 Y-86.82525
G01 X-105.85529 Y-86.95220
G01 X-105.13863 Y-87.67272
