( pcb2gcode 2.5.0 )
( Software-independent Gcode )
( This file uses a mill head of 1.00000mm to drill the 2 hole sizes. )
( Hole sizes: [0.8mm] [1mm] )

G94       (Millimeters per minute feed rate.)
G21       (Units == Millimeters.)
G91.1     (Incremental arc distance mode.)
G90       (Absolute coordinates.)
S24000    (RPM spindle speed.)

G01 F80.00000 (Feedrate)
G00 Z35.00000 (Retract to tool change height)
T1
M5        (Spindle stop.)
G04 P1.00000
(MSG, Change tool bit to drill size 1.00000mm)
M0        (Temporary machine stop.)
M3        (Spindle on clockwise.)
G04 P1.00000
G00 Z2.00000

G0 X-104.25000 Y-88.00000
G1 Z-2.50000 F40.00000
G1 Z2.00000 F40.00000

G0 X-106.75000 Y-88.00000
G1 Z-2.50000 F40.00000
G1 Z2.00000 F40.00000

G0 X-105.50000 Y-63.75000
G1 Z-2.50000 F40.00000
G1 Z2.00000 F40.00000

G0 X-108.00000 Y-63.75000
G1 Z-2.50000 F40.00000
G1 Z2.00000 F40.00000

G0 X-106.25000 Y-69.71000
G1 Z-2.50000 F40.00000
G1 Z2.00000 F40.00000

G0 X-106.25000 Y-72.25000
G1 Z-2.50000 F40.00000
G1 Z2.00000 F40.00000

G0 X-116.88500 Y-81.71000
G1 Z-2.50000 F40.00000
G1 Z2.00000 F40.00000

G0 X-119.42500 Y-81.71000
G1 Z-2.50000 F40.00000
G1 Z2.00000 F40.00000

G0 X-116.88500 Y-84.25000
G1 Z-2.50000 F40.00000
G1 Z2.00000 F40.00000

G0 X-119.42500 Y-84.25000
G1 Z-2.50000 F40.00000
G1 Z2.00000 F40.00000

G0 X-121.96500 Y-84.25000
G1 Z-2.50000 F40.00000
G1 Z2.00000 F40.00000

G0 X-124.50500 Y-84.25000
G1 Z-2.50000 F40.00000
G1 Z2.00000 F40.00000

G0 X-121.96500 Y-81.71000
G1 Z-2.50000 F40.00000
G1 Z2.00000 F40.00000

G0 X-124.50500 Y-81.71000
G1 Z-2.50000 F40.00000
G1 Z2.00000 F40.00000

G0 X-134.00000 Y-73.08000
G1 Z-2.50000 F40.00000
G1 Z2.00000 F40.00000

G0 X-134.00000 Y-70.54000
G1 Z-2.50000 F40.00000
G1 Z2.00000 F40.00000

G0 X-134.00000 Y-68.00000
G1 Z-2.50000 F40.00000
G1 Z2.00000 F40.00000

G00 Z35.000000 ( All done -- retract )

M5      (Spindle off.)
G04 P1.000000
M9      (Coolant off.)
M2      (Program end.)

