( pcb2gcode 2.5.0 )
( Software-independent Gcode )

G94 ( Millimeters per minute feed rate. )
G21 ( Units == Millimeters. )

G90 ( Absolute coordinates. )
G00 S24000 ( RPM spindle speed. )
G01 F80.00000 ( Feedrate. )


G00 Z35.00000 (Retract to tool change height)
T1
M5      (Spindle stop.)
G04 P1.00000 (Wait for spindle to stop)
(MSG, Change tool bit to cutter diameter 2.00000mm)
M0      (Temporary machine stop.)
M3 ( Spindle on clockwise. )
G04 P1.00000 (Wait for spindle to get up to speed)
G04 P0 ( dwell for no time -- G64 should not smooth over this point )
G00 Z2.00000 ( retract )

G00 X-98.49996 Y-92.24998 ( rapid move to begin. )
G01 Z-2.50000 F40.00000 ( plunge. )
G04 P0 ( dwell for no time -- G64 should not smooth over this point )
G01 F80.00000
G01 X-98.50001 Y-59.23978
G01 X-98.50745 Y-59.12790
G01 X-98.52736 Y-59.01753
G01 X-98.55949 Y-58.91009
G01 X-98.59899 Y-58.81609
G01 X-98.64786 Y-58.72660
G01 X-98.71182 Y-58.63450
G01 X-98.78568 Y-58.55012
G01 X-98.86066 Y-58.48104
G01 X-98.92546 Y-58.43148
G01 X-99.00290 Y-58.38226
G01 X-99.08456 Y-58.34035
G01 X-99.16008 Y-58.30951
G01 X-99.23788 Y-58.28495
G01 X-99.31740 Y-58.26679
G01 X-99.40828 Y-58.25419
G01 X-99.48977 Y-58.25002
G01 X-137.99998 Y-58.24997
G01 X-138.11194 Y-58.25627
G01 X-138.21253 Y-58.27283
G01 X-138.32060 Y-58.30278
G01 X-138.42464 Y-58.34464
G01 X-138.52334 Y-58.39788
G01 X-138.60737 Y-58.45559
G01 X-138.69251 Y-58.52861
G01 X-138.76891 Y-58.61068
G01 X-138.81847 Y-58.67547
G01 X-138.86769 Y-58.75292
G01 X-138.90960 Y-58.83458
G01 X-138.94044 Y-58.91009
G01 X-138.96500 Y-58.98789
G01 X-138.98316 Y-59.06742
G01 X-138.99576 Y-59.15830
G01 X-138.99993 Y-59.23978
G01 X-138.99998 Y-92.24998
G01 X-138.99368 Y-92.36194
G01 X-138.97712 Y-92.46253
G01 X-138.94717 Y-92.57060
G01 X-138.90531 Y-92.67464
G01 X-138.85207 Y-92.77335
G01 X-138.79436 Y-92.85737
G01 X-138.72134 Y-92.94251
G01 X-138.63927 Y-93.01891
G01 X-138.57448 Y-93.06847
G01 X-138.49703 Y-93.11770
G01 X-138.41537 Y-93.15961
G01 X-138.33986 Y-93.19044
G01 X-138.26206 Y-93.21500
G01 X-138.18253 Y-93.23316
G01 X-138.09165 Y-93.24576
G01 X-138.01016 Y-93.24993
G01 X-99.47956 Y-93.24975
G01 X-99.38799 Y-93.24368
G01 X-99.28741 Y-93.22712
G01 X-99.19871 Y-93.20352
G01 X-99.10318 Y-93.16789
G01 X-99.01179 Y-93.12272
G01 X-98.93384 Y-93.07429
G01 X-98.85284 Y-93.01236
G01 X-98.78568 Y-92.94983
G01 X-98.72454 Y-92.88140
G01 X-98.66427 Y-92.79915
G01 X-98.61271 Y-92.71122
G01 X-98.57415 Y-92.62793
G01 X-98.54339 Y-92.54147
G01 X-98.51868 Y-92.44256
G01 X-98.50417 Y-92.34165
G01 X-98.49996 Y-92.24998

G04 P0 ( dwell for no time -- G64 should not smooth over this point )
G00 Z35.000000 ( retract )

M5 ( Spindle off. )
G04 P1.000000
M9 ( Coolant off. )
M2 ( Program end. )

