(G-CODE GENERATED BY FLATCAM v2024.4 - www.flatcam.org - Version Date: 2024/04/15)

(Name: wled-esp01-controller-Edge_Cuts.gbr_cutout_cnc)
(Type: G-code from Geometry)
(Units: MM)

(Created on Wednesday, 31 December 2025 at 19:36)



G01 F120.00

M5
G00 Z15.0000
G00 X0.0000 Y0.0000
T1
M6    
(MSG, Change to Tool Dia = 2.4000)
M0
G00 Z15.0000

M03
G01 F120.00
G00 X-1.3250 Y13.4000
G01 F60.00
G01 Z-0.6000
G01 F120.00
G01 X-1.3250 Y0.0000
G01 X-1.3234 Y-0.0638
G01 X-1.3108 Y-0.1932
G01 X-1.2856 Y-0.3208
G01 X-1.2479 Y-0.4452
G01 X-1.1983 Y-0.5654
G01 X-1.1371 Y-0.6801
G01 X-1.0650 Y-0.7883
G01 X-0.9809 Y-0.8907
G01 X-0.8889 Y-0.9826
G01 X-0.7883 Y-1.0650
G01 X-0.6801 Y-1.1371
G01 X-0.5676 Y-1.1972
G01 X-0.4475 Y-1.2471
G01 X-0.3231 Y-1.2850
G01 X-0.1956 Y-1.3105
G01 X-0.0662 Y-1.3233
G01 X0.0000 Y-1.3250
G01 X16.1500 Y-1.3250
G00 X16.1500 Y-1.3250
G01 F60.00
G01 Z-1.2000
G01 F120.00
G01 X0.0000 Y-1.3250
G01 X-0.0662 Y-1.3233
G01 X-0.1956 Y-1.3105
G01 X-0.3231 Y-1.2850
G01 X-0.4475 Y-1.2471
G01 X-0.5676 Y-1.1972
G01 X-0.6801 Y-1.1371
G01 X-0.7883 Y-1.0650
G01 X-0.8889 Y-0.9826
G01 X-0.9809 Y-0.8907
G01 X-1.0650 Y-0.7883
G01 X-1.1371 Y-0.6801
G01 X-1.1983 Y-0.5654
G01 X-1.2479 Y-0.4452
G01 X-1.2856 Y-0.3208
G01 X-1.3108 Y-0.1932
G01 X-1.3234 Y-0.0638
G01 X-1.3250 Y0.0000
G01 X-1.3250 Y13.4000
G00 X-1.3250 Y13.4000
G01 F60.00
G01 Z-1.3000
G01 F120.00
G01 X-1.3250 Y0.0000
G01 X-1.3234 Y-0.0638
G01 X-1.3108 Y-0.1932
G01 X-1.2856 Y-0.3208
G01 X-1.2479 Y-0.4452
G01 X-1.1983 Y-0.5654
G01 X-1.1371 Y-0.6801
G01 X-1.0650 Y-0.7883
G01 X-0.9809 Y-0.8907
G01 X-0.8889 Y-0.9826
G01 X-0.7883 Y-1.0650
G01 X-0.6801 Y-1.1371
G01 X-0.5676 Y-1.1972
G01 X-0.4475 Y-1.2471
G01 X-0.3231 Y-1.2850
G01 X-0.1956 Y-1.3105
G01 X-0.0662 Y-1.3233
G01 X0.0000 Y-1.3250
G01 X16.1500 Y-1.3250
G00 Z2.0000
G00 X-1.3250 Y19.8000
G01 F60.00
G01 Z-0.6000
G01 F120.00
G01 X-1.3250 Y33.0000
G01 X-1.3234 Y33.0638
G01 X-1.3105 Y33.1956
G01 X-1.2850 Y33.3231
G01 X-1.2471 Y33.4475
G01 X-1.1972 Y33.5676
G01 X-1.1358 Y33.6822
G01 X-1.0635 Y33.7903
G01 X-0.9809 Y33.8907
G01 X-0.8889 Y33.9826
G01 X-0.7883 Y34.0650
G01 X-0.6801 Y34.1371
G01 X-0.5676 Y34.1972
G01 X-0.4475 Y34.2471
G01 X-0.3231 Y34.2850
G01 X-0.1956 Y34.3105
G01 X-0.0662 Y34.3233
G01 X0.0000 Y34.3250
G01 X16.1500 Y34.3250
G00 X16.1500 Y34.3250
G01 F60.00
G01 Z-1.2000
G01 F120.00
G01 X0.0000 Y34.3250
G01 X-0.0662 Y34.3233
G01 X-0.1956 Y34.3105
G01 X-0.3231 Y34.2850
G01 X-0.4475 Y34.2471
G01 X-0.5676 Y34.1972
G01 X-0.6801 Y34.1371
G01 X-0.7883 Y34.0650
G01 X-0.8889 Y33.9826
G01 X-0.9809 Y33.8907
G01 X-1.0635 Y33.7903
G01 X-1.1358 Y33.6822
G01 X-1.1972 Y33.5676
G01 X-1.2471 Y33.4475
G01 X-1.2850 Y33.3231
G01 X-1.3105 Y33.1956
G01 X-1.3234 Y33.0638
G01 X-1.3250 Y33.0000
G01 X-1.3250 Y19.8000
G00 X-1.3250 Y19.8000
G01 F60.00
G01 Z-1.3000
G01 F120.00
G01 X-1.3250 Y33.0000
G01 X-1.3234 Y33.0638
G01 X-1.3105 Y33.1956
G01 X-1.2850 Y33.3231
G01 X-1.2471 Y33.4475
G01 X-1.1972 Y33.5676
G01 X-1.1358 Y33.6822
G01 X-1.0635 Y33.7903
G01 X-0.9809 Y33.8907
G01 X-0.8889 Y33.9826
G01 X-0.7883 Y34.0650
G01 X-0.6801 Y34.1371
G01 X-0.5676 Y34.1972
G01 X-0.4475 Y34.2471
G01 X-0.3231 Y34.2850
G01 X-0.1956 Y34.3105
G01 X-0.0662 Y34.3233
G01 X0.0000 Y34.3250
G01 X16.1500 Y34.3250
G00 Z2.0000
G00 X22.5500 Y34.3250
G01 F60.00
G01 Z-0.6000
G01 F120.00
G01 X38.5000 Y34.3250
G01 X38.5662 Y34.3233
G01 X38.6956 Y34.3105
G01 X38.8231 Y34.2850
G01 X38.9475 Y34.2471
G01 X39.0676 Y34.1972
G01 X39.1801 Y34.1371
G01 X39.2883 Y34.0650
G01 X39.3889 Y33.9826
G01 X39.4809 Y33.8907
G01 X39.5650 Y33.7883
G01 X39.6371 Y33.6801
G01 X39.6983 Y33.5654
G01 X39.7479 Y33.4452
G01 X39.7856 Y33.3208
G01 X39.8108 Y33.1932
G01 X39.8234 Y33.0638
G01 X39.8250 Y33.0000
G01 X39.8250 Y19.8000
G00 X39.8250 Y19.8000
G01 F60.00
G01 Z-1.2000
G01 F120.00
G01 X39.8250 Y33.0000
G01 X39.8234 Y33.0638
G01 X39.8108 Y33.1932
G01 X39.7856 Y33.3208
G01 X39.7479 Y33.4452
G01 X39.6983 Y33.5654
G01 X39.6371 Y33.6801
G01 X39.5650 Y33.7883
G01 X39.4809 Y33.8907
G01 X39.3889 Y33.9826
G01 X39.2883 Y34.0650
G01 X39.1801 Y34.1371
G01 X39.0676 Y34.1972
G01 X38.9475 Y34.2471
G01 X38.8231 Y34.2850
G01 X38.6956 Y34.3105
G01 X38.5662 Y34.3233
G01 X38.5000 Y34.3250
G01 X22.5500 Y34.3250
G00 X22.5500 Y34.3250
G01 F60.00
G01 Z-1.3000
G01 F120.00
G01 X38.5000 Y34.3250
G01 X38.5662 Y34.3233
G01 X38.6956 Y34.3105
G01 X38.8231 Y34.2850
G01 X38.9475 Y34.2471
G01 X39.0676 Y34.1972
G01 X39.1801 Y34.1371
G01 X39.2883 Y34.0650
G01 X39.3889 Y33.9826
G01 X39.4809 Y33.8907
G01 X39.5650 Y33.7883
G01 X39.6371 Y33.6801
G01 X39.6983 Y33.5654
G01 X39.7479 Y33.4452
G01 X39.7856 Y33.3208
G01 X39.8108 Y33.1932
G01 X39.8234 Y33.0638
G01 X39.8250 Y33.0000
G01 X39.8250 Y19.8000
G00 Z2.0000
G00 X39.8250 Y13.4000
G01 F60.00
G01 Z-0.6000
G01 F120.00
G01 X39.8250 Y0.0000
G01 X39.8234 Y-0.0638
G01 X39.8105 Y-0.1956
G01 X39.7850 Y-0.3231
G01 X39.7471 Y-0.4475
G01 X39.6972 Y-0.5676
G01 X39.6358 Y-0.6822
G01 X39.5635 Y-0.7903
G01 X39.4809 Y-0.8907
G01 X39.3889 Y-0.9826
G01 X39.2883 Y-1.0650
G01 X39.1801 Y-1.1371
G01 X39.0654 Y-1.1983
G01 X38.9475 Y-1.2471
G01 X38.8231 Y-1.2850
G01 X38.6956 Y-1.3105
G01 X38.5662 Y-1.3233
G01 X38.5000 Y-1.3250
G01 X22.5500 Y-1.3250
G00 X22.5500 Y-1.3250
G01 F60.00
G01 Z-1.2000
G01 F120.00
G01 X38.5000 Y-1.3250
G01 X38.5662 Y-1.3233
G01 X38.6956 Y-1.3105
G01 X38.8231 Y-1.2850
G01 X38.9475 Y-1.2471
G01 X39.0654 Y-1.1983
G01 X39.1801 Y-1.1371
G01 X39.2883 Y-1.0650
G01 X39.3889 Y-0.9826
G01 X39.4809 Y-0.8907
G01 X39.5635 Y-0.7903
G01 X39.6358 Y-0.6822
G01 X39.6972 Y-0.5676
G01 X39.7471 Y-0.4475
G01 X39.7850 Y-0.3231
G01 X39.8105 Y-0.1956
G01 X39.8234 Y-0.0638
G01 X39.8250 Y0.0000
G01 X39.8250 Y13.4000
G00 X39.8250 Y13.4000
G01 F60.00
G01 Z-1.3000
G01 F120.00
G01 X39.8250 Y0.0000
G01 X39.8234 Y-0.0638
G01 X39.8105 Y-0.1956
G01 X39.7850 Y-0.3231
G01 X39.7471 Y-0.4475
G01 X39.6972 Y-0.5676
G01 X39.6358 Y-0.6822
G01 X39.5635 Y-0.7903
G01 X39.4809 Y-0.8907
G01 X39.3889 Y-0.9826
G01 X39.2883 Y-1.0650
G01 X39.1801 Y-1.1371
G01 X39.0654 Y-1.1983
G01 X38.9475 Y-1.2471
G01 X38.8231 Y-1.2850
G01 X38.6956 Y-1.3105
G01 X38.5662 Y-1.3233
G01 X38.5000 Y-1.3250
G01 X22.5500 Y-1.3250
G00 Z2.0000
M05
G00 Z2.0000
G00 Z15.00


