(G-CODE GENERATED BY FLATCAM v2024.4 - www.flatcam.org - Version Date: 2024/04/15)

(Name: wled-esp01-controller-B_Cu.gbr_iso_combined_cnc)
(Type: G-code from Geometry)
(Units: MM)

(Created on Wednesday, 31 December 2025 at 19:35)

(This preprocessor is the default preprocessor used by FlatCAM.)
(It is made to work with MACH3 compatible motion controllers.)

(TOOL DIAMETER: 0.1 mm)
(Feedrate_XY: 120.0 mm/min)
(Feedrate_Z: 60.0 mm/min)
(Feedrate rapids 1500.0 mm/min)

(Z_Cut: -0.1 mm)
(Z_Move: 2.0 mm)
(Z Start: None mm)
(Z End: 15.0 mm)
(X,Y End: None mm)
(Steps per circle: 64)
(Preprocessor Geometry: default)

(X range:   -0.3195 ...   38.8195  mm)
(Y range:   -0.3195 ...   33.3195  mm)

(Spindle Speed: 0.0 RPM)
G21
G90
G94

G01 F120.00

M5
G00 Z15.0000
G00 X0.0000 Y0.0000
T1
M6    
(MSG, Change to Tool Dia = 0.1000)
M0
G00 Z15.0000

M03
G01 F120.00
G00 X12.2510 Y8.1225
G01 F60.00
G01 Z-0.1000
G01 F120.00
G01 X12.2453 Y8.0113
G01 X12.2450 Y8.0000
G01 X12.2453 Y7.9887
G01 X12.2510 Y7.8775
G01 X12.2671 Y7.7673
G01 X12.2690 Y7.7561
G01 X12.2958 Y7.6480
G01 X12.2988 Y7.6371
G01 X12.3024 Y7.6264
G01 X12.3402 Y7.5216
G01 X12.3875 Y7.4208
G01 X12.3926 Y7.4108
G01 X12.3982 Y7.4009
G01 X12.4557 Y7.3055
G01 X12.5218 Y7.2159
G01 X12.5287 Y7.2070
G01 X12.5361 Y7.1985
G01 X12.6111 Y7.1161
G01 X12.6935 Y7.0411
G01 X12.7020 Y7.0337
G01 X12.7109 Y7.0268
G01 X12.8005 Y6.9607
G01 X12.8959 Y6.9032
G01 X12.9058 Y6.8976
G01 X12.9158 Y6.8925
G01 X13.0166 Y6.8452
G01 X13.0272 Y6.8411
G01 X13.1321 Y6.8038
G01 X13.2401 Y6.7765
G01 X13.2511 Y6.7740
G01 X13.2623 Y6.7721
G01 X13.3725 Y6.7560
G01 X13.4837 Y6.7503
G01 X13.4950 Y6.7500
G01 X13.5063 Y6.7503
G01 X13.6175 Y6.7560
G01 X13.7277 Y6.7721
G01 X13.7389 Y6.7740
G01 X13.7499 Y6.7765
G01 X13.8579 Y6.8038
G01 X13.9628 Y6.8411
G01 X13.9734 Y6.8452
G01 X13.9837 Y6.8497
G01 X14.0842 Y6.8976
G01 X14.1799 Y6.9546
G01 X14.1895 Y6.9607
G01 X14.1987 Y6.9672
G01 X14.2880 Y7.0337
G01 X14.2965 Y7.0411
G01 X14.3789 Y7.1161
G01 X14.4539 Y7.1985
G01 X14.4613 Y7.2070
G01 X14.4682 Y7.2159
G01 X14.5343 Y7.3055
G01 X14.5918 Y7.4009
G01 X14.5974 Y7.4108
G01 X14.6453 Y7.5113
G01 X14.6498 Y7.5216
G01 X14.6539 Y7.5322
G01 X14.6912 Y7.6371
G01 X14.6942 Y7.6480
G01 X14.7210 Y7.7561
G01 X14.7376 Y7.8663
G01 X14.7390 Y7.8775
G01 X14.7398 Y7.8887
G01 X14.7450 Y8.0000
G01 X14.7398 Y8.1113
G01 X14.7390 Y8.1225
G01 X14.7229 Y8.2327
G01 X14.7210 Y8.2439
G01 X14.7185 Y8.2549
G01 X14.6912 Y8.3629
G01 X14.6876 Y8.3736
G01 X14.6498 Y8.4784
G01 X14.6025 Y8.5792
G01 X14.5974 Y8.5892
G01 X14.5404 Y8.6849
G01 X14.5343 Y8.6945
G01 X14.5278 Y8.7037
G01 X14.4613 Y8.7930
G01 X14.3867 Y8.8757
G01 X14.3789 Y8.8839
G01 X14.3707 Y8.8917
G01 X14.2880 Y8.9663
G01 X14.1987 Y9.0328
G01 X14.1895 Y9.0393
G01 X14.1799 Y9.0454
G01 X14.0842 Y9.1024
G01 X13.9837 Y9.1503
G01 X13.9734 Y9.1548
G01 X13.8686 Y9.1926
G01 X13.8579 Y9.1962
G01 X13.8470 Y9.1992
G01 X13.7389 Y9.2260
G01 X13.6287 Y9.2426
G01 X13.6175 Y9.2440
G01 X13.6063 Y9.2448
G01 X13.4950 Y9.2500
G01 X13.3837 Y9.2448
G01 X13.3725 Y9.2440
G01 X13.2623 Y9.2279
G01 X13.2511 Y9.2260
G01 X13.2401 Y9.2235
G01 X13.1321 Y9.1962
G01 X13.1214 Y9.1926
G01 X13.0166 Y9.1548
G01 X12.9158 Y9.1075
G01 X12.9058 Y9.1024
G01 X12.8101 Y9.0454
G01 X12.8005 Y9.0393
G01 X12.7913 Y9.0328
G01 X12.7020 Y8.9663
G01 X12.6193 Y8.8917
G01 X12.6111 Y8.8839
G01 X12.6033 Y8.8757
G01 X12.5287 Y8.7930
G01 X12.4622 Y8.7037
G01 X12.4557 Y8.6945
G01 X12.4496 Y8.6849
G01 X12.3926 Y8.5892
G01 X12.3447 Y8.4887
G01 X12.3402 Y8.4784
G01 X12.3024 Y8.3736
G01 X12.2988 Y8.3629
G01 X12.2715 Y8.2549
G01 X12.2690 Y8.2439
G01 X12.2671 Y8.2327
G01 X12.2510 Y8.1225
G00 Z2.0000
G00 X12.3406 Y8.1137
G01 F60.00
G01 Z-0.1000
G01 F120.00
G01 X12.3350 Y8.0000
G01 X12.3406 Y7.8863
G01 X12.3573 Y7.7737
G01 X12.3849 Y7.6633
G01 X12.4233 Y7.5561
G01 X12.4720 Y7.4532
G01 X12.5305 Y7.3555
G01 X12.5983 Y7.2641
G01 X12.6748 Y7.1798
G01 X12.7591 Y7.1033
G01 X12.8505 Y7.0355
G01 X12.9482 Y6.9770
G01 X13.0511 Y6.9283
G01 X13.1583 Y6.8899
G01 X13.2687 Y6.8623
G01 X13.3813 Y6.8456
G01 X13.4950 Y6.8400
G01 X13.6087 Y6.8456
G01 X13.7213 Y6.8623
G01 X13.8317 Y6.8899
G01 X13.9389 Y6.9283
G01 X14.0418 Y6.9770
G01 X14.1395 Y7.0355
G01 X14.2309 Y7.1033
G01 X14.3152 Y7.1798
G01 X14.3917 Y7.2641
G01 X14.4595 Y7.3555
G01 X14.5180 Y7.4532
G01 X14.5667 Y7.5561
G01 X14.6051 Y7.6633
G01 X14.6327 Y7.7737
G01 X14.6494 Y7.8863
G01 X14.6550 Y8.0000
G01 X14.6494 Y8.1137
G01 X14.6327 Y8.2263
G01 X14.6051 Y8.3367
G01 X14.5667 Y8.4439
G01 X14.5180 Y8.5468
G01 X14.4595 Y8.6445
G01 X14.3917 Y8.7359
G01 X14.3152 Y8.8202
G01 X14.2309 Y8.8967
G01 X14.1395 Y8.9645
G01 X14.0418 Y9.0230
G01 X13.9389 Y9.0717
G01 X13.8317 Y9.1101
G01 X13.7213 Y9.1377
G01 X13.6087 Y9.1544
G01 X13.4950 Y9.1600
G01 X13.3813 Y9.1544
G01 X13.2687 Y9.1377
G01 X13.1583 Y9.1101
G01 X13.0511 Y9.0717
G01 X12.9482 Y9.0230
G01 X12.8505 Y8.9645
G01 X12.7591 Y8.8967
G01 X12.6748 Y8.8202
G01 X12.5983 Y8.7359
G01 X12.5305 Y8.6445
G01 X12.4720 Y8.5468
G01 X12.4233 Y8.4439
G01 X12.3849 Y8.3367
G01 X12.3573 Y8.2263
G01 X12.3406 Y8.1137
G00 Z2.0000
G00 X12.4302 Y8.1049
G01 F60.00
G01 Z-0.1000
G01 F120.00
G01 X12.4250 Y8.0000
G01 X12.4302 Y7.8951
G01 X12.4456 Y7.7913
G01 X12.4711 Y7.6894
G01 X12.5064 Y7.5905
G01 X12.5513 Y7.4956
G01 X12.6053 Y7.4055
G01 X12.6679 Y7.3212
G01 X12.7384 Y7.2434
G01 X12.8162 Y7.1729
G01 X12.9005 Y7.1103
G01 X12.9906 Y7.0563
G01 X13.0855 Y7.0114
G01 X13.1844 Y6.9761
G01 X13.2863 Y6.9506
G01 X13.3901 Y6.9352
G01 X13.4950 Y6.9300
G01 X13.5999 Y6.9352
G01 X13.7037 Y6.9506
G01 X13.8056 Y6.9761
G01 X13.9045 Y7.0114
G01 X13.9994 Y7.0563
G01 X14.0895 Y7.1103
G01 X14.1738 Y7.1729
G01 X14.2516 Y7.2434
G01 X14.3221 Y7.3212
G01 X14.3847 Y7.4055
G01 X14.4387 Y7.4956
G01 X14.4836 Y7.5905
G01 X14.5189 Y7.6894
G01 X14.5444 Y7.7913
G01 X14.5598 Y7.8951
G01 X14.5650 Y8.0000
G01 X14.5598 Y8.1049
G01 X14.5444 Y8.2087
G01 X14.5189 Y8.3106
G01 X14.4836 Y8.4095
G01 X14.4387 Y8.5044
G01 X14.3847 Y8.5945
G01 X14.3221 Y8.6788
G01 X14.2516 Y8.7566
G01 X14.1738 Y8.8271
G01 X14.0895 Y8.8897
G01 X13.9994 Y8.9437
G01 X13.9045 Y8.9886
G01 X13.8056 Y9.0239
G01 X13.7037 Y9.0494
G01 X13.5999 Y9.0648
G01 X13.4950 Y9.0700
G01 X13.3901 Y9.0648
G01 X13.2863 Y9.0494
G01 X13.1844 Y9.0239
G01 X13.0855 Y8.9886
G01 X12.9906 Y8.9437
G01 X12.9005 Y8.8897
G01 X12.8162 Y8.8271
G01 X12.7384 Y8.7566
G01 X12.6679 Y8.6788
G01 X12.6053 Y8.5945
G01 X12.5513 Y8.5044
G01 X12.5064 Y8.4095
G01 X12.4711 Y8.3106
G01 X12.4456 Y8.2087
G01 X12.4302 Y8.1049
G00 Z2.0000
G00 X12.3724 Y8.7312
G01 F60.00
G01 Z-0.1000
G01 F120.00
G01 X12.3808 Y8.7445
G01 X12.3899 Y8.7573
G01 X12.4495 Y8.8377
G01 X12.4592 Y8.8501
G01 X12.4694 Y8.8620
G01 X12.5366 Y8.9361
G01 X12.5475 Y8.9475
G01 X12.5589 Y8.9584
G01 X12.6330 Y9.0256
G01 X12.6449 Y9.0358
G01 X12.6573 Y9.0455
G01 X12.7377 Y9.1051
G01 X12.7505 Y9.1142
G01 X12.7638 Y9.1226
G01 X12.8564 Y9.1780
G01 X12.8703 Y9.1854
G01 X12.9010 Y9.2000
G01 X12.7410 Y9.2000
G01 X12.7175 Y9.2009
G01 X12.6940 Y9.2035
G01 X12.6709 Y9.2078
G01 X12.6557 Y9.2116
G01 X12.6332 Y9.2187
G01 X12.6113 Y9.2275
G01 X12.5971 Y9.2342
G01 X12.5833 Y9.2416
G01 X12.5698 Y9.2496
G01 X12.5567 Y9.2584
G01 X12.5380 Y9.2726
G01 X12.5203 Y9.2882
G01 X12.5092 Y9.2993
G01 X12.4987 Y9.3110
G01 X12.4840 Y9.3294
G01 X12.4706 Y9.3488
G01 X12.4626 Y9.3623
G01 X12.4517 Y9.3832
G01 X12.4454 Y9.3975
G01 X12.4372 Y9.4196
G01 X12.4306 Y9.4422
G01 X12.4271 Y9.4576
G01 X12.4234 Y9.4808
G01 X12.4219 Y9.4965
G01 X12.4210 Y9.5200
G01 X12.4210 Y9.9700
G01 X11.8610 Y9.9700
G01 X11.8610 Y9.4570
G01 X11.8649 Y9.4015
G01 X11.9030 Y9.2391
G01 X11.9689 Y9.0900
G01 X12.0611 Y8.9554
G01 X12.1767 Y8.8398
G01 X12.1900 Y8.8298
G01 X12.2155 Y8.8091
G01 X12.2321 Y8.7935
G01 X12.2476 Y8.7767
G01 X12.2618 Y8.7588
G01 X12.2747 Y8.7400
G01 X12.3148 Y8.6737
G01 X12.3259 Y8.6536
G01 X12.3724 Y8.7312
G00 Z2.0000
G00 X14.1126 Y9.1888
G01 F60.00
G01 Z-0.1000
G01 F120.00
G01 X14.1267 Y9.1818
G01 X14.1403 Y9.1740
G01 X14.2262 Y9.1226
G01 X14.2395 Y9.1142
G01 X14.2523 Y9.1051
G01 X14.3327 Y9.0455
G01 X14.3451 Y9.0358
G01 X14.3570 Y9.0256
G01 X14.4311 Y8.9584
G01 X14.4425 Y8.9475
G01 X14.4534 Y8.9361
G01 X14.5258 Y8.8561
G01 X14.5405 Y8.8377
G01 X14.6001 Y8.7573
G01 X14.6092 Y8.7445
G01 X14.6176 Y8.7312
G01 X14.6730 Y8.6386
G01 X14.6838 Y8.6176
G01 X14.7299 Y8.5200
G01 X14.7387 Y8.4981
G01 X14.7650 Y8.4245
G01 X14.7913 Y8.4981
G01 X14.7970 Y8.5128
G01 X14.8034 Y8.5272
G01 X14.8462 Y8.6176
G01 X14.8532 Y8.6317
G01 X14.8610 Y8.6453
G01 X14.9165 Y8.7379
G01 X14.9299 Y8.7573
G01 X14.9895 Y8.8377
G01 X14.9992 Y8.8501
G01 X15.0094 Y8.8620
G01 X15.0766 Y8.9361
G01 X15.0875 Y8.9475
G01 X15.0989 Y8.9584
G01 X15.1730 Y9.0256
G01 X15.1849 Y9.0358
G01 X15.1973 Y9.0455
G01 X15.2777 Y9.1051
G01 X15.2971 Y9.1185
G01 X15.3897 Y9.1740
G01 X15.4033 Y9.1818
G01 X15.4174 Y9.1888
G01 X15.5078 Y9.2316
G01 X15.5222 Y9.2380
G01 X15.5369 Y9.2437
G01 X15.6105 Y9.2700
G01 X15.5369 Y9.2963
G01 X15.5222 Y9.3020
G01 X15.5078 Y9.3084
G01 X15.4103 Y9.3546
G01 X15.3897 Y9.3660
G01 X15.3038 Y9.4174
G01 X15.2841 Y9.4303
G01 X15.1973 Y9.4945
G01 X15.1849 Y9.5042
G01 X15.1730 Y9.5144
G01 X15.0989 Y9.5816
G01 X15.0875 Y9.5925
G01 X15.0766 Y9.6039
G01 X15.0094 Y9.6780
G01 X14.9943 Y9.6960
G01 X14.9299 Y9.7827
G01 X14.9208 Y9.7955
G01 X14.9124 Y9.8088
G01 X14.8610 Y9.8947
G01 X14.8532 Y9.9083
G01 X14.8462 Y9.9224
G01 X14.8034 Y10.0128
G01 X14.7970 Y10.0272
G01 X14.7913 Y10.0419
G01 X14.7576 Y10.1361
G01 X14.7527 Y10.1510
G01 X14.7485 Y10.1662
G01 X14.7242 Y10.2633
G01 X14.7207 Y10.2786
G01 X14.7181 Y10.2941
G01 X14.7034 Y10.3931
G01 X14.7015 Y10.4087
G01 X14.7003 Y10.4243
G01 X14.6954 Y10.5243
G01 X14.6950 Y10.5400
G01 X14.6954 Y10.5557
G01 X14.7003 Y10.6557
G01 X14.7015 Y10.6713
G01 X14.7034 Y10.6869
G01 X14.7181 Y10.7859
G01 X14.7207 Y10.8014
G01 X14.7242 Y10.8167
G01 X14.7485 Y10.9138
G01 X14.7527 Y10.9290
G01 X14.7576 Y10.9439
G01 X14.7913 Y11.0381
G01 X14.7970 Y11.0528
G01 X14.8034 Y11.0672
G01 X14.8496 Y11.1647
G01 X14.8610 Y11.1853
G01 X14.9124 Y11.2712
G01 X14.9208 Y11.2845
G01 X14.9299 Y11.2973
G01 X14.9895 Y11.3777
G01 X14.9992 Y11.3901
G01 X15.0094 Y11.4020
G01 X15.0820 Y11.4819
G01 X15.0989 Y11.4984
G01 X15.1730 Y11.5656
G01 X15.1910 Y11.5807
G01 X15.2841 Y11.6497
G01 X15.2971 Y11.6585
G01 X15.3298 Y11.6782
G01 X15.3298 Y12.3153
G01 X15.3140 Y12.2987
G01 X15.3024 Y12.2878
G01 X15.2903 Y12.2776
G01 X15.2712 Y12.2633
G01 X15.2579 Y12.2546
G01 X15.2371 Y12.2428
G01 X15.2229 Y12.2358
G01 X15.2008 Y12.2267
G01 X15.1858 Y12.2216
G01 X15.1705 Y12.2171
G01 X15.1029 Y12.1994
G01 X15.0797 Y12.1943
G01 X15.0640 Y12.1918
G01 X15.0403 Y12.1895
G01 X15.0164 Y12.1890
G01 X14.9926 Y12.1903
G01 X14.9690 Y12.1934
G01 X14.9534 Y12.1964
G01 X14.9379 Y12.2002
G01 X14.9227 Y12.2047
G01 X14.8563 Y12.2264
G01 X14.8419 Y12.2314
G01 X14.8278 Y12.2372
G01 X14.8072 Y12.2470
G01 X14.7939 Y12.2544
G01 X14.7809 Y12.2624
G01 X14.6790 Y12.3321
G01 X14.5298 Y12.3980
G01 X14.3675 Y12.4361
G01 X14.3120 Y12.4400
G01 X14.0650 Y12.4400
G01 X14.0650 Y11.8800
G01 X14.2569 Y11.8799
G01 X14.2804 Y11.8785
G01 X14.2960 Y11.8765
G01 X14.3191 Y11.8722
G01 X14.3343 Y11.8684
G01 X14.3494 Y11.8638
G01 X14.3642 Y11.8586
G01 X14.3787 Y11.8525
G01 X14.3929 Y11.8458
G01 X14.4067 Y11.8384
G01 X14.4202 Y11.8304
G01 X14.4333 Y11.8216
G01 X14.4520 Y11.8074
G01 X14.4639 Y11.7971
G01 X14.4808 Y11.7807
G01 X14.4964 Y11.7630
G01 X14.5060 Y11.7506
G01 X14.5194 Y11.7312
G01 X14.5274 Y11.7177
G01 X14.5383 Y11.6968
G01 X14.5446 Y11.6825
G01 X14.5528 Y11.6604
G01 X14.5574 Y11.6453
G01 X14.5612 Y11.6301
G01 X14.5655 Y11.6070
G01 X14.5681 Y11.5835
G01 X14.5689 Y11.5679
G01 X14.5690 Y9.5200
G01 X14.5686 Y9.5043
G01 X14.5675 Y9.4886
G01 X14.5655 Y9.4730
G01 X14.5629 Y9.4576
G01 X14.5594 Y9.4422
G01 X14.5552 Y9.4271
G01 X14.5503 Y9.4122
G01 X14.5415 Y9.3903
G01 X14.5348 Y9.3761
G01 X14.5274 Y9.3623
G01 X14.5194 Y9.3488
G01 X14.5106 Y9.3357
G01 X14.4964 Y9.3170
G01 X14.4861 Y9.3051
G01 X14.4753 Y9.2937
G01 X14.4639 Y9.2829
G01 X14.4520 Y9.2726
G01 X14.4396 Y9.2630
G01 X14.4268 Y9.2539
G01 X14.4135 Y9.2455
G01 X14.3998 Y9.2378
G01 X14.3858 Y9.2307
G01 X14.3715 Y9.2244
G01 X14.3568 Y9.2187
G01 X14.3419 Y9.2138
G01 X14.3268 Y9.2096
G01 X14.3114 Y9.2061
G01 X14.2960 Y9.2035
G01 X14.2725 Y9.2009
G01 X14.2569 Y9.2001
G01 X14.0890 Y9.2000
G01 X14.1126 Y9.1888
G00 Z2.0000
G00 X14.8610 Y7.3547
G01 F60.00
G01 Z-0.1000
G01 F120.00
G01 X14.8532 Y7.3683
G01 X14.8462 Y7.3824
G01 X14.8001 Y7.4800
G01 X14.7913 Y7.5019
G01 X14.7650 Y7.5755
G01 X14.7387 Y7.5019
G01 X14.7299 Y7.4800
G01 X14.6838 Y7.3824
G01 X14.6768 Y7.3683
G01 X14.6712 Y7.3583
G01 X14.6891 Y7.3608
G01 X14.7050 Y7.3621
G01 X14.7209 Y7.3626
G01 X14.7447 Y7.3618
G01 X14.7684 Y7.3593
G01 X14.8376 Y7.3494
G01 X14.8532 Y7.3467
G01 X14.8676 Y7.3435
G01 X14.8610 Y7.3547
G00 Z2.0000
G00 X15.0687 Y7.2070
G01 F60.00
G01 Z-0.1000
G01 F120.00
G01 X15.1348 Y7.1337
G01 X15.1348 Y5.3300
G01 X14.9744 Y5.3299
G01 X14.9386 Y5.3282
G01 X14.9217 Y5.3263
G01 X14.8864 Y5.3208
G01 X14.8753 Y5.3183
G01 X14.8407 Y5.3093
G01 X14.8068 Y5.2975
G01 X14.7963 Y5.2935
G01 X14.7587 Y5.2759
G01 X14.7439 Y5.2678
G01 X14.7181 Y5.2522
G01 X14.7087 Y5.2459
G01 X14.6844 Y5.2280
G01 X14.6712 Y5.2174
G01 X14.6488 Y5.1972
G01 X14.6406 Y5.1894
G01 X14.6328 Y5.1812
G01 X14.6090 Y5.1545
G01 X14.6020 Y5.1456
G01 X14.5809 Y5.1167
G01 X14.5622 Y5.0861
G01 X14.5567 Y5.0763
G01 X14.5411 Y5.0440
G01 X14.5365 Y5.0337
G01 X14.5325 Y5.0232
G01 X14.5207 Y4.9893
G01 X14.5177 Y4.9785
G01 X14.5092 Y4.9436
G01 X14.5037 Y4.9083
G01 X14.5023 Y4.8970
G01 X14.5003 Y4.8613
G01 X14.5000 Y4.8500
G01 X14.5001 Y4.1444
G01 X14.5015 Y4.1142
G01 X14.5029 Y4.0973
G01 X14.5082 Y4.0619
G01 X14.5117 Y4.0453
G01 X14.5191 Y4.0161
G01 X14.5242 Y3.9999
G01 X14.5365 Y3.9663
G01 X14.5516 Y3.9338
G01 X14.5594 Y3.9188
G01 X14.5809 Y3.8833
G01 X14.6020 Y3.8544
G01 X14.6126 Y3.8412
G01 X14.6406 Y3.8106
G01 X14.6669 Y3.7863
G01 X14.6799 Y3.7754
G01 X14.7133 Y3.7509
G01 X14.7439 Y3.7322
G01 X14.7587 Y3.7241
G01 X14.7911 Y3.7088
G01 X14.8068 Y3.7025
G01 X14.8407 Y3.6907
G01 X14.8753 Y3.6817
G01 X14.8919 Y3.6782
G01 X14.9330 Y3.6723
G01 X14.9687 Y3.6703
G01 X14.9800 Y3.6700
G01 X16.5256 Y3.6701
G01 X16.5558 Y3.6715
G01 X16.5727 Y3.6729
G01 X16.6081 Y3.6782
G01 X16.6247 Y3.6817
G01 X16.6539 Y3.6891
G01 X16.6701 Y3.6942
G01 X16.7037 Y3.7065
G01 X16.7362 Y3.7216
G01 X16.7512 Y3.7294
G01 X16.7819 Y3.7478
G01 X16.7959 Y3.7574
G01 X16.8245 Y3.7790
G01 X16.8331 Y3.7863
G01 X16.8594 Y3.8106
G01 X16.8837 Y3.8369
G01 X16.8946 Y3.8499
G01 X16.9159 Y3.8787
G01 X16.9251 Y3.8929
G01 X16.9433 Y3.9237
G01 X16.9589 Y3.9560
G01 X16.9656 Y3.9716
G01 X16.9776 Y4.0053
G01 X16.9823 Y4.0215
G01 X16.9896 Y4.0508
G01 X16.9927 Y4.0675
G01 X16.9977 Y4.1030
G01 X16.9997 Y4.1387
G01 X17.0000 Y4.1500
G01 X17.0000 Y4.8500
G01 X16.9985 Y4.8858
G01 X16.9971 Y4.9027
G01 X16.9927 Y4.9325
G01 X16.9896 Y4.9492
G01 X16.9809 Y4.9839
G01 X16.9758 Y5.0001
G01 X16.9656 Y5.0284
G01 X16.9589 Y5.0440
G01 X16.9433 Y5.0763
G01 X16.9251 Y5.1071
G01 X16.9159 Y5.1213
G01 X16.8946 Y5.1501
G01 X16.8837 Y5.1631
G01 X16.8634 Y5.1854
G01 X16.8512 Y5.1972
G01 X16.8245 Y5.2210
G01 X16.7959 Y5.2426
G01 X16.7867 Y5.2491
G01 X16.7561 Y5.2678
G01 X16.7463 Y5.2733
G01 X16.7362 Y5.2784
G01 X16.7037 Y5.2935
G01 X16.6932 Y5.2975
G01 X16.6593 Y5.3093
G01 X16.6485 Y5.3123
G01 X16.6136 Y5.3208
G01 X16.5783 Y5.3263
G01 X16.5670 Y5.3277
G01 X16.5313 Y5.3297
G01 X16.5200 Y5.3300
G01 X16.3652 Y5.3300
G01 X16.3652 Y6.7954
G01 X16.3924 Y6.8023
G01 X16.4032 Y6.8055
G01 X16.5081 Y6.8431
G01 X16.5237 Y6.8497
G01 X16.6142 Y6.8925
G01 X16.6292 Y6.9003
G01 X16.7199 Y6.9546
G01 X16.7295 Y6.9607
G01 X16.7387 Y6.9672
G01 X16.8280 Y7.0337
G01 X16.8365 Y7.0411
G01 X16.9148 Y7.1122
G01 X16.9267 Y7.1243
G01 X17.0013 Y7.2070
G01 X17.0678 Y7.2963
G01 X17.0743 Y7.3055
G01 X17.0804 Y7.3151
G01 X17.1374 Y7.4108
G01 X17.1853 Y7.5113
G01 X17.1898 Y7.5216
G01 X17.1939 Y7.5322
G01 X17.2295 Y7.6318
G01 X17.2342 Y7.6480
G01 X17.2610 Y7.7561
G01 X17.2776 Y7.8663
G01 X17.2790 Y7.8775
G01 X17.2798 Y7.8887
G01 X17.2850 Y8.0000
G01 X17.2798 Y8.1113
G01 X17.2790 Y8.1225
G01 X17.2776 Y8.1337
G01 X17.2610 Y8.2439
G01 X17.2342 Y8.3520
G01 X17.2312 Y8.3629
G01 X17.2276 Y8.3736
G01 X17.1898 Y8.4784
G01 X17.1425 Y8.5792
G01 X17.1374 Y8.5892
G01 X17.1318 Y8.5991
G01 X17.0743 Y8.6945
G01 X17.0678 Y8.7037
G01 X17.0013 Y8.7930
G01 X16.9267 Y8.8757
G01 X16.9189 Y8.8839
G01 X16.9107 Y8.8917
G01 X16.8280 Y8.9663
G01 X16.7387 Y9.0328
G01 X16.7295 Y9.0393
G01 X16.6341 Y9.0968
G01 X16.6242 Y9.1024
G01 X16.6142 Y9.1075
G01 X16.5134 Y9.1548
G01 X16.4086 Y9.1926
G01 X16.3979 Y9.1962
G01 X16.3870 Y9.1992
G01 X16.2789 Y9.2260
G01 X16.1687 Y9.2426
G01 X16.1575 Y9.2440
G01 X16.1463 Y9.2448
G01 X16.0350 Y9.2500
G01 X15.9237 Y9.2448
G01 X15.9125 Y9.2440
G01 X15.8023 Y9.2279
G01 X15.7911 Y9.2260
G01 X15.7801 Y9.2235
G01 X15.6721 Y9.1962
G01 X15.6614 Y9.1926
G01 X15.5566 Y9.1548
G01 X15.4558 Y9.1075
G01 X15.4458 Y9.1024
G01 X15.3501 Y9.0454
G01 X15.3405 Y9.0393
G01 X15.3313 Y9.0328
G01 X15.2420 Y8.9663
G01 X15.1593 Y8.8917
G01 X15.1511 Y8.8839
G01 X15.1433 Y8.8757
G01 X15.0687 Y8.7930
G01 X15.0022 Y8.7037
G01 X14.9957 Y8.6945
G01 X14.9896 Y8.6849
G01 X14.9326 Y8.5892
G01 X14.8847 Y8.4887
G01 X14.8802 Y8.4784
G01 X14.8424 Y8.3736
G01 X14.8388 Y8.3629
G01 X14.8115 Y8.2549
G01 X14.8090 Y8.2439
G01 X14.8071 Y8.2327
G01 X14.7910 Y8.1225
G01 X14.7902 Y8.1113
G01 X14.7850 Y8.0000
G01 X14.7902 Y7.8887
G01 X14.7910 Y7.8775
G01 X14.7924 Y7.8663
G01 X14.8090 Y7.7561
G01 X14.8358 Y7.6480
G01 X14.8388 Y7.6371
G01 X14.8424 Y7.6264
G01 X14.8802 Y7.5216
G01 X14.9275 Y7.4208
G01 X14.9326 Y7.4108
G01 X14.9382 Y7.4009
G01 X14.9957 Y7.3055
G01 X15.0618 Y7.2159
G01 X15.0687 Y7.2070
G00 Z2.0000
G00 X15.2148 Y7.1798
G01 F60.00
G01 Z-0.1000
G01 F120.00
G01 X15.2248 Y7.1704
G01 X15.2248 Y5.2400
G01 X14.9800 Y5.2400
G01 X14.9452 Y5.2384
G01 X14.9350 Y5.2373
G01 X14.9107 Y5.2337
G01 X14.9006 Y5.2318
G01 X14.8668 Y5.2232
G01 X14.8372 Y5.2128
G01 X14.8245 Y5.2075
G01 X14.7992 Y5.1955
G01 X14.7902 Y5.1906
G01 X14.7691 Y5.1779
G01 X14.7605 Y5.1723
G01 X14.7353 Y5.1536
G01 X14.7274 Y5.1470
G01 X14.7042 Y5.1258
G01 X14.6830 Y5.1026
G01 X14.6764 Y5.0947
G01 X14.6597 Y5.0723
G01 X14.6539 Y5.0638
G01 X14.6377 Y5.0369
G01 X14.6330 Y5.0277
G01 X14.6210 Y5.0024
G01 X14.6172 Y4.9928
G01 X14.6068 Y4.9632
G01 X14.5990 Y4.9328
G01 X14.5963 Y4.9193
G01 X14.5919 Y4.8882
G01 X14.5900 Y4.8500
G01 X14.5900 Y4.1466
G01 X14.5919 Y4.1118
G01 X14.5975 Y4.0739
G01 X14.6068 Y4.0368
G01 X14.6172 Y4.0072
G01 X14.6210 Y3.9976
G01 X14.6361 Y3.9662
G01 X14.6521 Y3.9391
G01 X14.6597 Y3.9277
G01 X14.6785 Y3.9026
G01 X14.6995 Y3.8792
G01 X14.7092 Y3.8695
G01 X14.7326 Y3.8485
G01 X14.7577 Y3.8297
G01 X14.7691 Y3.8221
G01 X14.7962 Y3.8061
G01 X14.8245 Y3.7925
G01 X14.8372 Y3.7872
G01 X14.8668 Y3.7768
G01 X14.8972 Y3.7690
G01 X14.9107 Y3.7663
G01 X14.9418 Y3.7619
G01 X14.9800 Y3.7600
G01 X16.5234 Y3.7600
G01 X16.5582 Y3.7619
G01 X16.5961 Y3.7675
G01 X16.6332 Y3.7768
G01 X16.6628 Y3.7872
G01 X16.6724 Y3.7910
G01 X16.7008 Y3.8045
G01 X16.7098 Y3.8094
G01 X16.7367 Y3.8257
G01 X16.7620 Y3.8443
G01 X16.7726 Y3.8530
G01 X16.7958 Y3.8742
G01 X16.8215 Y3.9026
G01 X16.8443 Y3.9333
G01 X16.8606 Y3.9602
G01 X16.8670 Y3.9723
G01 X16.8803 Y4.0008
G01 X16.8911 Y4.0303
G01 X16.8942 Y4.0401
G01 X16.9018 Y4.0706
G01 X16.9037 Y4.0807
G01 X16.9081 Y4.1118
G01 X16.9100 Y4.1500
G01 X16.9100 Y4.8500
G01 X16.9086 Y4.8814
G01 X16.9077 Y4.8916
G01 X16.9031 Y4.9227
G01 X16.9010 Y4.9328
G01 X16.8932 Y4.9632
G01 X16.8828 Y4.9928
G01 X16.8775 Y5.0055
G01 X16.8639 Y5.0338
G01 X16.8443 Y5.0667
G01 X16.8215 Y5.0974
G01 X16.8005 Y5.1208
G01 X16.7908 Y5.1305
G01 X16.7674 Y5.1515
G01 X16.7423 Y5.1703
G01 X16.7338 Y5.1761
G01 X16.7069 Y5.1923
G01 X16.6977 Y5.1970
G01 X16.6692 Y5.2103
G01 X16.6332 Y5.2232
G01 X16.5961 Y5.2325
G01 X16.5582 Y5.2381
G01 X16.5200 Y5.2400
G01 X16.2752 Y5.2400
G01 X16.2752 Y6.8656
G01 X16.3717 Y6.8899
G01 X16.4725 Y6.9258
G01 X16.4852 Y6.9311
G01 X16.5818 Y6.9770
G01 X16.6737 Y7.0318
G01 X16.6851 Y7.0395
G01 X16.7709 Y7.1033
G01 X16.8503 Y7.1750
G01 X16.8600 Y7.1847
G01 X16.9317 Y7.2641
G01 X16.9955 Y7.3499
G01 X17.0032 Y7.3613
G01 X17.0580 Y7.4532
G01 X17.1039 Y7.5498
G01 X17.1092 Y7.5625
G01 X17.1451 Y7.6633
G01 X17.1727 Y7.7737
G01 X17.1886 Y7.8795
G01 X17.1899 Y7.8932
G01 X17.1950 Y8.0000
G01 X17.1899 Y8.1068
G01 X17.1886 Y8.1205
G01 X17.1727 Y8.2263
G01 X17.1469 Y8.3301
G01 X17.1429 Y8.3433
G01 X17.1067 Y8.4439
G01 X17.0611 Y8.5407
G01 X17.0546 Y8.5528
G01 X16.9995 Y8.6445
G01 X16.9359 Y8.7305
G01 X16.9272 Y8.7411
G01 X16.8552 Y8.8202
G01 X16.7709 Y8.8967
G01 X16.6795 Y8.9645
G01 X16.5818 Y9.0230
G01 X16.4789 Y9.0717
G01 X16.3717 Y9.1101
G01 X16.2613 Y9.1377
G01 X16.1487 Y9.1544
G01 X16.0350 Y9.1600
G01 X15.9213 Y9.1544
G01 X15.8087 Y9.1377
G01 X15.6983 Y9.1101
G01 X15.5911 Y9.0717
G01 X15.4882 Y9.0230
G01 X15.3905 Y8.9645
G01 X15.2991 Y8.8967
G01 X15.2148 Y8.8202
G01 X15.1383 Y8.7359
G01 X15.0705 Y8.6445
G01 X15.0120 Y8.5468
G01 X14.9633 Y8.4439
G01 X14.9249 Y8.3367
G01 X14.8973 Y8.2263
G01 X14.8806 Y8.1137
G01 X14.8750 Y8.0000
G01 X14.8806 Y7.8863
G01 X14.8973 Y7.7737
G01 X14.9249 Y7.6633
G01 X14.9633 Y7.5561
G01 X15.0120 Y7.4532
G01 X15.0705 Y7.3555
G01 X15.1383 Y7.2641
G01 X15.2148 Y7.1798
G00 Z2.0000
G00 X15.2784 Y7.2434
G01 F60.00
G01 Z-0.1000
G01 F120.00
G01 X15.3148 Y7.2103
G01 X15.3148 Y5.1500
G01 X14.9788 Y5.1500
G01 X14.9506 Y5.1486
G01 X14.9239 Y5.1447
G01 X14.8941 Y5.1374
G01 X14.8652 Y5.1272
G01 X14.8386 Y5.1146
G01 X14.8133 Y5.0994
G01 X14.7897 Y5.0819
G01 X14.7679 Y5.0621
G01 X14.7481 Y5.0403
G01 X14.7306 Y5.0167
G01 X14.7154 Y4.9914
G01 X14.7028 Y4.9648
G01 X14.6923 Y4.9347
G01 X14.6858 Y4.9085
G01 X14.6817 Y4.8818
G01 X14.6800 Y4.8512
G01 X14.6800 Y4.1488
G01 X14.6814 Y4.1206
G01 X14.6858 Y4.0915
G01 X14.6929 Y4.0629
G01 X14.7028 Y4.0352
G01 X14.7154 Y4.0086
G01 X14.7292 Y3.9854
G01 X14.7481 Y3.9597
G01 X14.7696 Y3.9362
G01 X14.7897 Y3.9181
G01 X14.8113 Y3.9020
G01 X14.8386 Y3.8854
G01 X14.8675 Y3.8720
G01 X14.8929 Y3.8629
G01 X14.9191 Y3.8563
G01 X14.9518 Y3.8513
G01 X14.9800 Y3.8500
G01 X16.5212 Y3.8500
G01 X16.5494 Y3.8514
G01 X16.5785 Y3.8558
G01 X16.6071 Y3.8629
G01 X16.6348 Y3.8728
G01 X16.6636 Y3.8866
G01 X16.6867 Y3.9006
G01 X16.7084 Y3.9166
G01 X16.7321 Y3.9379
G01 X16.7519 Y3.9597
G01 X16.7708 Y3.9854
G01 X16.7846 Y4.0086
G01 X16.7962 Y4.0330
G01 X16.8071 Y4.0629
G01 X16.8145 Y4.0927
G01 X16.8186 Y4.1206
G01 X16.8200 Y4.1500
G01 X16.8200 Y4.8500
G01 X16.8183 Y4.8818
G01 X16.8142 Y4.9085
G01 X16.8077 Y4.9347
G01 X16.7972 Y4.9648
G01 X16.7834 Y4.9936
G01 X16.7694 Y5.0167
G01 X16.7534 Y5.0384
G01 X16.7321 Y5.0621
G01 X16.7084 Y5.0834
G01 X16.6867 Y5.0994
G01 X16.6636 Y5.1134
G01 X16.6348 Y5.1272
G01 X16.6071 Y5.1371
G01 X16.5809 Y5.1437
G01 X16.5470 Y5.1487
G01 X16.5200 Y5.1500
G01 X16.1852 Y5.1500
G01 X16.1852 Y6.9418
G01 X16.2449 Y6.9508
G01 X16.3444 Y6.9757
G01 X16.4456 Y7.0119
G01 X16.5394 Y7.0563
G01 X16.6274 Y7.1090
G01 X16.7147 Y7.1737
G01 X16.7916 Y7.2434
G01 X16.8605 Y7.3193
G01 X16.9247 Y7.4055
G01 X16.9798 Y7.4978
G01 X17.0236 Y7.5905
G01 X17.0586 Y7.6882
G01 X17.0849 Y7.7937
G01 X17.0998 Y7.8951
G01 X17.1049 Y7.9975
G01 X17.0998 Y8.1049
G01 X17.0839 Y8.2111
G01 X17.0589 Y8.3106
G01 X17.0244 Y8.4072
G01 X16.9787 Y8.5044
G01 X16.9247 Y8.5945
G01 X16.8636 Y8.6769
G01 X16.7916 Y8.7566
G01 X16.7138 Y8.8271
G01 X16.6295 Y8.8897
G01 X16.5394 Y8.9437
G01 X16.4445 Y8.9886
G01 X16.3456 Y9.0239
G01 X16.2437 Y9.0494
G01 X16.1399 Y9.0648
G01 X16.0350 Y9.0700
G01 X15.9301 Y9.0648
G01 X15.8263 Y9.0494
G01 X15.7244 Y9.0239
G01 X15.6255 Y8.9886
G01 X15.5306 Y8.9437
G01 X15.4405 Y8.8897
G01 X15.3562 Y8.8271
G01 X15.2784 Y8.7566
G01 X15.2079 Y8.6788
G01 X15.1453 Y8.5945
G01 X15.0913 Y8.5044
G01 X15.0464 Y8.4095
G01 X15.0111 Y8.3106
G01 X14.9856 Y8.2087
G01 X14.9702 Y8.1049
G01 X14.9650 Y8.0000
G01 X14.9702 Y7.8951
G01 X14.9856 Y7.7913
G01 X15.0111 Y7.6894
G01 X15.0464 Y7.5905
G01 X15.0913 Y7.4956
G01 X15.1453 Y7.4055
G01 X15.2079 Y7.3212
G01 X15.2784 Y7.2434
G00 Z2.0000
G00 X16.5331 Y9.2437
G01 F60.00
G01 Z-0.1000
G01 F120.00
G01 X16.5478 Y9.2380
G01 X16.5622 Y9.2316
G01 X16.6526 Y9.1888
G01 X16.6667 Y9.1818
G01 X16.6803 Y9.1740
G01 X16.7662 Y9.1226
G01 X16.7795 Y9.1142
G01 X16.7923 Y9.1051
G01 X16.8727 Y9.0455
G01 X16.8851 Y9.0358
G01 X16.8970 Y9.0256
G01 X16.9711 Y8.9584
G01 X16.9880 Y8.9419
G01 X17.0606 Y8.8620
G01 X17.0708 Y8.8501
G01 X17.0805 Y8.8377
G01 X17.1401 Y8.7573
G01 X17.1492 Y8.7445
G01 X17.1576 Y8.7312
G01 X17.2090 Y8.6453
G01 X17.2168 Y8.6317
G01 X17.2238 Y8.6176
G01 X17.2666 Y8.5272
G01 X17.2730 Y8.5128
G01 X17.2787 Y8.4981
G01 X17.3050 Y8.4245
G01 X17.3313 Y8.4981
G01 X17.3370 Y8.5128
G01 X17.3434 Y8.5272
G01 X17.3862 Y8.6176
G01 X17.3932 Y8.6317
G01 X17.4010 Y8.6453
G01 X17.4565 Y8.7379
G01 X17.4699 Y8.7573
G01 X17.5295 Y8.8377
G01 X17.5392 Y8.8501
G01 X17.5494 Y8.8620
G01 X17.6166 Y8.9361
G01 X17.6275 Y8.9475
G01 X17.6389 Y8.9584
G01 X17.7130 Y9.0256
G01 X17.7249 Y9.0358
G01 X17.7373 Y9.0455
G01 X17.8177 Y9.1051
G01 X17.8371 Y9.1185
G01 X17.9297 Y9.1740
G01 X17.9433 Y9.1818
G01 X17.9574 Y9.1888
G01 X18.0478 Y9.2316
G01 X18.0622 Y9.2380
G01 X18.0769 Y9.2437
G01 X18.1505 Y9.2700
G01 X18.0769 Y9.2963
G01 X18.0622 Y9.3020
G01 X18.0478 Y9.3084
G01 X17.9574 Y9.3512
G01 X17.9433 Y9.3582
G01 X17.9297 Y9.3660
G01 X17.8371 Y9.4215
G01 X17.8177 Y9.4349
G01 X17.7373 Y9.4945
G01 X17.7249 Y9.5042
G01 X17.7130 Y9.5144
G01 X17.6389 Y9.5816
G01 X17.6275 Y9.5925
G01 X17.6166 Y9.6039
G01 X17.5494 Y9.6780
G01 X17.5392 Y9.6899
G01 X17.5295 Y9.7023
G01 X17.4699 Y9.7827
G01 X17.4565 Y9.8021
G01 X17.4010 Y9.8947
G01 X17.3932 Y9.9083
G01 X17.3862 Y9.9224
G01 X17.3434 Y10.0128
G01 X17.3370 Y10.0272
G01 X17.3313 Y10.0419
G01 X17.3050 Y10.1155
G01 X17.2787 Y10.0419
G01 X17.2699 Y10.0200
G01 X17.2238 Y9.9224
G01 X17.2130 Y9.9014
G01 X17.1576 Y9.8088
G01 X17.1492 Y9.7955
G01 X17.1401 Y9.7827
G01 X17.0805 Y9.7023
G01 X17.0708 Y9.6899
G01 X17.0606 Y9.6780
G01 X16.9934 Y9.6039
G01 X16.9825 Y9.5925
G01 X16.9711 Y9.5816
G01 X16.8970 Y9.5144
G01 X16.8851 Y9.5042
G01 X16.8727 Y9.4945
G01 X16.7923 Y9.4349
G01 X16.7795 Y9.4258
G01 X16.7662 Y9.4174
G01 X16.6803 Y9.3660
G01 X16.6667 Y9.3582
G01 X16.6526 Y9.3512
G01 X16.5622 Y9.3084
G01 X16.5478 Y9.3020
G01 X16.5331 Y9.2963
G01 X16.4595 Y9.2700
G01 X16.5331 Y9.2437
G00 Z2.0000
G00 X17.3310 Y10.6625
G01 F60.00
G01 Z-0.1000
G01 F120.00
G01 X17.3253 Y10.5513
G01 X17.3250 Y10.5400
G01 X17.3253 Y10.5287
G01 X17.3310 Y10.4175
G01 X17.3471 Y10.3073
G01 X17.3490 Y10.2961
G01 X17.3515 Y10.2851
G01 X17.3788 Y10.1771
G01 X17.3824 Y10.1664
G01 X17.4202 Y10.0616
G01 X17.4675 Y9.9608
G01 X17.4726 Y9.9508
G01 X17.5296 Y9.8551
G01 X17.5357 Y9.8455
G01 X17.6018 Y9.7559
G01 X17.6087 Y9.7470
G01 X17.6833 Y9.6643
G01 X17.6911 Y9.6561
G01 X17.6993 Y9.6483
G01 X17.7820 Y9.5737
G01 X17.8713 Y9.5072
G01 X17.8805 Y9.5007
G01 X17.9759 Y9.4432
G01 X17.9858 Y9.4376
G01 X17.9958 Y9.4325
G01 X18.0966 Y9.3852
G01 X18.2014 Y9.3474
G01 X18.2121 Y9.3438
G01 X18.2230 Y9.3408
G01 X18.3311 Y9.3140
G01 X18.4413 Y9.2974
G01 X18.4525 Y9.2960
G01 X18.4637 Y9.2952
G01 X18.5750 Y9.2900
G01 X18.6863 Y9.2952
G01 X18.6975 Y9.2960
G01 X18.8077 Y9.3121
G01 X18.8189 Y9.3140
G01 X18.8299 Y9.3165
G01 X18.9379 Y9.3438
G01 X19.0428 Y9.3811
G01 X19.0534 Y9.3852
G01 X19.0637 Y9.3897
G01 X19.1642 Y9.4376
G01 X19.2599 Y9.4946
G01 X19.2695 Y9.5007
G01 X19.3591 Y9.5668
G01 X19.3680 Y9.5737
G01 X19.3765 Y9.5811
G01 X19.4589 Y9.6561
G01 X19.4667 Y9.6643
G01 X19.5413 Y9.7470
G01 X19.6078 Y9.8363
G01 X19.6143 Y9.8455
G01 X19.6204 Y9.8551
G01 X19.6774 Y9.9508
G01 X19.7253 Y10.0513
G01 X19.7298 Y10.0616
G01 X19.7339 Y10.0722
G01 X19.7712 Y10.1771
G01 X19.7742 Y10.1880
G01 X19.8010 Y10.2961
G01 X19.8029 Y10.3073
G01 X19.8190 Y10.4175
G01 X19.8198 Y10.4287
G01 X19.8250 Y10.5400
G01 X19.8198 Y10.6513
G01 X19.8190 Y10.6625
G01 X19.8029 Y10.7727
G01 X19.8010 Y10.7839
G01 X19.7742 Y10.8920
G01 X19.7712 Y10.9029
G01 X19.7676 Y10.9136
G01 X19.7298 Y11.0184
G01 X19.6825 Y11.1192
G01 X19.6774 Y11.1292
G01 X19.6718 Y11.1391
G01 X19.6143 Y11.2345
G01 X19.6078 Y11.2437
G01 X19.5413 Y11.3330
G01 X19.4667 Y11.4157
G01 X19.4589 Y11.4239
G01 X19.4507 Y11.4317
G01 X19.3680 Y11.5063
G01 X19.2787 Y11.5728
G01 X19.2695 Y11.5793
G01 X19.1741 Y11.6368
G01 X19.1642 Y11.6424
G01 X19.1542 Y11.6475
G01 X19.0534 Y11.6948
G01 X18.9486 Y11.7326
G01 X18.9379 Y11.7362
G01 X18.9270 Y11.7392
G01 X18.8189 Y11.7660
G01 X18.7087 Y11.7826
G01 X18.6975 Y11.7840
G01 X18.6863 Y11.7848
G01 X18.5750 Y11.7900
G01 X18.4637 Y11.7848
G01 X18.4525 Y11.7840
G01 X18.3423 Y11.7679
G01 X18.3311 Y11.7660
G01 X18.2230 Y11.7392
G01 X18.2121 Y11.7362
G01 X18.2014 Y11.7326
G01 X18.0966 Y11.6948
G01 X18.0863 Y11.6903
G01 X17.9858 Y11.6424
G01 X17.8901 Y11.5854
G01 X17.8805 Y11.5793
G01 X17.7909 Y11.5132
G01 X17.7820 Y11.5063
G01 X17.7735 Y11.4989
G01 X17.6911 Y11.4239
G01 X17.6833 Y11.4157
G01 X17.6087 Y11.3330
G01 X17.5422 Y11.2437
G01 X17.5357 Y11.2345
G01 X17.5296 Y11.2249
G01 X17.4726 Y11.1292
G01 X17.4247 Y11.0287
G01 X17.4202 Y11.0184
G01 X17.4161 Y11.0078
G01 X17.3788 Y10.9029
G01 X17.3515 Y10.7949
G01 X17.3490 Y10.7839
G01 X17.3471 Y10.7727
G01 X17.3310 Y10.6625
G00 Z2.0000
G00 X17.4206 Y10.6537
G01 F60.00
G01 Z-0.1000
G01 F120.00
G01 X17.4150 Y10.5400
G01 X17.4206 Y10.4263
G01 X17.4373 Y10.3137
G01 X17.4649 Y10.2033
G01 X17.5033 Y10.0961
G01 X17.5520 Y9.9932
G01 X17.6105 Y9.8955
G01 X17.6783 Y9.8041
G01 X17.7548 Y9.7198
G01 X17.8391 Y9.6433
G01 X17.9305 Y9.5755
G01 X18.0282 Y9.5170
G01 X18.1311 Y9.4683
G01 X18.2383 Y9.4299
G01 X18.3487 Y9.4023
G01 X18.4613 Y9.3856
G01 X18.5750 Y9.3800
G01 X18.6887 Y9.3856
G01 X18.8013 Y9.4023
G01 X18.9117 Y9.4299
G01 X19.0189 Y9.4683
G01 X19.1218 Y9.5170
G01 X19.2195 Y9.5755
G01 X19.3109 Y9.6433
G01 X19.3952 Y9.7198
G01 X19.4717 Y9.8041
G01 X19.5395 Y9.8955
G01 X19.5980 Y9.9932
G01 X19.6467 Y10.0961
G01 X19.6851 Y10.2033
G01 X19.7127 Y10.3137
G01 X19.7294 Y10.4263
G01 X19.7350 Y10.5400
G01 X19.7294 Y10.6537
G01 X19.7127 Y10.7663
G01 X19.6851 Y10.8767
G01 X19.6467 Y10.9839
G01 X19.5980 Y11.0868
G01 X19.5395 Y11.1845
G01 X19.4717 Y11.2759
G01 X19.3952 Y11.3602
G01 X19.3109 Y11.4367
G01 X19.2195 Y11.5045
G01 X19.1218 Y11.5630
G01 X19.0189 Y11.6117
G01 X18.9117 Y11.6501
G01 X18.8013 Y11.6777
G01 X18.6887 Y11.6944
G01 X18.5750 Y11.7000
G01 X18.4613 Y11.6944
G01 X18.3487 Y11.6777
G01 X18.2383 Y11.6501
G01 X18.1311 Y11.6117
G01 X18.0282 Y11.5630
G01 X17.9305 Y11.5045
G01 X17.8391 Y11.4367
G01 X17.7548 Y11.3602
G01 X17.6783 Y11.2759
G01 X17.6105 Y11.1845
G01 X17.5520 Y11.0868
G01 X17.5033 Y10.9839
G01 X17.4649 Y10.8767
G01 X17.4373 Y10.7663
G01 X17.4206 Y10.6537
G00 Z2.0000
G00 X17.5102 Y10.6449
G01 F60.00
G01 Z-0.1000
G01 F120.00
G01 X17.5050 Y10.5400
G01 X17.5102 Y10.4351
G01 X17.5256 Y10.3313
G01 X17.5511 Y10.2294
G01 X17.5864 Y10.1305
G01 X17.6313 Y10.0356
G01 X17.6853 Y9.9455
G01 X17.7479 Y9.8612
G01 X17.8184 Y9.7834
G01 X17.8962 Y9.7129
G01 X17.9805 Y9.6503
G01 X18.0706 Y9.5963
G01 X18.1655 Y9.5514
G01 X18.2644 Y9.5161
G01 X18.3663 Y9.4906
G01 X18.4701 Y9.4752
G01 X18.5750 Y9.4700
G01 X18.6799 Y9.4752
G01 X18.7837 Y9.4906
G01 X18.8856 Y9.5161
G01 X18.9845 Y9.5514
G01 X19.0794 Y9.5963
G01 X19.1695 Y9.6503
G01 X19.2538 Y9.7129
G01 X19.3316 Y9.7834
G01 X19.4021 Y9.8612
G01 X19.4647 Y9.9455
G01 X19.5187 Y10.0356
G01 X19.5636 Y10.1305
G01 X19.5989 Y10.2294
G01 X19.6244 Y10.3313
G01 X19.6398 Y10.4351
G01 X19.6450 Y10.5400
G01 X19.6398 Y10.6449
G01 X19.6244 Y10.7487
G01 X19.5989 Y10.8506
G01 X19.5636 Y10.9495
G01 X19.5187 Y11.0444
G01 X19.4647 Y11.1345
G01 X19.4021 Y11.2188
G01 X19.3316 Y11.2966
G01 X19.2538 Y11.3671
G01 X19.1695 Y11.4297
G01 X19.0794 Y11.4837
G01 X18.9845 Y11.5286
G01 X18.8856 Y11.5639
G01 X18.7837 Y11.5894
G01 X18.6799 Y11.6048
G01 X18.5750 Y11.6100
G01 X18.4701 Y11.6048
G01 X18.3663 Y11.5894
G01 X18.2644 Y11.5639
G01 X18.1655 Y11.5286
G01 X18.0706 Y11.4837
G01 X17.9805 Y11.4297
G01 X17.8962 Y11.3671
G01 X17.8184 Y11.2966
G01 X17.7479 Y11.2188
G01 X17.6853 Y11.1345
G01 X17.6313 Y11.0444
G01 X17.5864 Y10.9495
G01 X17.5511 Y10.8506
G01 X17.5256 Y10.7487
G01 X17.5102 Y10.6449
G00 Z2.0000
G00 X19.0731 Y9.2437
G01 F60.00
G01 Z-0.1000
G01 F120.00
G01 X19.0878 Y9.2380
G01 X19.1022 Y9.2316
G01 X19.1926 Y9.1888
G01 X19.2067 Y9.1818
G01 X19.2203 Y9.1740
G01 X19.3062 Y9.1226
G01 X19.3195 Y9.1142
G01 X19.3323 Y9.1051
G01 X19.4127 Y9.0455
G01 X19.4251 Y9.0358
G01 X19.4370 Y9.0256
G01 X19.5111 Y8.9584
G01 X19.5280 Y8.9419
G01 X19.6006 Y8.8620
G01 X19.6108 Y8.8501
G01 X19.6205 Y8.8377
G01 X19.6801 Y8.7573
G01 X19.6892 Y8.7445
G01 X19.6976 Y8.7312
G01 X19.7490 Y8.6453
G01 X19.7568 Y8.6317
G01 X19.7638 Y8.6176
G01 X19.8066 Y8.5272
G01 X19.8130 Y8.5128
G01 X19.8187 Y8.4981
G01 X19.8450 Y8.4245
G01 X19.8713 Y8.4981
G01 X19.8770 Y8.5128
G01 X19.8834 Y8.5272
G01 X19.9262 Y8.6176
G01 X19.9332 Y8.6317
G01 X19.9410 Y8.6453
G01 X19.9965 Y8.7379
G01 X20.0099 Y8.7573
G01 X20.0695 Y8.8377
G01 X20.0792 Y8.8501
G01 X20.0894 Y8.8620
G01 X20.1566 Y8.9361
G01 X20.1675 Y8.9475
G01 X20.1789 Y8.9584
G01 X20.2530 Y9.0256
G01 X20.2649 Y9.0358
G01 X20.2773 Y9.0455
G01 X20.3577 Y9.1051
G01 X20.3771 Y9.1185
G01 X20.4697 Y9.1740
G01 X20.4833 Y9.1818
G01 X20.4974 Y9.1888
G01 X20.5878 Y9.2316
G01 X20.6022 Y9.2380
G01 X20.6169 Y9.2437
G01 X20.6905 Y9.2700
G01 X20.6169 Y9.2963
G01 X20.6022 Y9.3020
G01 X20.5878 Y9.3084
G01 X20.4974 Y9.3512
G01 X20.4833 Y9.3582
G01 X20.4697 Y9.3660
G01 X20.3771 Y9.4215
G01 X20.3577 Y9.4349
G01 X20.2773 Y9.4945
G01 X20.2649 Y9.5042
G01 X20.2530 Y9.5144
G01 X20.1789 Y9.5816
G01 X20.1675 Y9.5925
G01 X20.1566 Y9.6039
G01 X20.0894 Y9.6780
G01 X20.0792 Y9.6899
G01 X20.0695 Y9.7023
G01 X20.0099 Y9.7827
G01 X19.9965 Y9.8021
G01 X19.9410 Y9.8947
G01 X19.9332 Y9.9083
G01 X19.9262 Y9.9224
G01 X19.8834 Y10.0128
G01 X19.8770 Y10.0272
G01 X19.8713 Y10.0419
G01 X19.8450 Y10.1155
G01 X19.8187 Y10.0419
G01 X19.8099 Y10.0200
G01 X19.7638 Y9.9224
G01 X19.7530 Y9.9014
G01 X19.6976 Y9.8088
G01 X19.6892 Y9.7955
G01 X19.6801 Y9.7827
G01 X19.6205 Y9.7023
G01 X19.6108 Y9.6899
G01 X19.6006 Y9.6780
G01 X19.5334 Y9.6039
G01 X19.5225 Y9.5925
G01 X19.5111 Y9.5816
G01 X19.4370 Y9.5144
G01 X19.4251 Y9.5042
G01 X19.4127 Y9.4945
G01 X19.3323 Y9.4349
G01 X19.3195 Y9.4258
G01 X19.3062 Y9.4174
G01 X19.2203 Y9.3660
G01 X19.2067 Y9.3582
G01 X19.1926 Y9.3512
G01 X19.1022 Y9.3084
G01 X19.0878 Y9.3020
G01 X19.0731 Y9.2963
G01 X18.9995 Y9.2700
G01 X19.0731 Y9.2437
G00 Z2.0000
G00 X19.8710 Y10.6625
G01 F60.00
G01 Z-0.1000
G01 F120.00
G01 X19.8653 Y10.5513
G01 X19.8650 Y10.5400
G01 X19.8653 Y10.5287
G01 X19.8710 Y10.4175
G01 X19.8871 Y10.3073
G01 X19.8890 Y10.2961
G01 X19.8915 Y10.2851
G01 X19.9188 Y10.1771
G01 X19.9224 Y10.1664
G01 X19.9602 Y10.0616
G01 X20.0075 Y9.9608
G01 X20.0126 Y9.9508
G01 X20.0696 Y9.8551
G01 X20.0757 Y9.8455
G01 X20.1418 Y9.7559
G01 X20.1487 Y9.7470
G01 X20.2233 Y9.6643
G01 X20.2311 Y9.6561
G01 X20.2393 Y9.6483
G01 X20.3220 Y9.5737
G01 X20.4113 Y9.5072
G01 X20.4205 Y9.5007
G01 X20.5159 Y9.4432
G01 X20.5258 Y9.4376
G01 X20.5358 Y9.4325
G01 X20.6366 Y9.3852
G01 X20.7414 Y9.3474
G01 X20.7521 Y9.3438
G01 X20.7630 Y9.3408
G01 X20.8711 Y9.3140
G01 X20.9813 Y9.2974
G01 X20.9925 Y9.2960
G01 X21.0037 Y9.2952
G01 X21.1150 Y9.2900
G01 X21.2263 Y9.2952
G01 X21.2375 Y9.2960
G01 X21.3477 Y9.3121
G01 X21.3589 Y9.3140
G01 X21.3699 Y9.3165
G01 X21.4779 Y9.3438
G01 X21.5828 Y9.3811
G01 X21.5934 Y9.3852
G01 X21.6037 Y9.3897
G01 X21.7042 Y9.4376
G01 X21.7999 Y9.4946
G01 X21.8095 Y9.5007
G01 X21.8991 Y9.5668
G01 X21.9080 Y9.5737
G01 X21.9165 Y9.5811
G01 X21.9989 Y9.6561
G01 X22.0067 Y9.6643
G01 X22.0813 Y9.7470
G01 X22.1478 Y9.8363
G01 X22.1543 Y9.8455
G01 X22.1604 Y9.8551
G01 X22.2174 Y9.9508
G01 X22.2653 Y10.0513
G01 X22.2698 Y10.0616
G01 X22.2739 Y10.0722
G01 X22.3112 Y10.1771
G01 X22.3142 Y10.1880
G01 X22.3410 Y10.2961
G01 X22.3429 Y10.3073
G01 X22.3590 Y10.4175
G01 X22.3598 Y10.4287
G01 X22.3650 Y10.5400
G01 X22.3598 Y10.6513
G01 X22.3590 Y10.6625
G01 X22.3429 Y10.7727
G01 X22.3410 Y10.7839
G01 X22.3142 Y10.8920
G01 X22.3112 Y10.9029
G01 X22.3076 Y10.9136
G01 X22.2698 Y11.0184
G01 X22.2225 Y11.1192
G01 X22.2174 Y11.1292
G01 X22.2118 Y11.1391
G01 X22.1543 Y11.2345
G01 X22.1478 Y11.2437
G01 X22.0813 Y11.3330
G01 X22.0067 Y11.4157
G01 X21.9989 Y11.4239
G01 X21.9907 Y11.4317
G01 X21.9080 Y11.5063
G01 X21.8187 Y11.5728
G01 X21.8095 Y11.5793
G01 X21.7141 Y11.6368
G01 X21.7042 Y11.6424
G01 X21.6942 Y11.6475
G01 X21.5934 Y11.6948
G01 X21.4886 Y11.7326
G01 X21.4779 Y11.7362
G01 X21.4670 Y11.7392
G01 X21.3589 Y11.7660
G01 X21.2487 Y11.7826
G01 X21.2375 Y11.7840
G01 X21.2263 Y11.7848
G01 X21.1150 Y11.7900
G01 X21.0037 Y11.7848
G01 X20.9925 Y11.7840
G01 X20.8823 Y11.7679
G01 X20.8711 Y11.7660
G01 X20.8601 Y11.7635
G01 X20.7521 Y11.7362
G01 X20.6472 Y11.6989
G01 X20.6366 Y11.6948
G01 X20.6263 Y11.6903
G01 X20.5258 Y11.6424
G01 X20.4301 Y11.5854
G01 X20.4205 Y11.5793
G01 X20.3309 Y11.5132
G01 X20.3220 Y11.5063
G01 X20.3135 Y11.4989
G01 X20.2311 Y11.4239
G01 X20.2233 Y11.4157
G01 X20.1487 Y11.3330
G01 X20.0822 Y11.2437
G01 X20.0757 Y11.2345
G01 X20.0696 Y11.2249
G01 X20.0126 Y11.1292
G01 X19.9647 Y11.0287
G01 X19.9602 Y11.0184
G01 X19.9561 Y11.0078
G01 X19.9188 Y10.9029
G01 X19.8915 Y10.7949
G01 X19.8890 Y10.7839
G01 X19.8871 Y10.7727
G01 X19.8710 Y10.6625
G00 Z2.0000
G00 X19.9606 Y10.6537
G01 F60.00
G01 Z-0.1000
G01 F120.00
G01 X19.9550 Y10.5400
G01 X19.9606 Y10.4263
G01 X19.9773 Y10.3137
G01 X20.0049 Y10.2033
G01 X20.0433 Y10.0961
G01 X20.0920 Y9.9932
G01 X20.1505 Y9.8955
G01 X20.2183 Y9.8041
G01 X20.2948 Y9.7198
G01 X20.3791 Y9.6433
G01 X20.4705 Y9.5755
G01 X20.5682 Y9.5170
G01 X20.6711 Y9.4683
G01 X20.7783 Y9.4299
G01 X20.8887 Y9.4023
G01 X21.0013 Y9.3856
G01 X21.1150 Y9.3800
G01 X21.2287 Y9.3856
G01 X21.3413 Y9.4023
G01 X21.4517 Y9.4299
G01 X21.5589 Y9.4683
G01 X21.6618 Y9.5170
G01 X21.7595 Y9.5755
G01 X21.8509 Y9.6433
G01 X21.9352 Y9.7198
G01 X22.0117 Y9.8041
G01 X22.0795 Y9.8955
G01 X22.1380 Y9.9932
G01 X22.1867 Y10.0961
G01 X22.2251 Y10.2033
G01 X22.2527 Y10.3137
G01 X22.2694 Y10.4263
G01 X22.2750 Y10.5400
G01 X22.2694 Y10.6537
G01 X22.2527 Y10.7663
G01 X22.2251 Y10.8767
G01 X22.1867 Y10.9839
G01 X22.1380 Y11.0868
G01 X22.0795 Y11.1845
G01 X22.0117 Y11.2759
G01 X21.9352 Y11.3602
G01 X21.8509 Y11.4367
G01 X21.7595 Y11.5045
G01 X21.6618 Y11.5630
G01 X21.5589 Y11.6117
G01 X21.4517 Y11.6501
G01 X21.3413 Y11.6777
G01 X21.2287 Y11.6944
G01 X21.1150 Y11.7000
G01 X21.0013 Y11.6944
G01 X20.8887 Y11.6777
G01 X20.7783 Y11.6501
G01 X20.6711 Y11.6117
G01 X20.5682 Y11.5630
G01 X20.4705 Y11.5045
G01 X20.3791 Y11.4367
G01 X20.2948 Y11.3602
G01 X20.2183 Y11.2759
G01 X20.1505 Y11.1845
G01 X20.0920 Y11.0868
G01 X20.0433 Y10.9839
G01 X20.0049 Y10.8767
G01 X19.9773 Y10.7663
G01 X19.9606 Y10.6537
G00 Z2.0000
G00 X20.0502 Y10.6449
G01 F60.00
G01 Z-0.1000
G01 F120.00
G01 X20.0450 Y10.5400
G01 X20.0502 Y10.4351
G01 X20.0656 Y10.3313
G01 X20.0911 Y10.2294
G01 X20.1264 Y10.1305
G01 X20.1713 Y10.0356
G01 X20.2253 Y9.9455
G01 X20.2879 Y9.8612
G01 X20.3584 Y9.7834
G01 X20.4362 Y9.7129
G01 X20.5205 Y9.6503
G01 X20.6106 Y9.5963
G01 X20.7055 Y9.5514
G01 X20.8044 Y9.5161
G01 X20.9063 Y9.4906
G01 X21.0101 Y9.4752
G01 X21.1150 Y9.4700
G01 X21.2199 Y9.4752
G01 X21.3237 Y9.4906
G01 X21.4256 Y9.5161
G01 X21.5245 Y9.5514
G01 X21.6194 Y9.5963
G01 X21.7095 Y9.6503
G01 X21.7938 Y9.7129
G01 X21.8716 Y9.7834
G01 X21.9421 Y9.8612
G01 X22.0047 Y9.9455
G01 X22.0587 Y10.0356
G01 X22.1036 Y10.1305
G01 X22.1389 Y10.2294
G01 X22.1644 Y10.3313
G01 X22.1798 Y10.4351
G01 X22.1850 Y10.5400
G01 X22.1798 Y10.6449
G01 X22.1644 Y10.7487
G01 X22.1389 Y10.8506
G01 X22.1036 Y10.9495
G01 X22.0587 Y11.0444
G01 X22.0047 Y11.1345
G01 X21.9421 Y11.2188
G01 X21.8716 Y11.2966
G01 X21.7938 Y11.3671
G01 X21.7095 Y11.4297
G01 X21.6194 Y11.4837
G01 X21.5245 Y11.5286
G01 X21.4256 Y11.5639
G01 X21.3237 Y11.5894
G01 X21.2199 Y11.6048
G01 X21.1150 Y11.6100
G01 X21.0101 Y11.6048
G01 X20.9063 Y11.5894
G01 X20.8044 Y11.5639
G01 X20.7055 Y11.5286
G01 X20.6106 Y11.4837
G01 X20.5205 Y11.4297
G01 X20.4362 Y11.3671
G01 X20.3584 Y11.2966
G01 X20.2879 Y11.2188
G01 X20.2253 Y11.1345
G01 X20.1713 Y11.0444
G01 X20.1264 Y10.9495
G01 X20.0911 Y10.8506
G01 X20.0656 Y10.7487
G01 X20.0502 Y10.6449
G00 Z2.0000
G00 X21.6131 Y9.2437
G01 F60.00
G01 Z-0.1000
G01 F120.00
G01 X21.6278 Y9.2380
G01 X21.6422 Y9.2316
G01 X21.7326 Y9.1888
G01 X21.7467 Y9.1818
G01 X21.7603 Y9.1740
G01 X21.8462 Y9.1226
G01 X21.8595 Y9.1142
G01 X21.8723 Y9.1051
G01 X21.9527 Y9.0455
G01 X21.9651 Y9.0358
G01 X21.9770 Y9.0256
G01 X22.0511 Y8.9584
G01 X22.0625 Y8.9475
G01 X22.0734 Y8.9361
G01 X22.1458 Y8.8561
G01 X22.1605 Y8.8377
G01 X22.2247 Y8.7509
G01 X22.2335 Y8.7379
G01 X22.2532 Y8.7052
G01 X22.8079 Y8.7052
G01 X25.7800 Y11.6773
G01 X25.7800 Y12.3227
G01 X23.0579 Y15.0448
G01 X22.9200 Y15.0448
G01 X22.9199 Y14.9721
G01 X22.9184 Y14.9398
G01 X22.9173 Y14.9241
G01 X22.9117 Y14.8843
G01 X22.9090 Y14.8688
G01 X22.8996 Y14.8297
G01 X22.8955 Y14.8145
G01 X22.8905 Y14.7996
G01 X22.8795 Y14.7692
G01 X22.8735 Y14.7547
G01 X22.8598 Y14.7253
G01 X22.8527 Y14.7113
G01 X22.8323 Y14.6766
G01 X22.8239 Y14.6633
G01 X22.8149 Y14.6505
G01 X22.7906 Y14.6184
G01 X22.7639 Y14.5883
G01 X22.7531 Y14.5769
G01 X22.7417 Y14.5661
G01 X22.7116 Y14.5394
G01 X22.6992 Y14.5297
G01 X22.6732 Y14.5105
G01 X22.6601 Y14.5018
G01 X22.6256 Y14.4811
G01 X22.6117 Y14.4737
G01 X22.5825 Y14.4598
G01 X22.5608 Y14.4505
G01 X22.5304 Y14.4395
G01 X22.5155 Y14.4345
G01 X22.5003 Y14.4304
G01 X22.4612 Y14.4210
G01 X22.4215 Y14.4147
G01 X22.3980 Y14.4121
G01 X22.3579 Y14.4101
G01 X21.6500 Y14.4100
G01 X21.6098 Y14.4116
G01 X21.5863 Y14.4136
G01 X21.5543 Y14.4183
G01 X21.5388 Y14.4210
G01 X21.5235 Y14.4244
G01 X21.4845 Y14.4345
G01 X21.4696 Y14.4395
G01 X21.4319 Y14.4534
G01 X21.4175 Y14.4598
G01 X21.3883 Y14.4737
G01 X21.3744 Y14.4811
G01 X21.3399 Y14.5018
G01 X21.3268 Y14.5105
G01 X21.3008 Y14.5297
G01 X21.2824 Y14.5444
G01 X21.2583 Y14.5661
G01 X21.2469 Y14.5769
G01 X21.2361 Y14.5883
G01 X21.2094 Y14.6184
G01 X21.1997 Y14.6308
G01 X21.1761 Y14.6633
G01 X21.1550 Y14.6976
G01 X21.1473 Y14.7113
G01 X21.1402 Y14.7253
G01 X21.1265 Y14.7547
G01 X21.1205 Y14.7692
G01 X21.1095 Y14.7996
G01 X21.1045 Y14.8145
G01 X21.1004 Y14.8297
G01 X21.0926 Y14.8611
G01 X21.0895 Y14.8765
G01 X21.0836 Y14.9163
G01 X21.0821 Y14.9320
G01 X21.0804 Y14.9643
G01 X21.0800 Y14.9800
G01 X21.0800 Y16.5200
G01 X21.0804 Y16.5357
G01 X21.0827 Y16.5759
G01 X21.0847 Y16.5915
G01 X21.0895 Y16.6235
G01 X21.0944 Y16.6465
G01 X21.1045 Y16.6855
G01 X21.1177 Y16.7235
G01 X21.1234 Y16.7381
G01 X21.1298 Y16.7525
G01 X21.1437 Y16.7817
G01 X21.1550 Y16.8024
G01 X21.1761 Y16.8367
G01 X21.1997 Y16.8692
G01 X21.2094 Y16.8816
G01 X21.2196 Y16.8935
G01 X21.2469 Y16.9231
G01 X21.2765 Y16.9504
G01 X21.2945 Y16.9655
G01 X21.3205 Y16.9849
G01 X21.3333 Y16.9939
G01 X21.3466 Y17.0023
G01 X21.3744 Y17.0189
G01 X21.3953 Y17.0298
G01 X21.4319 Y17.0466
G01 X21.4465 Y17.0523
G01 X21.4771 Y17.0631
G01 X21.4921 Y17.0676
G01 X21.5235 Y17.0756
G01 X21.5465 Y17.0805
G01 X21.5785 Y17.0853
G01 X21.5941 Y17.0873
G01 X21.6098 Y17.0884
G01 X21.6421 Y17.0899
G01 X22.3500 Y17.0900
G01 X22.3657 Y17.0896
G01 X22.4059 Y17.0873
G01 X22.4457 Y17.0817
G01 X22.4612 Y17.0790
G01 X22.4765 Y17.0756
G01 X22.5079 Y17.0676
G01 X22.5229 Y17.0631
G01 X22.5535 Y17.0523
G01 X22.5681 Y17.0466
G01 X22.5825 Y17.0402
G01 X22.6187 Y17.0227
G01 X22.6324 Y17.0150
G01 X22.6667 Y16.9939
G01 X22.6992 Y16.9703
G01 X22.7116 Y16.9606
G01 X22.7235 Y16.9504
G01 X22.7474 Y16.9285
G01 X22.7585 Y16.9174
G01 X22.7804 Y16.8935
G01 X22.7906 Y16.8816
G01 X22.8003 Y16.8692
G01 X22.8239 Y16.8367
G01 X22.8450 Y16.8024
G01 X22.8527 Y16.7887
G01 X22.8598 Y16.7747
G01 X22.8735 Y16.7453
G01 X22.8795 Y16.7308
G01 X22.8905 Y16.7004
G01 X22.8955 Y16.6855
G01 X22.8996 Y16.6703
G01 X22.9090 Y16.6312
G01 X22.9117 Y16.6157
G01 X22.9173 Y16.5759
G01 X22.9184 Y16.5602
G01 X22.9199 Y16.5279
G01 X22.9200 Y16.4552
G01 X23.3500 Y16.4552
G01 X23.3657 Y16.4548
G01 X23.4113 Y16.4525
G01 X23.4347 Y16.4499
G01 X23.4721 Y16.4443
G01 X23.4876 Y16.4416
G01 X23.5029 Y16.4382
G01 X23.5396 Y16.4290
G01 X23.5622 Y16.4225
G01 X23.6052 Y16.4072
G01 X23.6271 Y16.3984
G01 X23.6755 Y16.3755
G01 X23.6961 Y16.3642
G01 X23.7285 Y16.3447
G01 X23.7418 Y16.3363
G01 X23.7546 Y16.3273
G01 X23.7850 Y16.3048
G01 X23.7974 Y16.2951
G01 X23.8093 Y16.2849
G01 X23.8373 Y16.2595
G01 X23.8486 Y16.2486
G01 X26.0710 Y14.0263
G01 X26.0859 Y14.0388
G01 X26.1380 Y14.0774
G01 X26.1577 Y14.0902
G01 X26.1998 Y14.1154
G01 X26.2204 Y14.1268
G01 X26.2718 Y14.1512
G01 X26.2862 Y14.1576
G01 X26.3009 Y14.1632
G01 X26.3471 Y14.1798
G01 X26.3620 Y14.1847
G01 X26.3771 Y14.1889
G01 X26.4247 Y14.2008
G01 X26.4400 Y14.2042
G01 X26.4555 Y14.2069
G01 X26.5040 Y14.2141
G01 X26.5196 Y14.2161
G01 X26.5353 Y14.2172
G01 X26.5921 Y14.2199
G01 X27.6000 Y14.2200
G01 X27.6157 Y14.2196
G01 X27.6647 Y14.2172
G01 X27.6804 Y14.2161
G01 X27.6960 Y14.2141
G01 X27.7445 Y14.2069
G01 X27.7600 Y14.2042
G01 X27.7753 Y14.2008
G01 X27.8229 Y14.1889
G01 X27.8380 Y14.1847
G01 X27.8529 Y14.1798
G01 X27.8991 Y14.1632
G01 X27.9138 Y14.1576
G01 X27.9282 Y14.1512
G01 X27.9725 Y14.1302
G01 X27.9934 Y14.1194
G01 X28.0490 Y14.0861
G01 X28.0684 Y14.0728
G01 X28.1141 Y14.0388
G01 X28.1321 Y14.0236
G01 X28.1685 Y13.9907
G01 X28.1798 Y13.9798
G01 X28.1907 Y13.9685
G01 X28.2288 Y13.9262
G01 X28.2435 Y13.9078
G01 X28.2728 Y13.8684
G01 X28.2861 Y13.8490
G01 X28.3154 Y13.8002
G01 X28.3268 Y13.7796
G01 X28.3512 Y13.7282
G01 X28.3576 Y13.7138
G01 X28.3632 Y13.6991
G01 X28.3798 Y13.6529
G01 X28.3869 Y13.6305
G01 X28.4026 Y13.5677
G01 X28.4069 Y13.5445
G01 X28.4141 Y13.4960
G01 X28.4161 Y13.4804
G01 X28.4172 Y13.4647
G01 X28.4199 Y13.4079
G01 X28.4200 Y12.7052
G01 X32.1635 Y12.7052
G01 X32.1887 Y12.7479
G01 X32.1971 Y12.7611
G01 X32.2062 Y12.7740
G01 X32.2281 Y12.8035
G01 X32.2378 Y12.8159
G01 X32.2480 Y12.8278
G01 X32.2727 Y12.8551
G01 X32.2836 Y12.8664
G01 X32.2949 Y12.8773
G01 X32.3222 Y12.9020
G01 X32.3341 Y12.9122
G01 X32.3465 Y12.9219
G01 X32.3760 Y12.9438
G01 X32.3889 Y12.9529
G01 X32.4021 Y12.9613
G01 X32.4337 Y12.9802
G01 X32.4474 Y12.9879
G01 X32.4614 Y12.9950
G01 X32.4947 Y13.0107
G01 X32.5090 Y13.0171
G01 X32.5237 Y13.0227
G01 X32.5583 Y13.0351
G01 X32.5808 Y13.0423
G01 X32.6241 Y13.0532
G01 X32.6394 Y13.0566
G01 X32.6549 Y13.0593
G01 X32.6913 Y13.0647
G01 X32.7147 Y13.0673
G01 X32.7671 Y13.0699
G01 X34.0250 Y13.0700
G01 X34.0407 Y13.0696
G01 X34.0853 Y13.0673
G01 X34.1087 Y13.0647
G01 X34.1451 Y13.0593
G01 X34.1606 Y13.0566
G01 X34.1759 Y13.0532
G01 X34.2116 Y13.0443
G01 X34.2260 Y13.0403
G01 X34.2216 Y13.0601
G01 X34.2180 Y13.0837
G01 X34.2166 Y13.0995
G01 X34.2160 Y13.1234
G01 X34.2188 Y13.2011
G01 X34.2198 Y13.2170
G01 X34.2227 Y13.2406
G01 X34.2265 Y13.2599
G01 X34.2116 Y13.2557
G01 X34.1759 Y13.2468
G01 X34.1606 Y13.2434
G01 X34.1451 Y13.2407
G01 X34.1087 Y13.2353
G01 X34.0853 Y13.2327
G01 X34.0407 Y13.2304
G01 X34.0250 Y13.2300
G01 X32.7750 Y13.2300
G01 X32.7593 Y13.2304
G01 X32.7225 Y13.2322
G01 X32.7069 Y13.2333
G01 X32.6913 Y13.2353
G01 X32.6549 Y13.2407
G01 X32.6317 Y13.2450
G01 X32.5808 Y13.2577
G01 X32.5583 Y13.2649
G01 X32.5237 Y13.2773
G01 X32.5090 Y13.2829
G01 X32.4947 Y13.2893
G01 X32.4614 Y13.3050
G01 X32.4474 Y13.3121
G01 X32.4337 Y13.3198
G01 X32.4021 Y13.3387
G01 X32.3824 Y13.3516
G01 X32.3402 Y13.3829
G01 X32.3222 Y13.3980
G01 X32.2949 Y13.4227
G01 X32.2836 Y13.4336
G01 X32.2727 Y13.4449
G01 X32.2480 Y13.4722
G01 X32.2329 Y13.4902
G01 X32.2016 Y13.5324
G01 X32.1887 Y13.5521
G01 X32.1635 Y13.5948
G01 X31.2000 Y13.5948
G01 X31.1843 Y13.5952
G01 X31.1387 Y13.5975
G01 X31.1153 Y13.6001
G01 X31.0779 Y13.6057
G01 X31.0624 Y13.6084
G01 X31.0471 Y13.6118
G01 X31.0104 Y13.6210
G01 X30.9953 Y13.6252
G01 X30.9804 Y13.6301
G01 X30.9448 Y13.6428
G01 X30.9301 Y13.6485
G01 X30.9158 Y13.6549
G01 X30.8816 Y13.6710
G01 X30.8676 Y13.6781
G01 X30.8539 Y13.6858
G01 X30.8148 Y13.7094
G01 X30.7954 Y13.7227
G01 X30.7650 Y13.7452
G01 X30.7526 Y13.7549
G01 X30.7407 Y13.7651
G01 X30.7127 Y13.7905
G01 X30.7014 Y13.8014
G01 X26.2114 Y18.2914
G01 X26.2005 Y18.3027
G01 X26.1751 Y18.3307
G01 X26.1649 Y18.3426
G01 X26.1552 Y18.3550
G01 X26.1281 Y18.3917
G01 X26.1194 Y18.4048
G01 X26.0958 Y18.4439
G01 X26.0881 Y18.4576
G01 X26.0810 Y18.4716
G01 X26.0649 Y18.5058
G01 X26.0585 Y18.5201
G01 X26.0528 Y18.5348
G01 X26.0375 Y18.5778
G01 X26.0330 Y18.5928
G01 X26.0218 Y18.6371
G01 X26.0169 Y18.6601
G01 X26.0101 Y18.7053
G01 X26.0082 Y18.7209
G01 X26.0070 Y18.7365
G01 X26.0052 Y18.7743
G01 X26.0048 Y18.7900
G01 X26.0048 Y21.5449
G01 X25.9481 Y21.5869
G01 X25.9358 Y21.5966
G01 X25.9239 Y21.6068
G01 X25.8584 Y21.6662
G01 X25.8415 Y21.6826
G01 X25.7768 Y21.7539
G01 X25.7666 Y21.7658
G01 X25.7569 Y21.7781
G01 X25.7043 Y21.8491
G01 X25.6952 Y21.8620
G01 X25.6868 Y21.8752
G01 X25.6359 Y21.9605
G01 X25.6184 Y21.9650
G01 X25.6034 Y21.9696
G01 X25.4943 Y22.0086
G01 X25.4727 Y22.0179
G01 X25.3751 Y22.0642
G01 X25.3544 Y22.0755
G01 X25.2685 Y22.1270
G01 X25.2553 Y22.1354
G01 X25.2424 Y22.1445
G01 X25.1557 Y22.2089
G01 X25.1377 Y22.2240
G01 X25.0635 Y22.2913
G01 X25.0521 Y22.3021
G01 X24.4447 Y22.9095
G01 X4.5951 Y22.9095
G01 X4.6247 Y22.8954
G01 X4.6386 Y22.8880
G01 X4.7312 Y22.8326
G01 X4.7509 Y22.8197
G01 X4.8377 Y22.7555
G01 X4.8501 Y22.7458
G01 X4.8620 Y22.7356
G01 X4.9361 Y22.6684
G01 X4.9475 Y22.6575
G01 X4.9584 Y22.6461
G01 X5.0256 Y22.5720
G01 X5.0407 Y22.5540
G01 X5.1097 Y22.4609
G01 X5.1185 Y22.4479
G01 X5.1382 Y22.4152
G01 X11.0172 Y22.4152
G01 X11.0378 Y22.4225
G01 X11.0528 Y22.4270
G01 X11.0971 Y22.4382
G01 X11.1201 Y22.4431
G01 X11.1653 Y22.4499
G01 X11.1809 Y22.4518
G01 X11.1965 Y22.4530
G01 X11.2343 Y22.4548
G01 X11.2579 Y22.4551
G01 X11.3035 Y22.4530
G01 X11.3191 Y22.4518
G01 X11.3347 Y22.4499
G01 X11.3721 Y22.4443
G01 X11.3876 Y22.4416
G01 X11.4029 Y22.4382
G01 X11.4396 Y22.4290
G01 X11.4547 Y22.4248
G01 X11.4696 Y22.4199
G01 X11.5052 Y22.4072
G01 X11.5199 Y22.4015
G01 X11.5342 Y22.3951
G01 X11.5755 Y22.3755
G01 X11.5893 Y22.3681
G01 X11.6285 Y22.3447
G01 X11.6418 Y22.3363
G01 X11.6546 Y22.3273
G01 X11.6912 Y22.3000
G01 X11.7093 Y22.2849
G01 X11.7373 Y22.2595
G01 X11.7486 Y22.2486
G01 X16.5336 Y17.4636
G01 X16.5445 Y17.4523
G01 X16.5751 Y17.4184
G01 X16.5898 Y17.4000
G01 X16.6123 Y17.3696
G01 X16.6213 Y17.3568
G01 X16.6297 Y17.3435
G01 X16.6531 Y17.3043
G01 X16.6640 Y17.2834
G01 X16.6801 Y17.2492
G01 X16.6865 Y17.2349
G01 X16.6922 Y17.2202
G01 X16.7075 Y17.1772
G01 X16.7140 Y17.1546
G01 X16.7232 Y17.1179
G01 X16.7266 Y17.1026
G01 X16.7293 Y17.0871
G01 X16.7349 Y17.0497
G01 X16.7375 Y17.0263
G01 X16.7401 Y16.9729
G01 X16.7402 Y13.4875
G01 X19.0800 Y15.8273
G01 X19.0800 Y16.5200
G01 X19.0804 Y16.5357
G01 X19.0827 Y16.5759
G01 X19.0847 Y16.5915
G01 X19.0895 Y16.6235
G01 X19.0926 Y16.6389
G01 X19.1024 Y16.6779
G01 X19.1069 Y16.6929
G01 X19.1177 Y16.7235
G01 X19.1234 Y16.7381
G01 X19.1298 Y16.7525
G01 X19.1437 Y16.7817
G01 X19.1511 Y16.7956
G01 X19.1677 Y16.8234
G01 X19.1761 Y16.8367
G01 X19.1997 Y16.8692
G01 X19.2094 Y16.8816
G01 X19.2196 Y16.8935
G01 X19.2469 Y16.9231
G01 X19.2583 Y16.9339
G01 X19.2824 Y16.9556
G01 X19.2945 Y16.9655
G01 X19.3268 Y16.9895
G01 X19.3399 Y16.9982
G01 X19.3676 Y17.0150
G01 X19.3883 Y17.0263
G01 X19.4175 Y17.0402
G01 X19.4319 Y17.0466
G01 X19.4465 Y17.0523
G01 X19.4771 Y17.0631
G01 X19.4921 Y17.0676
G01 X19.5311 Y17.0774
G01 X19.5465 Y17.0805
G01 X19.5785 Y17.0853
G01 X19.5941 Y17.0873
G01 X19.6343 Y17.0896
G01 X19.6500 Y17.0900
G01 X20.3500 Y17.0900
G01 X20.3902 Y17.0884
G01 X20.4137 Y17.0864
G01 X20.4457 Y17.0817
G01 X20.4612 Y17.0790
G01 X20.5003 Y17.0696
G01 X20.5229 Y17.0631
G01 X20.5535 Y17.0523
G01 X20.5681 Y17.0466
G01 X20.5825 Y17.0402
G01 X20.6117 Y17.0263
G01 X20.6324 Y17.0150
G01 X20.6667 Y16.9939
G01 X20.6992 Y16.9703
G01 X20.7116 Y16.9606
G01 X20.7235 Y16.9504
G01 X20.7531 Y16.9231
G01 X20.7804 Y16.8935
G01 X20.7906 Y16.8816
G01 X20.8003 Y16.8692
G01 X20.8239 Y16.8367
G01 X20.8450 Y16.8024
G01 X20.8563 Y16.7817
G01 X20.8735 Y16.7453
G01 X20.8795 Y16.7308
G01 X20.8931 Y16.6929
G01 X20.8996 Y16.6703
G01 X20.9090 Y16.6312
G01 X20.9153 Y16.5915
G01 X20.9179 Y16.5680
G01 X20.9196 Y16.5357
G01 X20.9200 Y16.5200
G01 X20.9200 Y14.9800
G01 X20.9184 Y14.9398
G01 X20.9164 Y14.9163
G01 X20.9117 Y14.8843
G01 X20.9090 Y14.8688
G01 X20.9056 Y14.8535
G01 X20.8976 Y14.8221
G01 X20.8905 Y14.7996
G01 X20.8766 Y14.7619
G01 X20.8702 Y14.7475
G01 X20.8563 Y14.7183
G01 X20.8450 Y14.6976
G01 X20.8282 Y14.6699
G01 X20.8195 Y14.6568
G01 X20.8003 Y14.6308
G01 X20.7906 Y14.6184
G01 X20.7804 Y14.6065
G01 X20.7531 Y14.5769
G01 X20.7417 Y14.5661
G01 X20.7116 Y14.5394
G01 X20.6795 Y14.5151
G01 X20.6667 Y14.5061
G01 X20.6324 Y14.4850
G01 X20.6187 Y14.4773
G01 X20.6047 Y14.4702
G01 X20.5681 Y14.4534
G01 X20.5304 Y14.4395
G01 X20.5155 Y14.4345
G01 X20.5003 Y14.4304
G01 X20.4689 Y14.4226
G01 X20.4535 Y14.4195
G01 X20.4137 Y14.4136
G01 X20.3980 Y14.4121
G01 X20.3579 Y14.4101
G01 X19.6573 Y14.4100
G01 X16.8498 Y11.6025
G01 X16.8790 Y11.5807
G01 X16.8911 Y11.5708
G01 X16.9711 Y11.4984
G01 X16.9880 Y11.4819
G01 X17.0606 Y11.4020
G01 X17.0708 Y11.3901
G01 X17.0805 Y11.3777
G01 X17.1447 Y11.2909
G01 X17.1576 Y11.2712
G01 X17.2090 Y11.1853
G01 X17.2204 Y11.1647
G01 X17.2666 Y11.0672
G01 X17.2730 Y11.0528
G01 X17.2787 Y11.0381
G01 X17.3050 Y10.9645
G01 X17.3313 Y11.0381
G01 X17.3370 Y11.0528
G01 X17.3434 Y11.0672
G01 X17.3862 Y11.1576
G01 X17.3932 Y11.1717
G01 X17.4010 Y11.1853
G01 X17.4524 Y11.2712
G01 X17.4608 Y11.2845
G01 X17.4699 Y11.2973
G01 X17.5295 Y11.3777
G01 X17.5392 Y11.3901
G01 X17.5494 Y11.4020
G01 X17.6166 Y11.4761
G01 X17.6275 Y11.4875
G01 X17.6389 Y11.4984
G01 X17.7130 Y11.5656
G01 X17.7249 Y11.5758
G01 X17.7373 Y11.5855
G01 X17.8177 Y11.6451
G01 X17.8305 Y11.6542
G01 X17.8438 Y11.6626
G01 X17.9364 Y11.7180
G01 X17.9574 Y11.7288
G01 X18.0478 Y11.7716
G01 X18.0622 Y11.7780
G01 X18.0769 Y11.7837
G01 X18.1711 Y11.8174
G01 X18.1860 Y11.8223
G01 X18.2012 Y11.8265
G01 X18.2983 Y11.8508
G01 X18.3136 Y11.8543
G01 X18.3291 Y11.8569
G01 X18.4281 Y11.8716
G01 X18.4437 Y11.8735
G01 X18.4593 Y11.8747
G01 X18.5593 Y11.8796
G01 X18.5750 Y11.8800
G01 X18.5907 Y11.8796
G01 X18.6907 Y11.8747
G01 X18.7063 Y11.8735
G01 X18.7219 Y11.8716
G01 X18.8209 Y11.8569
G01 X18.8441 Y11.8526
G01 X18.9488 Y11.8265
G01 X18.9640 Y11.8223
G01 X18.9789 Y11.8174
G01 X19.0731 Y11.7837
G01 X19.0878 Y11.7780
G01 X19.1022 Y11.7716
G01 X19.1926 Y11.7288
G01 X19.2067 Y11.7218
G01 X19.2203 Y11.7140
G01 X19.3062 Y11.6626
G01 X19.3195 Y11.6542
G01 X19.3323 Y11.6451
G01 X19.4127 Y11.5855
G01 X19.4251 Y11.5758
G01 X19.4370 Y11.5656
G01 X19.5111 Y11.4984
G01 X19.5225 Y11.4875
G01 X19.5334 Y11.4761
G01 X19.6006 Y11.4020
G01 X19.6108 Y11.3901
G01 X19.6205 Y11.3777
G01 X19.6801 Y11.2973
G01 X19.6892 Y11.2845
G01 X19.6976 Y11.2712
G01 X19.7490 Y11.1853
G01 X19.7568 Y11.1717
G01 X19.7638 Y11.1576
G01 X19.8066 Y11.0672
G01 X19.8130 Y11.0528
G01 X19.8187 Y11.0381
G01 X19.8450 Y10.9645
G01 X19.8713 Y11.0381
G01 X19.8770 Y11.0528
G01 X19.8834 Y11.0672
G01 X19.9262 Y11.1576
G01 X19.9332 Y11.1717
G01 X19.9410 Y11.1853
G01 X19.9924 Y11.2712
G01 X20.0008 Y11.2845
G01 X20.0099 Y11.2973
G01 X20.0695 Y11.3777
G01 X20.0792 Y11.3901
G01 X20.0894 Y11.4020
G01 X20.1620 Y11.4819
G01 X20.1789 Y11.4984
G01 X20.2530 Y11.5656
G01 X20.2649 Y11.5758
G01 X20.2773 Y11.5855
G01 X20.3577 Y11.6451
G01 X20.3705 Y11.6542
G01 X20.3838 Y11.6626
G01 X20.4697 Y11.7140
G01 X20.4833 Y11.7218
G01 X20.4974 Y11.7288
G01 X20.5878 Y11.7716
G01 X20.6022 Y11.7780
G01 X20.6169 Y11.7837
G01 X20.7111 Y11.8174
G01 X20.7260 Y11.8223
G01 X20.7412 Y11.8265
G01 X20.8383 Y11.8508
G01 X20.8536 Y11.8543
G01 X20.8691 Y11.8569
G01 X20.9681 Y11.8716
G01 X20.9837 Y11.8735
G01 X20.9993 Y11.8747
G01 X21.0993 Y11.8796
G01 X21.1150 Y11.8800
G01 X21.1307 Y11.8796
G01 X21.2307 Y11.8747
G01 X21.2463 Y11.8735
G01 X21.2619 Y11.8716
G01 X21.3609 Y11.8569
G01 X21.3764 Y11.8543
G01 X21.3917 Y11.8508
G01 X21.4888 Y11.8265
G01 X21.5040 Y11.8223
G01 X21.5189 Y11.8174
G01 X21.6131 Y11.7837
G01 X21.6278 Y11.7780
G01 X21.6422 Y11.7716
G01 X21.7397 Y11.7254
G01 X21.7603 Y11.7140
G01 X21.8462 Y11.6626
G01 X21.8595 Y11.6542
G01 X21.8723 Y11.6451
G01 X21.9527 Y11.5855
G01 X21.9651 Y11.5758
G01 X21.9770 Y11.5656
G01 X22.0511 Y11.4984
G01 X22.0625 Y11.4875
G01 X22.0734 Y11.4761
G01 X22.1406 Y11.4020
G01 X22.1508 Y11.3901
G01 X22.1605 Y11.3777
G01 X22.2201 Y11.2973
G01 X22.2292 Y11.2845
G01 X22.2376 Y11.2712
G01 X22.2890 Y11.1853
G01 X22.2968 Y11.1717
G01 X22.3038 Y11.1576
G01 X22.3466 Y11.0672
G01 X22.3530 Y11.0528
G01 X22.3587 Y11.0381
G01 X22.3924 Y10.9439
G01 X22.3973 Y10.9290
G01 X22.4015 Y10.9138
G01 X22.4258 Y10.8167
G01 X22.4293 Y10.8014
G01 X22.4319 Y10.7859
G01 X22.4466 Y10.6869
G01 X22.4485 Y10.6713
G01 X22.4497 Y10.6557
G01 X22.4546 Y10.5557
G01 X22.4550 Y10.5400
G01 X22.4546 Y10.5243
G01 X22.4497 Y10.4243
G01 X22.4485 Y10.4087
G01 X22.4466 Y10.3931
G01 X22.4319 Y10.2941
G01 X22.4293 Y10.2786
G01 X22.4258 Y10.2633
G01 X22.4015 Y10.1662
G01 X22.3973 Y10.1510
G01 X22.3924 Y10.1361
G01 X22.3587 Y10.0419
G01 X22.3530 Y10.0272
G01 X22.3466 Y10.0128
G01 X22.3038 Y9.9224
G01 X22.2968 Y9.9083
G01 X22.2890 Y9.8947
G01 X22.2376 Y9.8088
G01 X22.2247 Y9.7891
G01 X22.1605 Y9.7023
G01 X22.1508 Y9.6899
G01 X22.1406 Y9.6780
G01 X22.0734 Y9.6039
G01 X22.0625 Y9.5925
G01 X22.0511 Y9.5816
G01 X21.9770 Y9.5144
G01 X21.9651 Y9.5042
G01 X21.9527 Y9.4945
G01 X21.8723 Y9.4349
G01 X21.8595 Y9.4258
G01 X21.8462 Y9.4174
G01 X21.7603 Y9.3660
G01 X21.7467 Y9.3582
G01 X21.7326 Y9.3512
G01 X21.6422 Y9.3084
G01 X21.6278 Y9.3020
G01 X21.6131 Y9.2963
G01 X21.5395 Y9.2700
G01 X21.6131 Y9.2437
G00 Z2.0000
G00 X18.0706 Y7.0563
G01 F60.00
G01 Z-0.1000
G01 F120.00
G01 X18.1398 Y7.0235
G01 X18.1398 Y6.9238
G01 X18.1418 Y6.8836
G01 X18.1482 Y6.8401
G01 X18.1582 Y6.7998
G01 X18.1729 Y6.7585
G01 X18.1912 Y6.7199
G01 X18.2132 Y6.6832
G01 X18.2402 Y6.6471
G01 X18.2673 Y6.6173
G01 X19.9441 Y4.9405
G01 X19.9423 Y4.9347
G01 X19.9353 Y4.9061
G01 X19.9314 Y4.8794
G01 X19.9300 Y4.8512
G01 X19.9300 Y4.1500
G01 X19.9314 Y4.1206
G01 X19.9358 Y4.0915
G01 X19.9429 Y4.0629
G01 X19.9528 Y4.0352
G01 X19.9654 Y4.0086
G01 X19.9806 Y3.9833
G01 X19.9981 Y3.9597
G01 X20.0179 Y3.9379
G01 X20.0406 Y3.9173
G01 X20.0633 Y3.9006
G01 X20.0864 Y3.8866
G01 X20.1175 Y3.8720
G01 X20.1429 Y3.8629
G01 X20.1715 Y3.8558
G01 X20.2006 Y3.8514
G01 X20.2275 Y3.8501
G01 X21.7712 Y3.8500
G01 X21.7994 Y3.8514
G01 X21.8309 Y3.8563
G01 X21.8594 Y3.8637
G01 X21.8848 Y3.8728
G01 X21.9092 Y3.8843
G01 X21.9367 Y3.9006
G01 X21.9603 Y3.9181
G01 X21.9821 Y3.9379
G01 X22.0027 Y3.9606
G01 X22.0194 Y3.9833
G01 X22.0334 Y4.0064
G01 X22.0472 Y4.0352
G01 X22.0571 Y4.0629
G01 X22.0637 Y4.0891
G01 X22.0687 Y4.1218
G01 X22.0700 Y4.1500
G01 X22.0700 Y4.8512
G01 X22.0686 Y4.8794
G01 X22.0642 Y4.9085
G01 X22.0571 Y4.9371
G01 X22.0472 Y4.9648
G01 X22.0346 Y4.9914
G01 X22.0194 Y5.0167
G01 X22.0019 Y5.0403
G01 X21.9830 Y5.0613
G01 X21.9603 Y5.0819
G01 X21.9387 Y5.0980
G01 X21.9092 Y5.1157
G01 X21.8848 Y5.1272
G01 X21.8571 Y5.1371
G01 X21.8285 Y5.1442
G01 X21.7994 Y5.1486
G01 X21.7700 Y5.1500
G01 X20.9655 Y5.1500
G01 X19.0657 Y7.0498
G01 X19.0815 Y7.0576
G01 X19.1695 Y7.1103
G01 X19.2557 Y7.1745
G01 X19.3316 Y7.2434
G01 X19.4005 Y7.3193
G01 X19.4660 Y7.4076
G01 X19.5187 Y7.4956
G01 X19.5626 Y7.5883
G01 X19.5989 Y7.6894
G01 X19.6244 Y7.7913
G01 X19.6395 Y7.8927
G01 X19.6450 Y8.0000
G01 X19.6395 Y8.1073
G01 X19.6244 Y8.2087
G01 X19.5996 Y8.3082
G01 X19.5636 Y8.4095
G01 X19.5174 Y8.5065
G01 X19.4647 Y8.5945
G01 X19.4036 Y8.6769
G01 X19.3316 Y8.7566
G01 X19.2538 Y8.8271
G01 X19.1715 Y8.8883
G01 X19.0794 Y8.9437
G01 X18.9845 Y8.9886
G01 X18.8856 Y9.0239
G01 X18.7837 Y9.0494
G01 X18.6799 Y9.0648
G01 X18.5750 Y9.0700
G01 X18.4701 Y9.0648
G01 X18.3663 Y9.0494
G01 X18.2644 Y9.0239
G01 X18.1655 Y8.9886
G01 X18.0706 Y8.9437
G01 X17.9805 Y8.8897
G01 X17.8962 Y8.8271
G01 X17.8184 Y8.7566
G01 X17.7479 Y8.6788
G01 X17.6853 Y8.5945
G01 X17.6313 Y8.5044
G01 X17.5864 Y8.4095
G01 X17.5511 Y8.3106
G01 X17.5256 Y8.2087
G01 X17.5102 Y8.1049
G01 X17.5050 Y8.0000
G01 X17.5102 Y7.8951
G01 X17.5256 Y7.7913
G01 X17.5511 Y7.6894
G01 X17.5864 Y7.5905
G01 X17.6313 Y7.4956
G01 X17.6853 Y7.4055
G01 X17.7479 Y7.3212
G01 X17.8184 Y7.2434
G01 X17.8962 Y7.1729
G01 X17.9805 Y7.1103
G01 X18.0706 Y7.0563
G00 Z2.0000
G00 X18.0282 Y6.9770
G01 F60.00
G01 Z-0.1000
G01 F120.00
G01 X18.0498 Y6.9666
G01 X18.0498 Y6.9216
G01 X18.0520 Y6.8769
G01 X18.0532 Y6.8667
G01 X18.0587 Y6.8293
G01 X18.0614 Y6.8158
G01 X18.0715 Y6.7758
G01 X18.0746 Y6.7660
G01 X18.0873 Y6.7304
G01 X18.0926 Y6.7177
G01 X18.1102 Y6.6805
G01 X18.1152 Y6.6714
G01 X18.1383 Y6.6332
G01 X18.1648 Y6.5972
G01 X18.1712 Y6.5892
G01 X18.2036 Y6.5536
G01 X19.8452 Y4.9120
G01 X19.8416 Y4.8848
G01 X19.8400 Y4.8500
G01 X19.8400 Y4.1500
G01 X19.8414 Y4.1186
G01 X19.8423 Y4.1084
G01 X19.8475 Y4.0739
G01 X19.8568 Y4.0368
G01 X19.8697 Y4.0008
G01 X19.8830 Y3.9723
G01 X19.8877 Y3.9631
G01 X19.9057 Y3.9333
G01 X19.9243 Y3.9080
G01 X19.9307 Y3.9000
G01 X19.9495 Y3.8792
G01 X19.9567 Y3.8718
G01 X19.9800 Y3.8507
G01 X19.9880 Y3.8443
G01 X20.0133 Y3.8257
G01 X20.0462 Y3.8061
G01 X20.0808 Y3.7897
G01 X20.1103 Y3.7789
G01 X20.1234 Y3.7750
G01 X20.1472 Y3.7690
G01 X20.1573 Y3.7669
G01 X20.1918 Y3.7619
G01 X20.2231 Y3.7602
G01 X21.7734 Y3.7600
G01 X21.8014 Y3.7614
G01 X21.8116 Y3.7623
G01 X21.8427 Y3.7669
G01 X21.8528 Y3.7690
G01 X21.8832 Y3.7768
G01 X21.9128 Y3.7872
G01 X21.9224 Y3.7910
G01 X21.9508 Y3.8045
G01 X21.9598 Y3.8094
G01 X21.9867 Y3.8257
G01 X22.0174 Y3.8485
G01 X22.0458 Y3.8742
G01 X22.0670 Y3.8974
G01 X22.0757 Y3.9080
G01 X22.0943 Y3.9333
G01 X22.1106 Y3.9602
G01 X22.1170 Y3.9723
G01 X22.1303 Y4.0008
G01 X22.1411 Y4.0303
G01 X22.1450 Y4.0434
G01 X22.1525 Y4.0739
G01 X22.1581 Y4.1118
G01 X22.1600 Y4.1500
G01 X22.1600 Y4.8534
G01 X22.1581 Y4.8882
G01 X22.1525 Y4.9261
G01 X22.1432 Y4.9632
G01 X22.1303 Y4.9992
G01 X22.1139 Y5.0338
G01 X22.0943 Y5.0667
G01 X22.0715 Y5.0974
G01 X22.0505 Y5.1208
G01 X22.0408 Y5.1305
G01 X22.0200 Y5.1493
G01 X22.0120 Y5.1557
G01 X21.9867 Y5.1743
G01 X21.9598 Y5.1906
G01 X21.9508 Y5.1955
G01 X21.9192 Y5.2103
G01 X21.8832 Y5.2232
G01 X21.8461 Y5.2325
G01 X21.8116 Y5.2377
G01 X21.8014 Y5.2386
G01 X21.7700 Y5.2400
G01 X21.0027 Y5.2400
G01 X19.2119 Y7.0308
G01 X19.2251 Y7.0395
G01 X19.3109 Y7.1033
G01 X19.3903 Y7.1750
G01 X19.4000 Y7.1847
G01 X19.4717 Y7.2641
G01 X19.5355 Y7.3499
G01 X19.5432 Y7.3613
G01 X19.5980 Y7.4532
G01 X19.6439 Y7.5498
G01 X19.6492 Y7.5625
G01 X19.6851 Y7.6633
G01 X19.7112 Y7.7670
G01 X19.7139 Y7.7805
G01 X19.7294 Y7.8863
G01 X19.7348 Y7.9931
G01 X19.7348 Y8.0069
G01 X19.7294 Y8.1137
G01 X19.7139 Y8.2195
G01 X19.7112 Y8.2330
G01 X19.6851 Y8.3367
G01 X19.6492 Y8.4375
G01 X19.6439 Y8.4502
G01 X19.5980 Y8.5468
G01 X19.5432 Y8.6387
G01 X19.5355 Y8.6501
G01 X19.4717 Y8.7359
G01 X19.4000 Y8.8153
G01 X19.3903 Y8.8250
G01 X19.3109 Y8.8967
G01 X19.2251 Y8.9605
G01 X19.2137 Y8.9682
G01 X19.1218 Y9.0230
G01 X19.0189 Y9.0717
G01 X18.9117 Y9.1101
G01 X18.8013 Y9.1377
G01 X18.6887 Y9.1544
G01 X18.5750 Y9.1600
G01 X18.4613 Y9.1544
G01 X18.3487 Y9.1377
G01 X18.2383 Y9.1101
G01 X18.1311 Y9.0717
G01 X18.0282 Y9.0230
G01 X17.9305 Y8.9645
G01 X17.8391 Y8.8967
G01 X17.7548 Y8.8202
G01 X17.6783 Y8.7359
G01 X17.6105 Y8.6445
G01 X17.5520 Y8.5468
G01 X17.5033 Y8.4439
G01 X17.4649 Y8.3367
G01 X17.4373 Y8.2263
G01 X17.4206 Y8.1137
G01 X17.4150 Y8.0000
G01 X17.4206 Y7.8863
G01 X17.4373 Y7.7737
G01 X17.4649 Y7.6633
G01 X17.5033 Y7.5561
G01 X17.5520 Y7.4532
G01 X17.6105 Y7.3555
G01 X17.6783 Y7.2641
G01 X17.7548 Y7.1798
G01 X17.8391 Y7.1033
G01 X17.9305 Y7.0355
G01 X18.0282 Y6.9770
G00 Z2.0000
G00 X17.8805 Y6.9607
G01 F60.00
G01 Z-0.1000
G01 F120.00
G01 X17.9601 Y6.9126
G01 X17.9628 Y6.8647
G01 X17.9697 Y6.8161
G01 X17.9716 Y6.8050
G01 X17.9833 Y6.7573
G01 X17.9863 Y6.7464
G01 X18.0045 Y6.6948
G01 X18.0112 Y6.6793
G01 X18.0298 Y6.6400
G01 X18.0380 Y6.6252
G01 X18.0574 Y6.5928
G01 X18.0635 Y6.5832
G01 X18.0700 Y6.5740
G01 X18.0959 Y6.5391
G01 X18.1068 Y6.5262
G01 X18.1400 Y6.4900
G01 X19.7511 Y4.8788
G01 X19.7500 Y4.8500
G01 X19.7500 Y4.1500
G01 X19.7503 Y4.1387
G01 X19.7523 Y4.1030
G01 X19.7582 Y4.0619
G01 X19.7617 Y4.0453
G01 X19.7707 Y4.0107
G01 X19.7742 Y3.9999
G01 X19.7865 Y3.9663
G01 X19.7911 Y3.9560
G01 X19.8067 Y3.9237
G01 X19.8249 Y3.8929
G01 X19.8309 Y3.8833
G01 X19.8520 Y3.8544
G01 X19.8590 Y3.8455
G01 X19.8663 Y3.8369
G01 X19.8906 Y3.8106
G01 X19.9169 Y3.7863
G01 X19.9255 Y3.7790
G01 X19.9587 Y3.7541
G01 X19.9681 Y3.7478
G01 X19.9939 Y3.7322
G01 X20.0037 Y3.7267
G01 X20.0138 Y3.7216
G01 X20.0463 Y3.7065
G01 X20.0853 Y3.6924
G01 X20.0961 Y3.6891
G01 X20.1253 Y3.6817
G01 X20.1419 Y3.6782
G01 X20.1830 Y3.6723
G01 X20.2187 Y3.6703
G01 X20.2300 Y3.6700
G01 X21.7700 Y3.6700
G01 X21.8058 Y3.6715
G01 X21.8227 Y3.6729
G01 X21.8581 Y3.6782
G01 X21.8747 Y3.6817
G01 X21.9093 Y3.6907
G01 X21.9432 Y3.7025
G01 X21.9537 Y3.7065
G01 X21.9862 Y3.7216
G01 X22.0012 Y3.7294
G01 X22.0271 Y3.7449
G01 X22.0413 Y3.7541
G01 X22.0701 Y3.7754
G01 X22.0831 Y3.7863
G01 X22.1094 Y3.8106
G01 X22.1337 Y3.8369
G01 X22.1446 Y3.8499
G01 X22.1659 Y3.8787
G01 X22.1751 Y3.8929
G01 X22.1933 Y3.9237
G01 X22.2112 Y3.9611
G01 X22.2175 Y3.9768
G01 X22.2293 Y4.0107
G01 X22.2396 Y4.0508
G01 X22.2418 Y4.0619
G01 X22.2463 Y4.0917
G01 X22.2482 Y4.1086
G01 X22.2500 Y4.1500
G01 X22.2499 Y4.8556
G01 X22.2477 Y4.8970
G01 X22.2427 Y4.9325
G01 X22.2408 Y4.9436
G01 X22.2383 Y4.9547
G01 X22.2293 Y4.9893
G01 X22.2156 Y5.0284
G01 X22.2089 Y5.0440
G01 X22.1959 Y5.0713
G01 X22.1906 Y5.0812
G01 X22.1751 Y5.1071
G01 X22.1659 Y5.1213
G01 X22.1480 Y5.1456
G01 X22.1410 Y5.1545
G01 X22.1337 Y5.1631
G01 X22.1094 Y5.1894
G01 X22.1012 Y5.1972
G01 X22.0745 Y5.2210
G01 X22.0459 Y5.2426
G01 X22.0367 Y5.2491
G01 X22.0012 Y5.2706
G01 X21.9862 Y5.2784
G01 X21.9589 Y5.2912
G01 X21.9484 Y5.2956
G01 X21.9201 Y5.3058
G01 X21.9093 Y5.3093
G01 X21.8985 Y5.3123
G01 X21.8692 Y5.3196
G01 X21.8525 Y5.3227
G01 X21.8170 Y5.3277
G01 X21.7813 Y5.3297
G01 X21.7700 Y5.3300
G01 X21.0400 Y5.3300
G01 X19.3500 Y7.0200
G01 X19.3636 Y7.0302
G01 X19.3723 Y7.0374
G01 X19.4507 Y7.1083
G01 X19.4589 Y7.1161
G01 X19.5339 Y7.1985
G01 X19.5413 Y7.2070
G01 X19.6078 Y7.2963
G01 X19.6143 Y7.3055
G01 X19.6718 Y7.4009
G01 X19.6774 Y7.4108
G01 X19.6825 Y7.4208
G01 X19.7253 Y7.5113
G01 X19.7298 Y7.5216
G01 X19.7339 Y7.5322
G01 X19.7712 Y7.6371
G01 X19.7985 Y7.7451
G01 X19.8010 Y7.7561
G01 X19.8029 Y7.7673
G01 X19.8190 Y7.8775
G01 X19.8247 Y7.9887
G01 X19.8250 Y8.0000
G01 X19.8247 Y8.0113
G01 X19.8190 Y8.1225
G01 X19.8029 Y8.2327
G01 X19.8010 Y8.2439
G01 X19.7985 Y8.2549
G01 X19.7742 Y8.3520
G01 X19.7712 Y8.3629
G01 X19.7676 Y8.3736
G01 X19.7298 Y8.4784
G01 X19.6825 Y8.5792
G01 X19.6774 Y8.5892
G01 X19.6718 Y8.5991
G01 X19.6143 Y8.6945
G01 X19.5482 Y8.7841
G01 X19.5413 Y8.7930
G01 X19.5339 Y8.8015
G01 X19.4589 Y8.8839
G01 X19.3765 Y8.9589
G01 X19.3680 Y8.9663
G01 X19.3591 Y8.9732
G01 X19.2695 Y9.0393
G01 X19.1741 Y9.0968
G01 X19.1642 Y9.1024
G01 X19.1542 Y9.1075
G01 X19.0534 Y9.1548
G01 X18.9486 Y9.1926
G01 X18.9379 Y9.1962
G01 X18.9270 Y9.1992
G01 X18.8189 Y9.2260
G01 X18.7087 Y9.2426
G01 X18.6975 Y9.2440
G01 X18.6863 Y9.2448
G01 X18.5750 Y9.2500
G01 X18.4637 Y9.2448
G01 X18.4525 Y9.2440
G01 X18.3423 Y9.2279
G01 X18.3311 Y9.2260
G01 X18.2230 Y9.1992
G01 X18.2121 Y9.1962
G01 X18.2014 Y9.1926
G01 X18.0966 Y9.1548
G01 X18.0863 Y9.1503
G01 X17.9858 Y9.1024
G01 X17.8901 Y9.0454
G01 X17.8805 Y9.0393
G01 X17.7909 Y8.9732
G01 X17.7820 Y8.9663
G01 X17.7735 Y8.9589
G01 X17.6911 Y8.8839
G01 X17.6833 Y8.8757
G01 X17.6087 Y8.7930
G01 X17.5422 Y8.7037
G01 X17.5357 Y8.6945
G01 X17.5296 Y8.6849
G01 X17.4726 Y8.5892
G01 X17.4247 Y8.4887
G01 X17.4202 Y8.4784
G01 X17.4161 Y8.4678
G01 X17.3788 Y8.3629
G01 X17.3515 Y8.2549
G01 X17.3490 Y8.2439
G01 X17.3471 Y8.2327
G01 X17.3310 Y8.1225
G01 X17.3302 Y8.1113
G01 X17.3250 Y8.0000
G01 X17.3302 Y7.8887
G01 X17.3310 Y7.8775
G01 X17.3471 Y7.7673
G01 X17.3490 Y7.7561
G01 X17.3515 Y7.7451
G01 X17.3788 Y7.6371
G01 X17.4161 Y7.5322
G01 X17.4202 Y7.5216
G01 X17.4247 Y7.5113
G01 X17.4726 Y7.4108
G01 X17.5296 Y7.3151
G01 X17.5357 Y7.3055
G01 X17.5422 Y7.2963
G01 X17.6087 Y7.2070
G01 X17.6833 Y7.1243
G01 X17.6911 Y7.1161
G01 X17.6993 Y7.1083
G01 X17.7820 Y7.0337
G01 X17.8713 Y6.9672
G01 X17.8805 Y6.9607
G00 Z2.0000
G00 X15.0383 Y3.3563
G01 F60.00
G01 Z-0.1000
G01 F120.00
G01 X15.0747 Y3.3735
G01 X15.0892 Y3.3795
G01 X15.1271 Y3.3931
G01 X15.1421 Y3.3976
G01 X15.1811 Y3.4074
G01 X15.1965 Y3.4105
G01 X15.2363 Y3.4164
G01 X15.2598 Y3.4184
G01 X15.3000 Y3.4200
G01 X16.2000 Y3.4200
G01 X16.2157 Y3.4196
G01 X16.2559 Y3.4173
G01 X16.2957 Y3.4117
G01 X16.3112 Y3.4090
G01 X16.3265 Y3.4056
G01 X16.3655 Y3.3955
G01 X16.4035 Y3.3823
G01 X16.4181 Y3.3766
G01 X16.4325 Y3.3702
G01 X16.4687 Y3.3527
G01 X16.5034 Y3.3323
G01 X16.5167 Y3.3239
G01 X16.5492 Y3.3003
G01 X16.5616 Y3.2906
G01 X16.5917 Y3.2639
G01 X16.6031 Y3.2531
G01 X16.6304 Y3.2235
G01 X16.6457 Y3.2052
G01 X20.1043 Y3.2052
G01 X20.1144 Y3.2176
G01 X20.1415 Y3.2474
G01 X20.1526 Y3.2585
G01 X20.1824 Y3.2856
G01 X20.1945 Y3.2955
G01 X20.2268 Y3.3195
G01 X20.2399 Y3.3282
G01 X20.2676 Y3.3450
G01 X20.2813 Y3.3527
G01 X20.2953 Y3.3598
G01 X20.3247 Y3.3735
G01 X20.3465 Y3.3823
G01 X20.3771 Y3.3931
G01 X20.3921 Y3.3976
G01 X20.4311 Y3.4074
G01 X20.4543 Y3.4117
G01 X20.4941 Y3.4173
G01 X20.5343 Y3.4196
G01 X20.5500 Y3.4200
G01 X21.4579 Y3.4199
G01 X21.4980 Y3.4179
G01 X21.5137 Y3.4164
G01 X21.5535 Y3.4105
G01 X21.5765 Y3.4056
G01 X21.6155 Y3.3955
G01 X21.6535 Y3.3823
G01 X21.6753 Y3.3735
G01 X21.7117 Y3.3563
G01 X21.7324 Y3.3450
G01 X21.7667 Y3.3239
G01 X21.7992 Y3.3003
G01 X21.8116 Y3.2906
G01 X21.8417 Y3.2639
G01 X21.8531 Y3.2531
G01 X21.8804 Y3.2235
G01 X21.8957 Y3.2052
G01 X23.7079 Y3.2052
G01 X26.6277 Y6.1250
G01 X24.4250 Y8.3277
G01 X23.5930 Y7.4959
G01 X23.5593 Y7.4651
G01 X23.5474 Y7.4549
G01 X23.5350 Y7.4452
G01 X23.5046 Y7.4227
G01 X23.4852 Y7.4094
G01 X23.4461 Y7.3858
G01 X23.4324 Y7.3781
G01 X23.4184 Y7.3710
G01 X23.3842 Y7.3549
G01 X23.3699 Y7.3485
G01 X23.3552 Y7.3428
G01 X23.3196 Y7.3301
G01 X23.3047 Y7.3252
G01 X23.2896 Y7.3210
G01 X23.2529 Y7.3118
G01 X23.2376 Y7.3084
G01 X23.2221 Y7.3057
G01 X23.1847 Y7.3001
G01 X23.1613 Y7.2975
G01 X23.1157 Y7.2952
G01 X23.1000 Y7.2948
G01 X22.2532 Y7.2948
G01 X22.2335 Y7.2621
G01 X22.2247 Y7.2491
G01 X22.1557 Y7.1560
G01 X22.1406 Y7.1380
G01 X22.0680 Y7.0581
G01 X22.0511 Y7.0416
G01 X21.9770 Y6.9744
G01 X21.9651 Y6.9642
G01 X21.9527 Y6.9545
G01 X21.8659 Y6.8903
G01 X21.8462 Y6.8774
G01 X21.7603 Y6.8260
G01 X21.7467 Y6.8182
G01 X21.7326 Y6.8112
G01 X21.6422 Y6.7684
G01 X21.6278 Y6.7620
G01 X21.6131 Y6.7563
G01 X21.5189 Y6.7226
G01 X21.5040 Y6.7177
G01 X21.4888 Y6.7135
G01 X21.3917 Y6.6892
G01 X21.3687 Y6.6843
G01 X21.2619 Y6.6684
G01 X21.2463 Y6.6665
G01 X21.2307 Y6.6653
G01 X21.1307 Y6.6604
G01 X21.1150 Y6.6600
G01 X21.0993 Y6.6604
G01 X20.9993 Y6.6653
G01 X20.9837 Y6.6665
G01 X20.9681 Y6.6684
G01 X20.8691 Y6.6831
G01 X20.8536 Y6.6857
G01 X20.8383 Y6.6892
G01 X20.7412 Y6.7135
G01 X20.7260 Y6.7177
G01 X20.7111 Y6.7226
G01 X20.6169 Y6.7563
G01 X20.6022 Y6.7620
G01 X20.5878 Y6.7684
G01 X20.4974 Y6.8112
G01 X20.4833 Y6.8182
G01 X20.4697 Y6.8260
G01 X20.3838 Y6.8774
G01 X20.3705 Y6.8858
G01 X20.3577 Y6.8949
G01 X20.2773 Y6.9545
G01 X20.2649 Y6.9642
G01 X20.2530 Y6.9744
G01 X20.1789 Y7.0416
G01 X20.1675 Y7.0525
G01 X20.1566 Y7.0639
G01 X20.0894 Y7.1380
G01 X20.0792 Y7.1499
G01 X20.0695 Y7.1623
G01 X20.0099 Y7.2427
G01 X20.0008 Y7.2555
G01 X19.9924 Y7.2688
G01 X19.9410 Y7.3547
G01 X19.9332 Y7.3683
G01 X19.9262 Y7.3824
G01 X19.8834 Y7.4728
G01 X19.8770 Y7.4872
G01 X19.8713 Y7.5019
G01 X19.8450 Y7.5755
G01 X19.8187 Y7.5019
G01 X19.8130 Y7.4872
G01 X19.8066 Y7.4728
G01 X19.7638 Y7.3824
G01 X19.7568 Y7.3683
G01 X19.7490 Y7.3547
G01 X19.6935 Y7.2621
G01 X19.6801 Y7.2427
G01 X19.6205 Y7.1623
G01 X19.6058 Y7.1439
G01 X19.5280 Y7.0581
G01 X19.5169 Y7.0470
G01 X19.4820 Y7.0153
G01 X21.0773 Y5.4200
G01 X21.7700 Y5.4200
G01 X21.7857 Y5.4196
G01 X21.8180 Y5.4179
G01 X21.8337 Y5.4164
G01 X21.8735 Y5.4105
G01 X21.8889 Y5.4074
G01 X21.9203 Y5.3996
G01 X21.9355 Y5.3955
G01 X21.9504 Y5.3905
G01 X21.9881 Y5.3766
G01 X22.0025 Y5.3702
G01 X22.0317 Y5.3563
G01 X22.0524 Y5.3450
G01 X22.0867 Y5.3239
G01 X22.0995 Y5.3149
G01 X22.1255 Y5.2955
G01 X22.1376 Y5.2856
G01 X22.1617 Y5.2639
G01 X22.1785 Y5.2474
G01 X22.2004 Y5.2235
G01 X22.2106 Y5.2116
G01 X22.2349 Y5.1795
G01 X22.2482 Y5.1601
G01 X22.2650 Y5.1324
G01 X22.2727 Y5.1187
G01 X22.2798 Y5.1047
G01 X22.2935 Y5.0753
G01 X22.3023 Y5.0535
G01 X22.3155 Y5.0155
G01 X22.3196 Y5.0003
G01 X22.3274 Y4.9689
G01 X22.3317 Y4.9457
G01 X22.3364 Y4.9137
G01 X22.3379 Y4.8980
G01 X22.3396 Y4.8657
G01 X22.3400 Y4.8500
G01 X22.3400 Y4.1500
G01 X22.3396 Y4.1343
G01 X22.3373 Y4.0941
G01 X22.3317 Y4.0543
G01 X22.3274 Y4.0311
G01 X22.3176 Y3.9921
G01 X22.3131 Y3.9771
G01 X22.2995 Y3.9392
G01 X22.2935 Y3.9247
G01 X22.2763 Y3.8883
G01 X22.2689 Y3.8744
G01 X22.2482 Y3.8399
G01 X22.2349 Y3.8205
G01 X22.2155 Y3.7945
G01 X22.2004 Y3.7765
G01 X22.1731 Y3.7469
G01 X22.1435 Y3.7196
G01 X22.1255 Y3.7045
G01 X22.0932 Y3.6805
G01 X22.0801 Y3.6718
G01 X22.0524 Y3.6550
G01 X22.0317 Y3.6437
G01 X22.0025 Y3.6298
G01 X21.9881 Y3.6234
G01 X21.9504 Y3.6095
G01 X21.9279 Y3.6024
G01 X21.8965 Y3.5944
G01 X21.8812 Y3.5910
G01 X21.8415 Y3.5847
G01 X21.8180 Y3.5821
G01 X21.7779 Y3.5801
G01 X20.2300 Y3.5800
G01 X20.2143 Y3.5804
G01 X20.1741 Y3.5827
G01 X20.1343 Y3.5883
G01 X20.1111 Y3.5926
G01 X20.0797 Y3.6004
G01 X20.0645 Y3.6045
G01 X20.0265 Y3.6177
G01 X20.0047 Y3.6265
G01 X19.9753 Y3.6402
G01 X19.9613 Y3.6473
G01 X19.9266 Y3.6677
G01 X19.9068 Y3.6805
G01 X19.8808 Y3.6997
G01 X19.8684 Y3.7094
G01 X19.8383 Y3.7361
G01 X19.8215 Y3.7526
G01 X19.7996 Y3.7765
G01 X19.7894 Y3.7884
G01 X19.7651 Y3.8205
G01 X19.7518 Y3.8399
G01 X19.7350 Y3.8676
G01 X19.7273 Y3.8813
G01 X19.7098 Y3.9175
G01 X19.7005 Y3.9392
G01 X19.6895 Y3.9696
G01 X19.6845 Y3.9845
G01 X19.6804 Y3.9997
G01 X19.6710 Y4.0388
G01 X19.6683 Y4.0543
G01 X19.6627 Y4.0941
G01 X19.6604 Y4.1343
G01 X19.6600 Y4.1500
G01 X19.6600 Y4.8427
G01 X18.0764 Y6.4264
G01 X18.0655 Y6.4377
G01 X18.0349 Y6.4716
G01 X18.0250 Y6.4838
G01 X17.9977 Y6.5204
G01 X17.9887 Y6.5332
G01 X17.9803 Y6.5465
G01 X17.9608 Y6.5789
G01 X17.9531 Y6.5926
G01 X17.9460 Y6.6066
G01 X17.9299 Y6.6408
G01 X17.9235 Y6.6551
G01 X17.9178 Y6.6698
G01 X17.9051 Y6.7054
G01 X17.9002 Y6.7203
G01 X17.8960 Y6.7354
G01 X17.8868 Y6.7721
G01 X17.8834 Y6.7874
G01 X17.8807 Y6.8029
G01 X17.8751 Y6.8403
G01 X17.8728 Y6.8600
G01 X17.8371 Y6.8815
G01 X17.8241 Y6.8903
G01 X17.7373 Y6.9545
G01 X17.7189 Y6.9692
G01 X17.6389 Y7.0416
G01 X17.6275 Y7.0525
G01 X17.6166 Y7.0639
G01 X17.5494 Y7.1380
G01 X17.5343 Y7.1560
G01 X17.4699 Y7.2427
G01 X17.4608 Y7.2555
G01 X17.4524 Y7.2688
G01 X17.4010 Y7.3547
G01 X17.3932 Y7.3683
G01 X17.3862 Y7.3824
G01 X17.3434 Y7.4728
G01 X17.3370 Y7.4872
G01 X17.3313 Y7.5019
G01 X17.3050 Y7.5755
G01 X17.2787 Y7.5019
G01 X17.2730 Y7.4872
G01 X17.2666 Y7.4728
G01 X17.2238 Y7.3824
G01 X17.2168 Y7.3683
G01 X17.2090 Y7.3547
G01 X17.1535 Y7.2621
G01 X17.1401 Y7.2427
G01 X17.0805 Y7.1623
G01 X17.0708 Y7.1499
G01 X17.0606 Y7.1380
G01 X16.9934 Y7.0639
G01 X16.9825 Y7.0525
G01 X16.9711 Y7.0416
G01 X16.8970 Y6.9744
G01 X16.8851 Y6.9642
G01 X16.8727 Y6.9545
G01 X16.7923 Y6.8949
G01 X16.7795 Y6.8858
G01 X16.7662 Y6.8774
G01 X16.6803 Y6.8260
G01 X16.6667 Y6.8182
G01 X16.6526 Y6.8112
G01 X16.5622 Y6.7684
G01 X16.5478 Y6.7620
G01 X16.5331 Y6.7563
G01 X16.4552 Y6.7285
G01 X16.4552 Y5.4200
G01 X16.5279 Y5.4199
G01 X16.5602 Y5.4184
G01 X16.5759 Y5.4173
G01 X16.5915 Y5.4153
G01 X16.6312 Y5.4090
G01 X16.6465 Y5.4056
G01 X16.6779 Y5.3976
G01 X16.6929 Y5.3931
G01 X16.7308 Y5.3795
G01 X16.7453 Y5.3735
G01 X16.7747 Y5.3598
G01 X16.7956 Y5.3489
G01 X16.8234 Y5.3323
G01 X16.8367 Y5.3239
G01 X16.8495 Y5.3149
G01 X16.8755 Y5.2955
G01 X16.8876 Y5.2856
G01 X16.9174 Y5.2585
G01 X16.9285 Y5.2474
G01 X16.9556 Y5.2176
G01 X16.9655 Y5.2055
G01 X16.9895 Y5.1732
G01 X16.9982 Y5.1601
G01 X17.0150 Y5.1324
G01 X17.0227 Y5.1187
G01 X17.0402 Y5.0825
G01 X17.0466 Y5.0681
G01 X17.0605 Y5.0304
G01 X17.0655 Y5.0155
G01 X17.0696 Y5.0003
G01 X17.0790 Y4.9612
G01 X17.0817 Y4.9457
G01 X17.0873 Y4.9059
G01 X17.0896 Y4.8657
G01 X17.0900 Y4.8500
G01 X17.0900 Y4.1500
G01 X17.0884 Y4.1098
G01 X17.0864 Y4.0863
G01 X17.0805 Y4.0465
G01 X17.0774 Y4.0311
G01 X17.0676 Y3.9921
G01 X17.0605 Y3.9696
G01 X17.0466 Y3.9319
G01 X17.0402 Y3.9175
G01 X17.0227 Y3.8813
G01 X17.0023 Y3.8466
G01 X16.9895 Y3.8268
G01 X16.9655 Y3.7945
G01 X16.9504 Y3.7765
G01 X16.9231 Y3.7469
G01 X16.8935 Y3.7196
G01 X16.8755 Y3.7045
G01 X16.8432 Y3.6805
G01 X16.8234 Y3.6677
G01 X16.7887 Y3.6473
G01 X16.7525 Y3.6298
G01 X16.7308 Y3.6205
G01 X16.6929 Y3.6069
G01 X16.6703 Y3.6004
G01 X16.6312 Y3.5910
G01 X16.5915 Y3.5847
G01 X16.5680 Y3.5821
G01 X16.5357 Y3.5804
G01 X16.5200 Y3.5800
G01 X14.9763 Y3.5800
G01 X14.9866 Y3.5583
G01 X14.9952 Y3.5359
G01 X15.0209 Y3.4540
G01 X15.0266 Y3.4309
G01 X15.0305 Y3.4074
G01 X15.0328 Y3.3837
G01 X15.0332 Y3.3678
G01 X15.0330 Y3.3536
G01 X15.0383 Y3.3563
G00 Z2.0000
G00 X16.4867 Y2.0617
G01 F60.00
G01 Z-0.1000
G01 F120.00
G01 X16.4876 Y2.0648
G01 X20.2624 Y2.0648
G01 X20.2738 Y2.0330
G01 X20.2854 Y2.0086
G01 X20.2992 Y1.9854
G01 X20.3181 Y1.9597
G01 X20.3396 Y1.9362
G01 X20.3597 Y1.9181
G01 X20.3813 Y1.9020
G01 X20.4086 Y1.8854
G01 X20.4352 Y1.8728
G01 X20.4606 Y1.8637
G01 X20.4927 Y1.8555
G01 X20.5206 Y1.8514
G01 X20.5500 Y1.8500
G01 X21.4500 Y1.8500
G01 X21.4794 Y1.8514
G01 X21.5061 Y1.8553
G01 X21.5394 Y1.8637
G01 X21.5648 Y1.8728
G01 X21.5914 Y1.8854
G01 X21.6167 Y1.9006
G01 X21.6384 Y1.9166
G01 X21.6638 Y1.9396
G01 X21.6819 Y1.9597
G01 X21.6994 Y1.9833
G01 X21.7146 Y2.0086
G01 X21.7262 Y2.0330
G01 X21.7376 Y2.0648
G01 X24.0000 Y2.0648
G01 X24.0427 Y2.0669
G01 X24.0825 Y2.0728
G01 X24.1263 Y2.0835
G01 X24.1688 Y2.0989
G01 X24.2051 Y2.1162
G01 X24.2397 Y2.1368
G01 X24.2761 Y2.1636
G01 X24.3077 Y2.1923
G01 X27.6250 Y5.5095
G01 X29.1923 Y3.9423
G01 X29.2239 Y3.9136
G01 X29.2562 Y3.8896
G01 X29.2949 Y3.8662
G01 X29.3335 Y3.8479
G01 X29.3737 Y3.8335
G01 X29.4151 Y3.8232
G01 X29.4598 Y3.8167
G01 X29.5000 Y3.8148
G01 X30.2735 Y3.8148
G01 X30.3063 Y3.7456
G01 X30.3590 Y3.6576
G01 X30.4214 Y3.5731
G01 X30.4934 Y3.4934
G01 X30.5712 Y3.4229
G01 X30.6555 Y3.3603
G01 X30.7478 Y3.3052
G01 X30.8405 Y3.2614
G01 X30.9371 Y3.2268
G01 X31.0401 Y3.2008
G01 X31.1451 Y3.1852
G01 X31.2500 Y3.1800
G01 X31.3549 Y3.1852
G01 X31.4563 Y3.2001
G01 X31.5606 Y3.2261
G01 X31.6572 Y3.2606
G01 X31.7565 Y3.3076
G01 X31.8445 Y3.3603
G01 X31.9269 Y3.4214
G01 X32.0048 Y3.4917
G01 X32.0771 Y3.5712
G01 X32.1397 Y3.6555
G01 X32.1937 Y3.7456
G01 X32.2394 Y3.8428
G01 X32.2739 Y3.9394
G01 X32.2989 Y4.0389
G01 X32.3148 Y4.1451
G01 X32.3199 Y4.2525
G01 X32.3148 Y4.3549
G01 X32.2999 Y4.4563
G01 X32.2739 Y4.5606
G01 X32.2386 Y4.6595
G01 X32.1937 Y4.7544
G01 X32.1383 Y4.8465
G01 X32.0771 Y4.9288
G01 X32.0083 Y5.0048
G01 X31.9307 Y5.0755
G01 X31.8445 Y5.1397
G01 X31.7544 Y5.1937
G01 X31.6595 Y5.2386
G01 X31.5582 Y5.2746
G01 X31.4587 Y5.2994
G01 X31.3573 Y5.3145
G01 X31.2525 Y5.3199
G01 X31.1451 Y5.3148
G01 X31.0425 Y5.2997
G01 X30.9394 Y5.2739
G01 X30.8383 Y5.2376
G01 X30.7456 Y5.1937
G01 X30.6576 Y5.1410
G01 X30.5722 Y5.0779
G01 X30.4934 Y5.0066
G01 X30.4214 Y4.9269
G01 X30.3590 Y4.8424
G01 X30.3063 Y4.7544
G01 X30.2735 Y4.6852
G01 X29.6803 Y4.6852
G01 X25.0405 Y9.3250
G01 X26.0960 Y10.3806
G01 X26.1149 Y10.3407
G01 X26.1414 Y10.2965
G01 X26.1748 Y10.2511
G01 X26.2129 Y10.2094
G01 X26.2511 Y10.1748
G01 X26.2924 Y10.1441
G01 X26.3407 Y10.1149
G01 X26.3918 Y10.0910
G01 X26.4403 Y10.0737
G01 X26.4903 Y10.0611
G01 X26.5449 Y10.0528
G01 X26.6000 Y10.0500
G01 X27.6000 Y10.0500
G01 X27.6527 Y10.0525
G01 X27.7097 Y10.0611
G01 X27.7597 Y10.0737
G01 X27.8082 Y10.0910
G01 X27.8593 Y10.1149
G01 X27.9066 Y10.1434
G01 X27.9489 Y10.1748
G01 X27.9889 Y10.2111
G01 X28.0252 Y10.2511
G01 X28.0573 Y10.2944
G01 X28.0851 Y10.3407
G01 X28.1081 Y10.3895
G01 X28.1263 Y10.4403
G01 X28.1397 Y10.4939
G01 X28.1474 Y10.5461
G01 X28.1500 Y10.6000
G01 X28.1500 Y11.5648
G01 X32.3547 Y11.5648
G01 X32.3584 Y11.5409
G01 X32.3687 Y11.5005
G01 X32.3824 Y11.4624
G01 X32.3996 Y11.4257
G01 X32.4230 Y11.3869
G01 X32.4465 Y11.3554
G01 X32.4736 Y11.3254
G01 X32.5073 Y11.2950
G01 X32.5389 Y11.2716
G01 X32.5747 Y11.2502
G01 X32.6124 Y11.2324
G01 X32.6493 Y11.2191
G01 X32.6921 Y11.2082
G01 X32.7333 Y11.2020
G01 X32.7750 Y11.2000
G01 X34.0250 Y11.2000
G01 X34.0667 Y11.2020
G01 X34.1055 Y11.2077
G01 X34.1507 Y11.2191
G01 X34.1876 Y11.2324
G01 X34.2232 Y11.2491
G01 X34.2611 Y11.2716
G01 X34.2965 Y11.2981
G01 X34.3255 Y11.3245
G01 X34.3519 Y11.3535
G01 X34.3784 Y11.3889
G01 X34.4009 Y11.4268
G01 X34.4176 Y11.4624
G01 X34.4309 Y11.4993
G01 X34.4421 Y11.5433
G01 X34.4480 Y11.5833
G01 X34.4500 Y11.6250
G01 X34.4499 Y12.3775
G01 X34.4477 Y12.4191
G01 X34.4418 Y12.4579
G01 X34.4324 Y12.4960
G01 X34.4176 Y12.5376
G01 X34.3986 Y12.5775
G01 X34.3770 Y12.6131
G01 X34.3535 Y12.6446
G01 X34.3272 Y12.6737
G01 X34.2946 Y12.7035
G01 X34.2611 Y12.7284
G01 X34.2253 Y12.7498
G01 X34.1854 Y12.7685
G01 X34.1460 Y12.7824
G01 X34.1079 Y12.7918
G01 X34.0691 Y12.7977
G01 X34.0250 Y12.8000
G01 X32.7738 Y12.8000
G01 X32.7333 Y12.7980
G01 X32.6921 Y12.7918
G01 X32.6516 Y12.7817
G01 X32.6146 Y12.7685
G01 X32.5725 Y12.7486
G01 X32.5389 Y12.7284
G01 X32.5044 Y12.7027
G01 X32.4745 Y12.6755
G01 X32.4465 Y12.6446
G01 X32.4216 Y12.6111
G01 X32.4008 Y12.5764
G01 X32.3824 Y12.5376
G01 X32.3687 Y12.4995
G01 X32.3584 Y12.4591
G01 X32.3547 Y12.4352
G01 X28.1500 Y12.4352
G01 X28.1500 Y13.4000
G01 X28.1474 Y13.4539
G01 X28.1397 Y13.5061
G01 X28.1263 Y13.5597
G01 X28.1081 Y13.6105
G01 X28.0851 Y13.6593
G01 X28.0573 Y13.7056
G01 X28.0252 Y13.7489
G01 X27.9889 Y13.7889
G01 X27.9489 Y13.8252
G01 X27.9056 Y13.8573
G01 X27.8571 Y13.8862
G01 X27.8105 Y13.9081
G01 X27.7620 Y13.9255
G01 X27.7073 Y13.9394
G01 X27.6527 Y13.9475
G01 X27.6000 Y13.9500
G01 X26.6000 Y13.9500
G01 X26.5449 Y13.9472
G01 X26.4903 Y13.9389
G01 X26.4403 Y13.9263
G01 X26.3918 Y13.9090
G01 X26.3407 Y13.8851
G01 X26.2924 Y13.8559
G01 X26.2511 Y13.8252
G01 X26.2129 Y13.7906
G01 X26.1748 Y13.7489
G01 X26.1414 Y13.7035
G01 X26.1149 Y13.6593
G01 X26.0960 Y13.6194
G01 X23.6577 Y16.0577
G01 X23.6261 Y16.0864
G01 X23.5928 Y16.1112
G01 X23.5551 Y16.1338
G01 X23.5143 Y16.1529
G01 X23.4763 Y16.1665
G01 X23.4373 Y16.1763
G01 X23.3914 Y16.1832
G01 X23.3500 Y16.1852
G01 X22.6500 Y16.1852
G01 X22.6500 Y16.5212
G01 X22.6486 Y16.5494
G01 X22.6447 Y16.5761
G01 X22.6367 Y16.6083
G01 X22.6262 Y16.6370
G01 X22.6146 Y16.6614
G01 X22.6008 Y16.6846
G01 X22.5819 Y16.7103
G01 X22.5621 Y16.7321
G01 X22.5403 Y16.7519
G01 X22.5146 Y16.7708
G01 X22.4914 Y16.7846
G01 X22.4670 Y16.7962
G01 X22.4383 Y16.8067
G01 X22.4061 Y16.8147
G01 X22.3794 Y16.8186
G01 X22.3512 Y16.8200
G01 X21.6488 Y16.8200
G01 X21.6182 Y16.8183
G01 X21.5915 Y16.8142
G01 X21.5653 Y16.8077
G01 X21.5352 Y16.7972
G01 X21.5064 Y16.7834
G01 X21.4833 Y16.7694
G01 X21.4616 Y16.7534
G01 X21.4379 Y16.7321
G01 X21.4166 Y16.7084
G01 X21.4006 Y16.6867
G01 X21.3866 Y16.6636
G01 X21.3728 Y16.6348
G01 X21.3623 Y16.6047
G01 X21.3558 Y16.5785
G01 X21.3517 Y16.5518
G01 X21.3501 Y16.5225
G01 X21.3501 Y14.9775
G01 X21.3514 Y14.9506
G01 X21.3558 Y14.9215
G01 X21.3629 Y14.8929
G01 X21.3720 Y14.8675
G01 X21.3866 Y14.8364
G01 X21.4006 Y14.8133
G01 X21.4189 Y14.7887
G01 X21.4379 Y14.7679
G01 X21.4597 Y14.7481
G01 X21.4833 Y14.7306
G01 X21.5086 Y14.7154
G01 X21.5352 Y14.7028
G01 X21.5629 Y14.6929
G01 X21.5915 Y14.6858
G01 X21.6206 Y14.6814
G01 X21.6500 Y14.6800
G01 X22.3512 Y14.6800
G01 X22.3794 Y14.6814
G01 X22.4061 Y14.6853
G01 X22.4371 Y14.6929
G01 X22.4648 Y14.7028
G01 X22.4936 Y14.7166
G01 X22.5167 Y14.7306
G01 X22.5384 Y14.7466
G01 X22.5621 Y14.7679
G01 X22.5819 Y14.7897
G01 X22.6008 Y14.8154
G01 X22.6146 Y14.8386
G01 X22.6262 Y14.8630
G01 X22.6367 Y14.8917
G01 X22.6447 Y14.9239
G01 X22.6486 Y14.9506
G01 X22.6500 Y14.9788
G01 X22.6500 Y15.3148
G01 X23.1697 Y15.3148
G01 X26.0500 Y12.4345
G01 X26.0500 Y11.5655
G01 X22.9197 Y8.4352
G01 X22.0915 Y8.4352
G01 X22.0587 Y8.5044
G01 X22.0060 Y8.5924
G01 X21.9436 Y8.6769
G01 X21.8716 Y8.7566
G01 X21.7928 Y8.8279
G01 X21.7074 Y8.8910
G01 X21.6194 Y8.9437
G01 X21.5267 Y8.9876
G01 X21.4256 Y9.0239
G01 X21.3237 Y9.0494
G01 X21.2199 Y9.0648
G01 X21.1150 Y9.0700
G01 X21.0101 Y9.0648
G01 X20.9063 Y9.0494
G01 X20.8044 Y9.0239
G01 X20.7055 Y8.9886
G01 X20.6106 Y8.9437
G01 X20.5195 Y8.8890
G01 X20.4362 Y8.8271
G01 X20.3584 Y8.7566
G01 X20.2879 Y8.6788
G01 X20.2267 Y8.5965
G01 X20.1713 Y8.5044
G01 X20.1274 Y8.4117
G01 X20.0904 Y8.3082
G01 X20.0656 Y8.2087
G01 X20.0502 Y8.1049
G01 X20.0450 Y8.0000
G01 X20.0502 Y7.8951
G01 X20.0656 Y7.7913
G01 X20.0911 Y7.6894
G01 X20.1264 Y7.5905
G01 X20.1708 Y7.4967
G01 X20.2253 Y7.4055
G01 X20.2864 Y7.3231
G01 X20.3602 Y7.2417
G01 X20.4362 Y7.1729
G01 X20.5205 Y7.1103
G01 X20.6106 Y7.0563
G01 X20.7055 Y7.0114
G01 X20.8044 Y6.9761
G01 X20.9039 Y6.9511
G01 X21.0126 Y6.9350
G01 X21.1150 Y6.9300
G01 X21.2199 Y6.9352
G01 X21.3237 Y6.9506
G01 X21.4244 Y6.9757
G01 X21.5245 Y7.0114
G01 X21.6194 Y7.0563
G01 X21.7095 Y7.1103
G01 X21.7947 Y7.1737
G01 X21.8716 Y7.2434
G01 X21.9436 Y7.3231
G01 X22.0060 Y7.4076
G01 X22.0587 Y7.4956
G01 X22.0915 Y7.5648
G01 X23.1025 Y7.5649
G01 X23.1451 Y7.5672
G01 X23.1849 Y7.5732
G01 X23.2240 Y7.5829
G01 X23.2665 Y7.5979
G01 X23.3062 Y7.6168
G01 X23.3418 Y7.6382
G01 X23.3741 Y7.6621
G01 X23.4077 Y7.6923
G01 X24.4250 Y8.7095
G01 X27.0095 Y6.1250
G01 X23.8197 Y2.9352
G01 X21.7376 Y2.9352
G01 X21.7262 Y2.9670
G01 X21.7146 Y2.9914
G01 X21.6994 Y3.0167
G01 X21.6819 Y3.0403
G01 X21.6638 Y3.0604
G01 X21.6384 Y3.0834
G01 X21.6167 Y3.0994
G01 X21.5914 Y3.1146
G01 X21.5648 Y3.1272
G01 X21.5394 Y3.1363
G01 X21.5061 Y3.1447
G01 X21.4794 Y3.1486
G01 X21.4500 Y3.1500
G01 X20.5500 Y3.1500
G01 X20.5206 Y3.1486
G01 X20.4927 Y3.1445
G01 X20.4606 Y3.1363
G01 X20.4352 Y3.1272
G01 X20.4086 Y3.1146
G01 X20.3813 Y3.0980
G01 X20.3597 Y3.0819
G01 X20.3396 Y3.0638
G01 X20.3181 Y3.0403
G01 X20.2992 Y3.0146
G01 X20.2854 Y2.9914
G01 X20.2738 Y2.9670
G01 X20.2624 Y2.9352
G01 X16.4876 Y2.9352
G01 X16.4762 Y2.9670
G01 X16.4646 Y2.9914
G01 X16.4494 Y3.0167
G01 X16.4319 Y3.0403
G01 X16.4138 Y3.0604
G01 X16.3884 Y3.0834
G01 X16.3667 Y3.0994
G01 X16.3414 Y3.1146
G01 X16.3148 Y3.1272
G01 X16.2894 Y3.1363
G01 X16.2561 Y3.1447
G01 X16.2294 Y3.1486
G01 X16.2012 Y3.1500
G01 X15.3000 Y3.1500
G01 X15.2694 Y3.1484
G01 X15.2415 Y3.1442
G01 X15.2106 Y3.1363
G01 X15.1852 Y3.1272
G01 X15.1608 Y3.1157
G01 X15.1354 Y3.1008
G01 X15.1097 Y3.0819
G01 X15.0879 Y3.0621
G01 X15.0681 Y3.0403
G01 X15.0506 Y3.0167
G01 X15.0343 Y2.9892
G01 X15.0228 Y2.9648
G01 X15.0137 Y2.9394
G01 X15.0058 Y2.9085
G01 X15.0013 Y2.8770
G01 X15.0000 Y2.8500
G01 X15.0000 Y2.1500
G01 X15.0013 Y2.1218
G01 X15.0058 Y2.0915
G01 X15.0129 Y2.0629
G01 X15.0228 Y2.0352
G01 X15.0366 Y2.0064
G01 X15.0506 Y1.9833
G01 X15.0666 Y1.9616
G01 X15.0862 Y1.9396
G01 X15.1097 Y1.9181
G01 X15.1333 Y1.9006
G01 X15.1608 Y1.8843
G01 X15.1852 Y1.8728
G01 X15.2129 Y1.8629
G01 X15.2439 Y1.8553
G01 X15.2706 Y1.8514
G01 X15.2975 Y1.8501
G01 X16.2000 Y1.8500
G01 X16.2306 Y1.8516
G01 X16.2585 Y1.8558
G01 X16.2847 Y1.8623
G01 X16.3148 Y1.8728
G01 X16.3436 Y1.8866
G01 X16.3667 Y1.9006
G01 X16.3903 Y1.9181
G01 X16.4138 Y1.9396
G01 X16.4319 Y1.9597
G01 X16.4494 Y1.9833
G01 X16.4657 Y2.0108
G01 X16.4772 Y2.0352
G01 X16.4867 Y2.0617
G00 Z2.0000
G00 X16.5439 Y1.9662
G01 F60.00
G01 Z-0.1000
G01 F120.00
G01 X16.5482 Y1.9748
G01 X20.2018 Y1.9748
G01 X20.2077 Y1.9631
G01 X20.2239 Y1.9362
G01 X20.2297 Y1.9277
G01 X20.2485 Y1.9026
G01 X20.2742 Y1.8742
G01 X20.2974 Y1.8530
G01 X20.3080 Y1.8443
G01 X20.3333 Y1.8257
G01 X20.3602 Y1.8094
G01 X20.3692 Y1.8045
G01 X20.3976 Y1.7910
G01 X20.4072 Y1.7872
G01 X20.4368 Y1.7768
G01 X20.4672 Y1.7690
G01 X20.4773 Y1.7669
G01 X20.5118 Y1.7619
G01 X20.5500 Y1.7600
G01 X21.4500 Y1.7600
G01 X21.4814 Y1.7614
G01 X21.4950 Y1.7627
G01 X21.5261 Y1.7675
G01 X21.5632 Y1.7768
G01 X21.5928 Y1.7872
G01 X21.6055 Y1.7925
G01 X21.6338 Y1.8061
G01 X21.6638 Y1.8239
G01 X21.6723 Y1.8297
G01 X21.6920 Y1.8443
G01 X21.7000 Y1.8507
G01 X21.7258 Y1.8742
G01 X21.7470 Y1.8974
G01 X21.7557 Y1.9080
G01 X21.7743 Y1.9333
G01 X21.7923 Y1.9631
G01 X21.7982 Y1.9748
G01 X24.0000 Y1.9748
G01 X24.0515 Y1.9773
G01 X24.0957 Y1.9837
G01 X24.1092 Y1.9864
G01 X24.1525 Y1.9974
G01 X24.2010 Y2.0148
G01 X24.2414 Y2.0337
G01 X24.2536 Y2.0402
G01 X24.2918 Y2.0633
G01 X24.3278 Y2.0898
G01 X24.3384 Y2.0985
G01 X24.3689 Y2.1262
G01 X27.6250 Y5.3823
G01 X29.1286 Y3.8786
G01 X29.1668 Y3.8440
G01 X29.2026 Y3.8173
G01 X29.2140 Y3.8096
G01 X29.2464 Y3.7902
G01 X29.2555 Y3.7852
G01 X29.2990 Y3.7648
G01 X29.3475 Y3.7474
G01 X29.3975 Y3.7349
G01 X29.4417 Y3.7282
G01 X29.4519 Y3.7270
G01 X29.5000 Y3.7248
G01 X30.2166 Y3.7248
G01 X30.2286 Y3.7002
G01 X30.2836 Y3.6084
G01 X30.2895 Y3.5999
G01 X30.3533 Y3.5141
G01 X30.4298 Y3.4298
G01 X30.5089 Y3.3578
G01 X30.5168 Y3.3512
G01 X30.5999 Y3.2895
G01 X30.6113 Y3.2818
G01 X30.7032 Y3.2270
G01 X30.7998 Y3.1811
G01 X30.8125 Y3.1758
G01 X30.9133 Y3.1399
G01 X31.0203 Y3.1130
G01 X31.0305 Y3.1111
G01 X31.1363 Y3.0956
G01 X31.2500 Y3.0900
G01 X31.3637 Y3.0956
G01 X31.4695 Y3.1111
G01 X31.4830 Y3.1138
G01 X31.5867 Y3.1399
G01 X31.6875 Y3.1758
G01 X31.7002 Y3.1811
G01 X31.7907 Y3.2239
G01 X31.8028 Y3.2304
G01 X31.8945 Y3.2855
G01 X31.9805 Y3.3491
G01 X31.9911 Y3.3578
G01 X32.0653 Y3.4250
G01 X32.0750 Y3.4347
G01 X32.1467 Y3.5141
G01 X32.2145 Y3.6055
G01 X32.2730 Y3.7032
G01 X32.3189 Y3.7998
G01 X32.3242 Y3.8125
G01 X32.3579 Y3.9067
G01 X32.3619 Y3.9199
G01 X32.3877 Y4.0237
G01 X32.4036 Y4.1295
G01 X32.4049 Y4.1432
G01 X32.4100 Y4.2500
G01 X32.4044 Y4.3637
G01 X32.3877 Y4.4763
G01 X32.3619 Y4.5801
G01 X32.3579 Y4.5933
G01 X32.3217 Y4.6939
G01 X32.2761 Y4.7907
G01 X32.2696 Y4.8028
G01 X32.2182 Y4.8887
G01 X32.2105 Y4.9001
G01 X32.1467 Y4.9859
G01 X32.0750 Y5.0653
G01 X32.0653 Y5.0750
G01 X31.9911 Y5.1422
G01 X31.9805 Y5.1509
G01 X31.8945 Y5.2145
G01 X31.8028 Y5.2696
G01 X31.7907 Y5.2761
G01 X31.6939 Y5.3217
G01 X31.5933 Y5.3579
G01 X31.5801 Y5.3619
G01 X31.4763 Y5.3877
G01 X31.3637 Y5.4044
G01 X31.2500 Y5.4100
G01 X31.1432 Y5.4049
G01 X31.1329 Y5.4040
G01 X31.0305 Y5.3889
G01 X31.0170 Y5.3862
G01 X30.9133 Y5.3601
G01 X30.8125 Y5.3242
G01 X30.7998 Y5.3189
G01 X30.7032 Y5.2730
G01 X30.6113 Y5.2182
G01 X30.6027 Y5.2126
G01 X30.5195 Y5.1509
G01 X30.5089 Y5.1422
G01 X30.4298 Y5.0702
G01 X30.3555 Y4.9885
G01 X30.3491 Y4.9805
G01 X30.2855 Y4.8945
G01 X30.2286 Y4.7998
G01 X30.2166 Y4.7752
G01 X29.7175 Y4.7752
G01 X25.1677 Y9.3250
G01 X26.0760 Y10.2332
G01 X26.1053 Y10.1940
G01 X26.1427 Y10.1524
G01 X26.1524 Y10.1427
G01 X26.1888 Y10.1098
G01 X26.1994 Y10.1010
G01 X26.2444 Y10.0679
G01 X26.2923 Y10.0390
G01 X26.3044 Y10.0325
G01 X26.3551 Y10.0087
G01 X26.4142 Y9.9876
G01 X26.4751 Y9.9723
G01 X26.5373 Y9.9631
G01 X26.6000 Y9.9600
G01 X27.6000 Y9.9600
G01 X27.6593 Y9.9628
G01 X27.6696 Y9.9639
G01 X27.7181 Y9.9711
G01 X27.7316 Y9.9738
G01 X27.7858 Y9.9876
G01 X27.8385 Y10.0062
G01 X27.8512 Y10.0115
G01 X27.9017 Y10.0356
G01 X27.9498 Y10.0642
G01 X27.9584 Y10.0698
G01 X28.0060 Y10.1053
G01 X28.0525 Y10.1475
G01 X28.0947 Y10.1940
G01 X28.1321 Y10.2444
G01 X28.1644 Y10.2983
G01 X28.1913 Y10.3551
G01 X28.2124 Y10.4142
G01 X28.2277 Y10.4751
G01 X28.2369 Y10.5373
G01 X28.2400 Y10.5966
G01 X28.2400 Y11.4748
G01 X32.2824 Y11.4748
G01 X32.2992 Y11.4279
G01 X32.3177 Y11.3884
G01 X32.3242 Y11.3763
G01 X32.3468 Y11.3389
G01 X32.3727 Y11.3037
G01 X32.3814 Y11.2931
G01 X32.4108 Y11.2608
G01 X32.4431 Y11.2314
G01 X32.4537 Y11.2227
G01 X32.4889 Y11.1968
G01 X32.5263 Y11.1742
G01 X32.5384 Y11.1677
G01 X32.5779 Y11.1492
G01 X32.6190 Y11.1343
G01 X32.6321 Y11.1303
G01 X32.6678 Y11.1214
G01 X32.6779 Y11.1193
G01 X32.7245 Y11.1125
G01 X32.7750 Y11.1100
G01 X34.0250 Y11.1100
G01 X34.0755 Y11.1125
G01 X34.1187 Y11.1187
G01 X34.1288 Y11.1206
G01 X34.1679 Y11.1303
G01 X34.1810 Y11.1343
G01 X34.2221 Y11.1492
G01 X34.2616 Y11.1677
G01 X34.2737 Y11.1742
G01 X34.3111 Y11.1968
G01 X34.3463 Y11.2227
G01 X34.3569 Y11.2314
G01 X34.3892 Y11.2608
G01 X34.4186 Y11.2931
G01 X34.4273 Y11.3037
G01 X34.4532 Y11.3389
G01 X34.4758 Y11.3763
G01 X34.4823 Y11.3884
G01 X34.5008 Y11.4279
G01 X34.5157 Y11.4690
G01 X34.5197 Y11.4821
G01 X34.5301 Y11.5245
G01 X34.5375 Y11.5745
G01 X34.5400 Y11.6250
G01 X34.5400 Y12.3750
G01 X34.5380 Y12.4186
G01 X34.5367 Y12.4323
G01 X34.5301 Y12.4755
G01 X34.5178 Y12.5245
G01 X34.5008 Y12.5721
G01 X34.4823 Y12.6116
G01 X34.4758 Y12.6237
G01 X34.4551 Y12.6582
G01 X34.4493 Y12.6667
G01 X34.4231 Y12.7017
G01 X34.3939 Y12.7342
G01 X34.3842 Y12.7439
G01 X34.3517 Y12.7731
G01 X34.3140 Y12.8013
G01 X34.3053 Y12.8069
G01 X34.2678 Y12.8292
G01 X34.2221 Y12.8508
G01 X34.1745 Y12.8678
G01 X34.1322 Y12.8786
G01 X34.1187 Y12.8813
G01 X34.0755 Y12.8875
G01 X34.0250 Y12.8900
G01 X32.7716 Y12.8900
G01 X32.7245 Y12.8875
G01 X32.6813 Y12.8813
G01 X32.6712 Y12.8794
G01 X32.6321 Y12.8697
G01 X32.6190 Y12.8657
G01 X32.5779 Y12.8508
G01 X32.5322 Y12.8292
G01 X32.4889 Y12.8032
G01 X32.4537 Y12.7773
G01 X32.4457 Y12.7709
G01 X32.4158 Y12.7439
G01 X32.4061 Y12.7342
G01 X32.3769 Y12.7017
G01 X32.3468 Y12.6611
G01 X32.3242 Y12.6237
G01 X32.3177 Y12.6116
G01 X32.2992 Y12.5721
G01 X32.2824 Y12.5252
G01 X28.2400 Y12.5252
G01 X28.2400 Y13.4034
G01 X28.2369 Y13.4627
G01 X28.2277 Y13.5249
G01 X28.2124 Y13.5858
G01 X28.1913 Y13.6449
G01 X28.1644 Y13.7017
G01 X28.1321 Y13.7556
G01 X28.0947 Y13.8060
G01 X28.0525 Y13.8525
G01 X28.0060 Y13.8947
G01 X27.9612 Y13.9282
G01 X27.9527 Y13.9340
G01 X27.9077 Y13.9610
G01 X27.8956 Y13.9675
G01 X27.8449 Y13.9913
G01 X27.7923 Y14.0103
G01 X27.7792 Y14.0143
G01 X27.7249 Y14.0277
G01 X27.6696 Y14.0361
G01 X27.6593 Y14.0372
G01 X27.6000 Y14.0400
G01 X26.6000 Y14.0400
G01 X26.5373 Y14.0369
G01 X26.4751 Y14.0277
G01 X26.4142 Y14.0124
G01 X26.3551 Y13.9913
G01 X26.3044 Y13.9675
G01 X26.2923 Y13.9610
G01 X26.2444 Y13.9321
G01 X26.1994 Y13.8990
G01 X26.1888 Y13.8902
G01 X26.1524 Y13.8573
G01 X26.1427 Y13.8476
G01 X26.1053 Y13.8060
G01 X26.0760 Y13.7668
G01 X23.7214 Y16.1214
G01 X23.6832 Y16.1560
G01 X23.6418 Y16.1867
G01 X23.5976 Y16.2132
G01 X23.5573 Y16.2324
G01 X23.5446 Y16.2377
G01 X23.5025 Y16.2526
G01 X23.4592 Y16.2636
G01 X23.4457 Y16.2663
G01 X23.4015 Y16.2727
G01 X23.3500 Y16.2752
G01 X22.7400 Y16.2752
G01 X22.7400 Y16.5200
G01 X22.7384 Y16.5548
G01 X22.7373 Y16.5650
G01 X22.7325 Y16.5961
G01 X22.7250 Y16.6266
G01 X22.7211 Y16.6397
G01 X22.7128 Y16.6628
G01 X22.7090 Y16.6724
G01 X22.6970 Y16.6977
G01 X22.6923 Y16.7069
G01 X22.6761 Y16.7338
G01 X22.6703 Y16.7423
G01 X22.6515 Y16.7674
G01 X22.6305 Y16.7908
G01 X22.6233 Y16.7982
G01 X22.6026 Y16.8170
G01 X22.5920 Y16.8257
G01 X22.5667 Y16.8443
G01 X22.5338 Y16.8639
G01 X22.4992 Y16.8803
G01 X22.4632 Y16.8932
G01 X22.4328 Y16.9010
G01 X22.4193 Y16.9037
G01 X22.3882 Y16.9081
G01 X22.3534 Y16.9100
G01 X21.6466 Y16.9100
G01 X21.6152 Y16.9084
G01 X21.6050 Y16.9073
G01 X21.5739 Y16.9025
G01 X21.5401 Y16.8942
G01 X21.5303 Y16.8911
G01 X21.5008 Y16.8803
G01 X21.4723 Y16.8670
G01 X21.4602 Y16.8606
G01 X21.4333 Y16.8443
G01 X21.4080 Y16.8257
G01 X21.4000 Y16.8193
G01 X21.3767 Y16.7982
G01 X21.3695 Y16.7908
G01 X21.3485 Y16.7674
G01 X21.3297 Y16.7423
G01 X21.3239 Y16.7338
G01 X21.3061 Y16.7038
G01 X21.2925 Y16.6755
G01 X21.2884 Y16.6661
G01 X21.2778 Y16.6365
G01 X21.2750 Y16.6266
G01 X21.2675 Y16.5961
G01 X21.2627 Y16.5650
G01 X21.2614 Y16.5514
G01 X21.2600 Y16.5200
G01 X21.2602 Y14.9731
G01 X21.2619 Y14.9418
G01 X21.2675 Y14.9039
G01 X21.2768 Y14.8668
G01 X21.2884 Y14.8339
G01 X21.2925 Y14.8245
G01 X21.3030 Y14.8023
G01 X21.3094 Y14.7902
G01 X21.3257 Y14.7633
G01 X21.3443 Y14.7380
G01 X21.3507 Y14.7300
G01 X21.3742 Y14.7042
G01 X21.4026 Y14.6785
G01 X21.4333 Y14.6557
G01 X21.4662 Y14.6361
G01 X21.5008 Y14.6197
G01 X21.5368 Y14.6068
G01 X21.5739 Y14.5975
G01 X21.6084 Y14.5923
G01 X21.6186 Y14.5914
G01 X21.6500 Y14.5900
G01 X22.3534 Y14.5900
G01 X22.3848 Y14.5916
G01 X22.3950 Y14.5927
G01 X22.4261 Y14.5975
G01 X22.4599 Y14.6058
G01 X22.4697 Y14.6089
G01 X22.4992 Y14.6197
G01 X22.5338 Y14.6361
G01 X22.5667 Y14.6557
G01 X22.5920 Y14.6743
G01 X22.6026 Y14.6830
G01 X22.6233 Y14.7018
G01 X22.6305 Y14.7092
G01 X22.6515 Y14.7326
G01 X22.6703 Y14.7577
G01 X22.6761 Y14.7662
G01 X22.6923 Y14.7931
G01 X22.6970 Y14.8023
G01 X22.7090 Y14.8276
G01 X22.7128 Y14.8372
G01 X22.7211 Y14.8603
G01 X22.7250 Y14.8734
G01 X22.7325 Y14.9039
G01 X22.7373 Y14.9350
G01 X22.7384 Y14.9452
G01 X22.7400 Y14.9800
G01 X22.7400 Y15.2248
G01 X23.1325 Y15.2248
G01 X25.9600 Y12.3973
G01 X25.9600 Y11.6027
G01 X22.8825 Y8.5252
G01 X22.1484 Y8.5252
G01 X22.1364 Y8.5498
G01 X22.0814 Y8.6416
G01 X22.0755 Y8.6501
G01 X22.0117 Y8.7359
G01 X21.9352 Y8.8202
G01 X21.8561 Y8.8922
G01 X21.8455 Y8.9009
G01 X21.7651 Y8.9605
G01 X21.7537 Y8.9682
G01 X21.6618 Y9.0230
G01 X21.5652 Y9.0689
G01 X21.5525 Y9.0742
G01 X21.4517 Y9.1101
G01 X21.3480 Y9.1362
G01 X21.3379 Y9.1383
G01 X21.2287 Y9.1544
G01 X21.1150 Y9.1600
G01 X21.0013 Y9.1544
G01 X20.8887 Y9.1377
G01 X20.7783 Y9.1101
G01 X20.6711 Y9.0717
G01 X20.5682 Y9.0230
G01 X20.4763 Y8.9682
G01 X20.4677 Y8.9626
G01 X20.3791 Y8.8967
G01 X20.2948 Y8.8202
G01 X20.2183 Y8.7359
G01 X20.1545 Y8.6501
G01 X20.1468 Y8.6387
G01 X20.0920 Y8.5468
G01 X20.0461 Y8.4502
G01 X20.0408 Y8.4375
G01 X20.0071 Y8.3433
G01 X20.0031 Y8.3301
G01 X19.9773 Y8.2263
G01 X19.9606 Y8.1137
G01 X19.9550 Y8.0000
G01 X19.9606 Y7.8863
G01 X19.9773 Y7.7737
G01 X20.0049 Y7.6633
G01 X20.0433 Y7.5561
G01 X20.0904 Y7.4562
G01 X20.0954 Y7.4472
G01 X20.1505 Y7.3555
G01 X20.2141 Y7.2695
G01 X20.2228 Y7.2589
G01 X20.2900 Y7.1847
G01 X20.2997 Y7.1750
G01 X20.3791 Y7.1033
G01 X20.4705 Y7.0355
G01 X20.5682 Y6.9770
G01 X20.6711 Y6.9283
G01 X20.7783 Y6.8899
G01 X20.8820 Y6.8638
G01 X20.8955 Y6.8611
G01 X20.9945 Y6.8464
G01 X21.0082 Y6.8451
G01 X21.1150 Y6.8400
G01 X21.2287 Y6.8456
G01 X21.3413 Y6.8623
G01 X21.4451 Y6.8881
G01 X21.4583 Y6.8921
G01 X21.5589 Y6.9283
G01 X21.6618 Y6.9770
G01 X21.7595 Y7.0355
G01 X21.8509 Y7.1033
G01 X21.9352 Y7.1798
G01 X22.0117 Y7.2641
G01 X22.0755 Y7.3499
G01 X22.0814 Y7.3584
G01 X22.1364 Y7.4502
G01 X22.1484 Y7.4748
G01 X23.1000 Y7.4748
G01 X23.1446 Y7.4768
G01 X23.1583 Y7.4782
G01 X23.2025 Y7.4849
G01 X23.2525 Y7.4974
G01 X23.3010 Y7.5148
G01 X23.3414 Y7.5337
G01 X23.3506 Y7.5385
G01 X23.3918 Y7.5633
G01 X23.4278 Y7.5898
G01 X23.4384 Y7.5985
G01 X23.4689 Y7.6262
G01 X24.4250 Y8.5823
G01 X26.8823 Y6.1250
G01 X23.7825 Y3.0252
G01 X21.7982 Y3.0252
G01 X21.7923 Y3.0369
G01 X21.7743 Y3.0667
G01 X21.7557 Y3.0920
G01 X21.7470 Y3.1026
G01 X21.7258 Y3.1258
G01 X21.7000 Y3.1493
G01 X21.6920 Y3.1557
G01 X21.6723 Y3.1703
G01 X21.6638 Y3.1761
G01 X21.6338 Y3.1939
G01 X21.6055 Y3.2075
G01 X21.5928 Y3.2128
G01 X21.5632 Y3.2232
G01 X21.5261 Y3.2325
G01 X21.4950 Y3.2373
G01 X21.4814 Y3.2386
G01 X21.4500 Y3.2400
G01 X20.5500 Y3.2400
G01 X20.5118 Y3.2381
G01 X20.4773 Y3.2331
G01 X20.4672 Y3.2310
G01 X20.4368 Y3.2232
G01 X20.4072 Y3.2128
G01 X20.3976 Y3.2090
G01 X20.3692 Y3.1955
G01 X20.3602 Y3.1906
G01 X20.3333 Y3.1743
G01 X20.3080 Y3.1557
G01 X20.2974 Y3.1470
G01 X20.2742 Y3.1258
G01 X20.2485 Y3.0974
G01 X20.2297 Y3.0723
G01 X20.2239 Y3.0638
G01 X20.2077 Y3.0369
G01 X20.2018 Y3.0252
G01 X16.5482 Y3.0252
G01 X16.5423 Y3.0369
G01 X16.5243 Y3.0667
G01 X16.5057 Y3.0920
G01 X16.4970 Y3.1026
G01 X16.4758 Y3.1258
G01 X16.4500 Y3.1493
G01 X16.4420 Y3.1557
G01 X16.4223 Y3.1703
G01 X16.4138 Y3.1761
G01 X16.3838 Y3.1939
G01 X16.3555 Y3.2075
G01 X16.3428 Y3.2128
G01 X16.3132 Y3.2232
G01 X16.2761 Y3.2325
G01 X16.2450 Y3.2373
G01 X16.2314 Y3.2386
G01 X16.2000 Y3.2400
G01 X15.3000 Y3.2400
G01 X15.2686 Y3.2386
G01 X15.2550 Y3.2373
G01 X15.2273 Y3.2331
G01 X15.2172 Y3.2310
G01 X15.1868 Y3.2232
G01 X15.1572 Y3.2128
G01 X15.1476 Y3.2090
G01 X15.1192 Y3.1955
G01 X15.1102 Y3.1906
G01 X15.0891 Y3.1779
G01 X15.0805 Y3.1723
G01 X15.0553 Y3.1536
G01 X15.0474 Y3.1470
G01 X15.0267 Y3.1282
G01 X15.0195 Y3.1208
G01 X14.9985 Y3.0974
G01 X14.9777 Y3.0695
G01 X14.9721 Y3.0609
G01 X14.9561 Y3.0338
G01 X14.9425 Y3.0055
G01 X14.9372 Y2.9928
G01 X14.9268 Y2.9632
G01 X14.9182 Y2.9294
G01 X14.9163 Y2.9193
G01 X14.9127 Y2.8950
G01 X14.9116 Y2.8848
G01 X14.9100 Y2.8500
G01 X14.9100 Y2.1500
G01 X14.9116 Y2.1152
G01 X14.9127 Y2.1050
G01 X14.9175 Y2.0739
G01 X14.9268 Y2.0368
G01 X14.9397 Y2.0008
G01 X14.9530 Y1.9723
G01 X14.9594 Y1.9602
G01 X14.9757 Y1.9333
G01 X14.9943 Y1.9080
G01 X15.0007 Y1.9000
G01 X15.0195 Y1.8792
G01 X15.0267 Y1.8718
G01 X15.0500 Y1.8507
G01 X15.0580 Y1.8443
G01 X15.0805 Y1.8277
G01 X15.0891 Y1.8221
G01 X15.1102 Y1.8094
G01 X15.1192 Y1.8045
G01 X15.1508 Y1.7897
G01 X15.1803 Y1.7789
G01 X15.1934 Y1.7750
G01 X15.2239 Y1.7675
G01 X15.2550 Y1.7627
