(G-CODE GENERATED BY FLATCAM v2024.4 - www.flatcam.org - Version Date: 2024/04/15)

(Name: wled-esp01-controller-B_Cu.gbr_0.1000_iso_cnc)
(Type: G-code from Geometry)
(Units: MM)

(Created on Wednesday, 31 December 2025 at 12:24)

(This preprocessor is the default preprocessor used by FlatCAM.)
(It is made to work with MACH3 compatible motion controllers.)

(TOOL DIAMETER: 0.1 mm)
(Feedrate_XY: 120.0 mm/min)
(Feedrate_Z: 60.0 mm/min)
(Feedrate rapids 1500.0 mm/min)

(Z_Cut: 0.0 mm)
(Z_Move: 2.0 mm)
(Z Start: None mm)
(Z End: 15.0 mm)
(X,Y End: None mm)
(Steps per circle: 64)
(Preprocessor Geometry: default)

(X range:   99.4505 ...  138.0495  mm)
(Y range:  -92.2995 ...  -59.2005  mm)

(Spindle Speed: 0.0 RPM)
G21
G90
G94

G01 F120.00

M5
G00 Z15.0000
G00 X0.0000 Y0.0000
T1
M6    
(MSG, Change to Tool Dia = 0.1000)
M0
G00 Z15.0000

M03
G01 F120.00
G00 X99.4507 Y-59.3697
G01 F60.00
G01 Z0.0000
G01 F120.00
G01 X99.4505 Y-92.1255
G01 X99.4514 Y-92.1350
G01 X99.4628 Y-92.1876
G01 X99.4646 Y-92.1936
G01 X99.4676 Y-92.2005
G01 X99.4708 Y-92.2058
G01 X99.4739 Y-92.2098
G01 X99.5197 Y-92.2626
G01 X99.5250 Y-92.2678
G01 X99.5331 Y-92.2735
G01 X99.5422 Y-92.2774
G01 X99.6116 Y-92.2978
G01 X99.6186 Y-92.2991
G01 X99.6245 Y-92.2995
G01 X137.8755 Y-92.2995
G01 X137.8850 Y-92.2986
G01 X137.9376 Y-92.2872
G01 X137.9448 Y-92.2850
G01 X137.9505 Y-92.2824
G01 X137.9548 Y-92.2799
G01 X137.9598 Y-92.2761
G01 X138.0126 Y-92.2303
G01 X138.0178 Y-92.2250
G01 X138.0235 Y-92.2169
G01 X138.0274 Y-92.2078
G01 X138.0478 Y-92.1384
G01 X138.0490 Y-92.1326
G01 X138.0495 Y-92.1255
G01 X138.0495 Y-59.3745
G01 X138.0486 Y-59.3650
G01 X138.0372 Y-59.3124
G01 X138.0354 Y-59.3064
G01 X138.0324 Y-59.2995
G01 X138.0299 Y-59.2952
G01 X138.0261 Y-59.2902
G01 X137.9803 Y-59.2374
G01 X137.9750 Y-59.2322
G01 X137.9669 Y-59.2265
G01 X137.9578 Y-59.2226
G01 X137.8884 Y-59.2022
G01 X137.8826 Y-59.2010
G01 X137.8755 Y-59.2005
G01 X99.6245 Y-59.2005
G01 X99.6150 Y-59.2014
G01 X99.5624 Y-59.2128
G01 X99.5564 Y-59.2146
G01 X99.5506 Y-59.2170
G01 X99.5463 Y-59.2195
G01 X99.5412 Y-59.2231
G01 X99.4856 Y-59.2713
G01 X99.4822 Y-59.2750
G01 X99.4785 Y-59.2799
G01 X99.4754 Y-59.2853
G01 X99.4730 Y-59.2910
G01 X99.4525 Y-59.3604
G01 X99.4507 Y-59.3697
G00 Z2.0000
G00 X105.1759 Y-62.9642
G01 F60.00
G01 Z0.0000
G01 F120.00
G01 X105.2533 Y-62.9366
G01 X105.3342 Y-62.9163
G01 X105.4167 Y-62.9041
G01 X105.5012 Y-62.9000
G01 X105.5833 Y-62.9041
G01 X105.6670 Y-62.9166
G01 X105.7479 Y-62.9370
G01 X105.8241 Y-62.9642
G01 X105.8496 Y-62.9761
G01 X106.6507 Y-62.1750
G01 X106.5857 Y-62.1252
G01 X106.3643 Y-61.9973
G01 X106.1281 Y-61.8995
G01 X105.8812 Y-61.8334
G01 X105.6278 Y-61.8000
G01 X105.3722 Y-61.8000
G01 X105.1188 Y-61.8334
G01 X104.8719 Y-61.8995
G01 X104.6357 Y-61.9973
G01 X104.4143 Y-62.1252
G01 X104.3493 Y-62.1750
G01 X105.1504 Y-62.9761
G01 X105.1759 Y-62.9642
G00 Z2.0000
G00 X104.7142 Y-64.0741
G01 F60.00
G01 Z0.0000
G01 F120.00
G01 X104.6866 Y-63.9967
G01 X104.6663 Y-63.9158
G01 X104.6541 Y-63.8333
G01 X104.6500 Y-63.7488
G01 X104.6541 Y-63.6667
G01 X104.6666 Y-63.5830
G01 X104.6870 Y-63.5021
G01 X104.7142 Y-63.4259
G01 X104.7261 Y-63.4004
G01 X103.9250 Y-62.5993
G01 X103.8752 Y-62.6643
G01 X103.7473 Y-62.8857
G01 X103.6495 Y-63.1219
G01 X103.5834 Y-63.3688
G01 X103.5500 Y-63.6222
G01 X103.5500 Y-63.8778
G01 X103.5834 Y-64.1312
G01 X103.6495 Y-64.3781
G01 X103.7473 Y-64.6143
G01 X103.8752 Y-64.8357
G01 X103.9250 Y-64.9007
G01 X104.7261 Y-64.0996
G01 X104.7142 Y-64.0741
G00 Z2.0000
G00 X105.8241 Y-64.5358
G01 F60.00
G01 Z0.0000
G01 F120.00
G01 X105.7467 Y-64.5634
G01 X105.6658 Y-64.5837
G01 X105.5833 Y-64.5959
G01 X105.4988 Y-64.6000
G01 X105.4167 Y-64.5959
G01 X105.3330 Y-64.5834
G01 X105.2521 Y-64.5630
G01 X105.1759 Y-64.5358
G01 X105.1504 Y-64.5239
G01 X104.3493 Y-65.3250
G01 X104.4143 Y-65.3748
G01 X104.6357 Y-65.5027
G01 X104.8719 Y-65.6005
G01 X105.1188 Y-65.6666
G01 X105.3722 Y-65.7000
G01 X105.6278 Y-65.7000
G01 X105.8812 Y-65.6666
G01 X106.1281 Y-65.6005
G01 X106.3643 Y-65.5027
G01 X106.5857 Y-65.3748
G01 X106.6507 Y-65.3250
G01 X105.8496 Y-64.5239
G01 X105.8241 Y-64.5358
G00 Z2.0000
G00 X105.2251 Y-70.6098
G01 F60.00
G01 Z0.0000
G01 F120.00
G01 X105.9473 Y-70.6100
G01 X105.9753 Y-70.6199
G01 X106.0658 Y-70.6424
G01 X106.1568 Y-70.6559
G01 X106.2500 Y-70.6605
G01 X110.8548 Y-70.6605
G01 X110.8548 Y-73.2797
G01 X106.6197 Y-77.5148
G01 X105.6453 Y-77.5148
G01 X105.6416 Y-77.4909
G01 X105.6313 Y-77.4505
G01 X105.6176 Y-77.4124
G01 X105.6004 Y-77.3757
G01 X105.5770 Y-77.3369
G01 X105.5535 Y-77.3054
G01 X105.5246 Y-77.2736
G01 X105.4946 Y-77.2465
G01 X105.4611 Y-77.2216
G01 X105.4253 Y-77.2002
G01 X105.3899 Y-77.1833
G01 X105.3460 Y-77.1676
G01 X105.3079 Y-77.1582
G01 X105.2667 Y-77.1520
G01 X105.2250 Y-77.1500
G01 X103.9750 Y-77.1500
G01 X103.9358 Y-77.1519
G01 X103.8897 Y-77.1587
G01 X103.8516 Y-77.1683
G01 X103.8124 Y-77.1824
G01 X103.7725 Y-77.2014
G01 X103.7389 Y-77.2216
G01 X103.7063 Y-77.2457
G01 X103.6745 Y-77.2745
G01 X103.6465 Y-77.3054
G01 X103.6216 Y-77.3389
G01 X103.6002 Y-77.3747
G01 X103.5824 Y-77.4124
G01 X103.5683 Y-77.4516
G01 X103.5582 Y-77.4921
G01 X103.5523 Y-77.5309
G01 X103.5500 Y-77.5750
G01 X103.5500 Y-78.3250
G01 X103.5522 Y-78.3679
G01 X103.5582 Y-78.4079
G01 X103.5676 Y-78.4460
G01 X103.5833 Y-78.4899
G01 X103.6002 Y-78.5253
G01 X103.6216 Y-78.5611
G01 X103.6465 Y-78.5946
G01 X103.6728 Y-78.6237
G01 X103.7073 Y-78.6550
G01 X103.7389 Y-78.6784
G01 X103.7747 Y-78.6998
G01 X103.8124 Y-78.7176
G01 X103.8493 Y-78.7309
G01 X103.8933 Y-78.7421
G01 X103.9333 Y-78.7480
G01 X103.9750 Y-78.7500
G01 X105.2250 Y-78.7500
G01 X105.2691 Y-78.7477
G01 X105.3079 Y-78.7418
G01 X105.3484 Y-78.7317
G01 X105.3876 Y-78.7176
G01 X105.4232 Y-78.7009
G01 X105.4631 Y-78.6770
G01 X105.4946 Y-78.6535
G01 X105.5246 Y-78.6264
G01 X105.5535 Y-78.5946
G01 X105.5770 Y-78.5631
G01 X105.6004 Y-78.5243
G01 X105.6176 Y-78.4876
G01 X105.6313 Y-78.4495
G01 X105.6416 Y-78.4091
G01 X105.6453 Y-78.3852
G01 X106.8000 Y-78.3852
G01 X106.8402 Y-78.3833
G01 X106.8849 Y-78.3768
G01 X106.9287 Y-78.3657
G01 X106.9665 Y-78.3521
G01 X107.0030 Y-78.3349
G01 X107.0408 Y-78.3125
G01 X107.0761 Y-78.2864
G01 X107.1077 Y-78.2577
G01 X111.5977 Y-73.7677
G01 X111.6264 Y-73.7361
G01 X111.6518 Y-73.7018
G01 X111.6738 Y-73.6651
G01 X111.6921 Y-73.6265
G01 X111.7065 Y-73.5863
G01 X111.7168 Y-73.5449
G01 X111.7231 Y-73.5027
G01 X111.7251 Y-73.4625
G01 X111.7252 Y-70.5544
G01 X111.7391 Y-70.5476
G01 X111.8180 Y-70.5003
G01 X111.8930 Y-70.4447
G01 X111.9621 Y-70.3821
G01 X112.0231 Y-70.3148
G01 X112.0803 Y-70.2380
G01 X112.1270 Y-70.1602
G01 X112.1676 Y-70.0748
G01 X112.1748 Y-70.0550
G01 X112.2100 Y-70.0497
G01 X112.3096 Y-70.0248
G01 X112.4108 Y-69.9885
G01 X112.5068 Y-69.9429
G01 X112.5947 Y-69.8901
G01 X112.6782 Y-69.8283
G01 X112.7570 Y-69.7570
G01 X113.4434 Y-69.0705
G01 X134.0000 Y-69.0705
G01 X134.1049 Y-69.0654
G01 X134.2088 Y-69.0499
G01 X134.3131 Y-69.0236
G01 X134.4119 Y-68.9880
G01 X134.5046 Y-68.9441
G01 X134.5783 Y-68.9000
G01 X135.0225 Y-68.8999
G01 X135.0298 Y-68.8990
G01 X135.0357 Y-68.8975
G01 X135.0414 Y-68.8952
G01 X135.0467 Y-68.8922
G01 X135.0527 Y-68.8879
G01 X135.0570 Y-68.8836
G01 X135.0609 Y-68.8788
G01 X135.0647 Y-68.8725
G01 X135.0666 Y-68.8680
G01 X135.0685 Y-68.8621
G01 X135.0696 Y-68.8561
G01 X135.0700 Y-68.8500
G01 X135.0700 Y-68.0116
G01 X135.0705 Y-68.0000
G01 X135.0700 Y-67.9884
G01 X135.0700 Y-67.1500
G01 X135.0696 Y-67.1439
G01 X135.0678 Y-67.1355
G01 X135.0647 Y-67.1275
G01 X135.0602 Y-67.1202
G01 X135.0545 Y-67.1138
G01 X135.0478 Y-67.1084
G01 X135.0403 Y-67.1043
G01 X135.0333 Y-67.1018
G01 X135.0249 Y-67.1002
G01 X134.5783 Y-67.1000
G01 X134.5046 Y-67.0559
G01 X134.4119 Y-67.0120
G01 X134.3108 Y-66.9756
G01 X134.2088 Y-66.9501
G01 X134.1074 Y-66.9349
G01 X134.0000 Y-66.9295
G01 X112.9988 Y-66.9295
G01 X112.8951 Y-66.9346
G01 X112.7936 Y-66.9496
G01 X112.6892 Y-66.9756
G01 X112.5903 Y-67.0110
G01 X112.4976 Y-67.0548
G01 X112.4042 Y-67.1106
G01 X112.3209 Y-67.1725
G01 X112.2439 Y-67.2422
G01 X111.5508 Y-67.9353
G01 X108.4352 Y-64.8197
G01 X108.4352 Y-64.7265
G01 X108.5044 Y-64.6937
G01 X108.5945 Y-64.6397
G01 X108.6788 Y-64.5771
G01 X108.7566 Y-64.5066
G01 X108.8271 Y-64.4288
G01 X108.8897 Y-64.3445
G01 X108.9437 Y-64.2544
G01 X108.9886 Y-64.1595
G01 X109.0239 Y-64.0606
G01 X109.0489 Y-63.9611
G01 X109.0650 Y-63.8524
G01 X109.0700 Y-63.7500
G01 X109.0648 Y-63.6451
G01 X109.0494 Y-63.5413
G01 X109.0246 Y-63.4418
G01 X108.9886 Y-63.3405
G01 X108.9448 Y-63.2478
G01 X108.8883 Y-63.1535
G01 X108.8271 Y-63.0712
G01 X108.7566 Y-62.9934
G01 X108.6788 Y-62.9229
G01 X108.5945 Y-62.8603
G01 X108.5044 Y-62.8063
G01 X108.4095 Y-62.7614
G01 X108.3106 Y-62.7261
G01 X108.2111 Y-62.7011
G01 X108.1024 Y-62.6850
G01 X108.0000 Y-62.6800
G01 X107.8939 Y-62.6853
G01 X107.7889 Y-62.7011
G01 X107.6894 Y-62.7261
G01 X107.5928 Y-62.7606
G01 X107.4956 Y-62.8063
G01 X107.4055 Y-62.8603
G01 X107.3212 Y-62.9229
G01 X107.2417 Y-62.9952
G01 X107.1729 Y-63.0712
G01 X107.1117 Y-63.1535
G01 X107.0563 Y-63.2456
G01 X107.0114 Y-63.3405
G01 X106.9754 Y-63.4418
G01 X106.9506 Y-63.5413
G01 X106.9355 Y-63.6427
G01 X106.9300 Y-63.7500
G01 X106.9352 Y-63.8549
G01 X106.9511 Y-63.9611
G01 X106.9761 Y-64.0606
G01 X107.0106 Y-64.1572
G01 X107.0558 Y-64.2533
G01 X107.1117 Y-64.3465
G01 X107.1729 Y-64.4288
G01 X107.2443 Y-64.5075
G01 X107.3212 Y-64.5771
G01 X107.4055 Y-64.6397
G01 X107.4956 Y-64.6937
G01 X107.5648 Y-64.7265
G01 X107.5648 Y-65.0012
G01 X107.5669 Y-65.0427
G01 X107.5729 Y-65.0837
G01 X107.5835 Y-65.1263
G01 X107.5989 Y-65.1688
G01 X107.6162 Y-65.2051
G01 X107.6368 Y-65.2397
G01 X107.6644 Y-65.2770
G01 X107.6923 Y-65.3077
G01 X111.0014 Y-68.6169
G01 X110.9756 Y-68.6892
G01 X110.9579 Y-68.7595
G01 X106.2500 Y-68.7595
G01 X106.1568 Y-68.7641
G01 X106.0658 Y-68.7776
G01 X105.9753 Y-68.8001
G01 X105.9473 Y-68.8100
G01 X105.2300 Y-68.8100
G01 X105.2215 Y-68.8107
G01 X105.2143 Y-68.8125
G01 X105.2075 Y-68.8153
G01 X105.2012 Y-68.8191
G01 X105.1955 Y-68.8238
G01 X105.1898 Y-68.8302
G01 X105.1859 Y-68.8364
G01 X105.1829 Y-68.8432
G01 X105.1810 Y-68.8502
G01 X105.1800 Y-68.8588
G01 X105.1800 Y-70.5600
G01 X105.1807 Y-70.5685
G01 X105.1834 Y-70.5780
G01 X105.1878 Y-70.5867
G01 X105.1930 Y-70.5936
G01 X105.1992 Y-70.5994
G01 X105.2075 Y-70.6047
G01 X105.2167 Y-70.6082
G01 X105.2251 Y-70.6098
G00 Z2.0000
G00 X105.5510 Y-74.3092
G01 F60.00
G01 Z0.0000
G01 F120.00
G01 X105.8257 Y-74.3829
G01 X106.1078 Y-74.4200
G01 X106.3922 Y-74.4200
G01 X106.6743 Y-74.3829
G01 X106.9490 Y-74.3092
G01 X107.2118 Y-74.2004
G01 X107.4582 Y-74.0582
G01 X107.5576 Y-73.9819
G01 X106.7638 Y-73.1881
G01 X106.7522 Y-73.1948
G01 X106.6595 Y-73.2386
G01 X106.5582 Y-73.2746
G01 X106.4587 Y-73.2994
G01 X106.3573 Y-73.3145
G01 X106.2500 Y-73.3200
G01 X106.1427 Y-73.3145
G01 X106.0413 Y-73.2994
G01 X105.9418 Y-73.2746
G01 X105.8405 Y-73.2386
G01 X105.7478 Y-73.1948
G01 X105.7362 Y-73.1881
G01 X104.9424 Y-73.9819
G01 X105.0418 Y-74.0582
G01 X105.2882 Y-74.2004
G01 X105.5510 Y-74.3092
G00 Z2.0000
G00 X105.6313 Y-80.7495
G01 F60.00
G01 Z0.0000
G01 F120.00
G01 X105.6416 Y-80.7091
G01 X105.6453 Y-80.6852
G01 X109.8500 Y-80.6852
G01 X109.8500 Y-81.6500
G01 X109.8526 Y-81.7039
G01 X109.8603 Y-81.7561
G01 X109.8737 Y-81.8097
G01 X109.8919 Y-81.8605
G01 X109.9149 Y-81.9093
G01 X109.9427 Y-81.9556
G01 X109.9748 Y-81.9989
G01 X110.0111 Y-82.0389
G01 X110.0511 Y-82.0752
G01 X110.0934 Y-82.1066
G01 X110.1407 Y-82.1351
G01 X110.1918 Y-82.1590
G01 X110.2403 Y-82.1763
G01 X110.2903 Y-82.1889
G01 X110.3473 Y-82.1975
G01 X110.4000 Y-82.2000
G01 X111.4000 Y-82.2000
G01 X111.4551 Y-82.1972
G01 X111.5097 Y-82.1889
G01 X111.5597 Y-82.1763
G01 X111.6082 Y-82.1590
G01 X111.6593 Y-82.1351
G01 X111.7076 Y-82.1059
G01 X111.7489 Y-82.0752
G01 X111.7871 Y-82.0406
G01 X111.8252 Y-81.9989
G01 X111.8586 Y-81.9535
G01 X111.8851 Y-81.9093
G01 X111.9040 Y-81.8694
G01 X112.9595 Y-82.9250
G01 X108.3197 Y-87.5648
G01 X107.7265 Y-87.5648
G01 X107.6937 Y-87.4956
G01 X107.6410 Y-87.4076
G01 X107.5786 Y-87.3231
G01 X107.5066 Y-87.2434
G01 X107.4278 Y-87.1721
G01 X107.3424 Y-87.1090
G01 X107.2544 Y-87.0563
G01 X107.1617 Y-87.0124
G01 X107.0606 Y-86.9761
G01 X106.9575 Y-86.9503
G01 X106.8549 Y-86.9352
G01 X106.7475 Y-86.9301
G01 X106.6427 Y-86.9355
G01 X106.5413 Y-86.9506
G01 X106.4418 Y-86.9754
G01 X106.3405 Y-87.0114
G01 X106.2456 Y-87.0563
G01 X106.1555 Y-87.1103
G01 X106.0693 Y-87.1745
G01 X105.9917 Y-87.2452
G01 X105.9229 Y-87.3212
G01 X105.8617 Y-87.4035
G01 X105.8063 Y-87.4956
G01 X105.7614 Y-87.5905
G01 X105.7254 Y-87.6918
G01 X105.7006 Y-87.7913
G01 X105.6855 Y-87.8927
G01 X105.6800 Y-88.0000
G01 X105.6852 Y-88.1049
G01 X105.7006 Y-88.2087
G01 X105.7268 Y-88.3129
G01 X105.7614 Y-88.4095
G01 X105.8052 Y-88.5022
G01 X105.8603 Y-88.5945
G01 X105.9229 Y-88.6788
G01 X105.9952 Y-88.7583
G01 X106.0712 Y-88.8271
G01 X106.1535 Y-88.8883
G01 X106.2456 Y-88.9437
G01 X106.3405 Y-88.9886
G01 X106.4394 Y-89.0239
G01 X106.5413 Y-89.0494
G01 X106.6427 Y-89.0645
G01 X106.7525 Y-89.0699
G01 X106.8549 Y-89.0648
G01 X106.9599 Y-89.0492
G01 X107.0629 Y-89.0232
G01 X107.1595 Y-88.9886
G01 X107.2522 Y-88.9448
G01 X107.3445 Y-88.8897
G01 X107.4288 Y-88.8271
G01 X107.5066 Y-88.7566
G01 X107.5786 Y-88.6769
G01 X107.6410 Y-88.5924
G01 X107.6937 Y-88.5044
G01 X107.7265 Y-88.4352
G01 X108.5000 Y-88.4352
G01 X108.5402 Y-88.4333
G01 X108.5849 Y-88.4268
G01 X108.6263 Y-88.4165
G01 X108.6665 Y-88.4021
G01 X108.7051 Y-88.3838
G01 X108.7438 Y-88.3604
G01 X108.7761 Y-88.3364
G01 X108.8077 Y-88.3077
G01 X110.3750 Y-86.7405
G01 X113.6923 Y-90.0577
G01 X113.7259 Y-90.0879
G01 X113.7582 Y-90.1118
G01 X113.7927 Y-90.1326
G01 X113.8335 Y-90.1521
G01 X113.8748 Y-90.1668
G01 X113.9151 Y-90.1768
G01 X113.9549 Y-90.1828
G01 X114.0000 Y-90.1852
G01 X116.2624 Y-90.1852
G01 X116.2738 Y-90.2170
G01 X116.2854 Y-90.2414
G01 X116.3006 Y-90.2667
G01 X116.3181 Y-90.2903
G01 X116.3362 Y-90.3104
G01 X116.3616 Y-90.3334
G01 X116.3833 Y-90.3494
G01 X116.4086 Y-90.3646
G01 X116.4352 Y-90.3772
G01 X116.4606 Y-90.3863
G01 X116.4939 Y-90.3947
G01 X116.5206 Y-90.3986
G01 X116.5500 Y-90.4000
G01 X117.4500 Y-90.4000
G01 X117.4794 Y-90.3986
G01 X117.5073 Y-90.3945
G01 X117.5394 Y-90.3863
G01 X117.5648 Y-90.3772
G01 X117.5914 Y-90.3646
G01 X117.6187 Y-90.3480
G01 X117.6403 Y-90.3319
G01 X117.6604 Y-90.3138
G01 X117.6819 Y-90.2903
G01 X117.7008 Y-90.2646
G01 X117.7146 Y-90.2414
G01 X117.7262 Y-90.2170
G01 X117.7376 Y-90.1852
G01 X121.5124 Y-90.1852
G01 X121.5238 Y-90.2170
G01 X121.5354 Y-90.2414
G01 X121.5506 Y-90.2667
G01 X121.5681 Y-90.2903
G01 X121.5862 Y-90.3104
G01 X121.6116 Y-90.3334
G01 X121.6333 Y-90.3494
G01 X121.6586 Y-90.3646
G01 X121.6852 Y-90.3772
G01 X121.7106 Y-90.3863
G01 X121.7439 Y-90.3947
G01 X121.7706 Y-90.3986
G01 X121.8000 Y-90.4000
G01 X122.7000 Y-90.4000
G01 X122.7318 Y-90.3983
G01 X122.7585 Y-90.3942
G01 X122.7847 Y-90.3877
G01 X122.8125 Y-90.3780
G01 X122.8414 Y-90.3646
G01 X122.8667 Y-90.3494
G01 X122.8903 Y-90.3319
G01 X122.9138 Y-90.3104
G01 X122.9319 Y-90.2903
G01 X122.9480 Y-90.2687
G01 X122.9646 Y-90.2414
G01 X122.9772 Y-90.2148
G01 X122.9877 Y-90.1847
G01 X122.9942 Y-90.1585
G01 X122.9983 Y-90.1318
G01 X123.0000 Y-90.1012
G01 X123.0000 Y-89.4000
G01 X122.9986 Y-89.3706
G01 X122.9942 Y-89.3415
G01 X122.9863 Y-89.3106
G01 X122.9772 Y-89.2852
G01 X122.9646 Y-89.2586
G01 X122.9494 Y-89.2333
G01 X122.9334 Y-89.2116
G01 X122.9104 Y-89.1862
G01 X122.8903 Y-89.1681
G01 X122.8667 Y-89.1506
G01 X122.8414 Y-89.1354
G01 X122.8170 Y-89.1238
G01 X122.7847 Y-89.1123
G01 X122.7585 Y-89.1058
G01 X122.7294 Y-89.1014
G01 X122.7000 Y-89.1000
G01 X121.8000 Y-89.1000
G01 X121.7706 Y-89.1014
G01 X121.7427 Y-89.1055
G01 X121.7106 Y-89.1137
G01 X121.6852 Y-89.1228
G01 X121.6586 Y-89.1354
G01 X121.6313 Y-89.1520
G01 X121.6097 Y-89.1681
G01 X121.5896 Y-89.1862
G01 X121.5681 Y-89.2097
G01 X121.5492 Y-89.2354
G01 X121.5354 Y-89.2586
G01 X121.5238 Y-89.2830
G01 X121.5124 Y-89.3148
G01 X117.7376 Y-89.3148
G01 X117.7262 Y-89.2830
G01 X117.7146 Y-89.2586
G01 X117.6994 Y-89.2333
G01 X117.6819 Y-89.2097
G01 X117.6638 Y-89.1896
G01 X117.6384 Y-89.1666
G01 X117.6167 Y-89.1506
G01 X117.5914 Y-89.1354
G01 X117.5648 Y-89.1228
G01 X117.5394 Y-89.1137
G01 X117.5061 Y-89.1053
G01 X117.4794 Y-89.1014
G01 X117.4500 Y-89.1000
G01 X116.5500 Y-89.1000
G01 X116.5206 Y-89.1014
G01 X116.4927 Y-89.1055
G01 X116.4606 Y-89.1137
G01 X116.4352 Y-89.1228
G01 X116.4086 Y-89.1354
G01 X116.3813 Y-89.1520
G01 X116.3597 Y-89.1681
G01 X116.3396 Y-89.1862
G01 X116.3181 Y-89.2097
G01 X116.2992 Y-89.2354
G01 X116.2854 Y-89.2586
G01 X116.2738 Y-89.2830
G01 X116.2624 Y-89.3148
G01 X114.1803 Y-89.3148
G01 X110.9905 Y-86.1250
G01 X113.5750 Y-83.5405
G01 X114.5923 Y-84.5577
G01 X114.6259 Y-84.5879
G01 X114.6582 Y-84.6118
G01 X114.6938 Y-84.6332
G01 X114.7335 Y-84.6521
G01 X114.7760 Y-84.6671
G01 X114.8151 Y-84.6768
G01 X114.8549 Y-84.6828
G01 X114.8975 Y-84.6851
G01 X115.9085 Y-84.6852
G01 X115.9413 Y-84.7544
G01 X115.9940 Y-84.8424
G01 X116.0564 Y-84.9269
G01 X116.1284 Y-85.0066
G01 X116.2053 Y-85.0763
G01 X116.2905 Y-85.1397
G01 X116.3806 Y-85.1937
G01 X116.4755 Y-85.2386
G01 X116.5756 Y-85.2743
G01 X116.6763 Y-85.2994
G01 X116.7801 Y-85.3148
G01 X116.8850 Y-85.3200
G01 X116.9874 Y-85.3150
G01 X117.0961 Y-85.2989
G01 X117.1956 Y-85.2739
G01 X117.2945 Y-85.2386
G01 X117.3894 Y-85.1937
G01 X117.4795 Y-85.1397
G01 X117.5638 Y-85.0771
G01 X117.6398 Y-85.0083
G01 X117.7136 Y-84.9269
G01 X117.7747 Y-84.8445
G01 X117.8292 Y-84.7533
G01 X117.8736 Y-84.6595
G01 X117.9089 Y-84.5606
G01 X117.9344 Y-84.4587
G01 X117.9495 Y-84.3573
G01 X117.9550 Y-84.2500
G01 X117.9500 Y-84.1476
G01 X117.9339 Y-84.0389
G01 X117.9089 Y-83.9394
G01 X117.8736 Y-83.8405
G01 X117.8287 Y-83.7456
G01 X117.7747 Y-83.6555
G01 X117.7121 Y-83.5712
G01 X117.6416 Y-83.4934
G01 X117.5638 Y-83.4229
G01 X117.4805 Y-83.3610
G01 X117.3894 Y-83.3063
G01 X117.2945 Y-83.2614
G01 X117.1956 Y-83.2261
G01 X117.0937 Y-83.2006
G01 X116.9899 Y-83.1852
G01 X116.8850 Y-83.1800
G01 X116.7801 Y-83.1852
G01 X116.6763 Y-83.2006
G01 X116.5744 Y-83.2261
G01 X116.4733 Y-83.2624
G01 X116.3806 Y-83.3063
G01 X116.2926 Y-83.3590
G01 X116.2072 Y-83.4221
G01 X116.1284 Y-83.4934
G01 X116.0564 Y-83.5731
G01 X115.9940 Y-83.6576
G01 X115.9413 Y-83.7456
G01 X115.9085 Y-83.8148
G01 X115.0803 Y-83.8148
G01 X111.9500 Y-80.6845
G01 X111.9500 Y-79.8155
G01 X114.8303 Y-76.9352
G01 X115.3500 Y-76.9352
G01 X115.3500 Y-77.2712
G01 X115.3514 Y-77.2994
G01 X115.3553 Y-77.3261
G01 X115.3633 Y-77.3583
G01 X115.3738 Y-77.3870
G01 X115.3854 Y-77.4114
G01 X115.3992 Y-77.4346
G01 X115.4181 Y-77.4603
G01 X115.4379 Y-77.4821
G01 X115.4616 Y-77.5034
G01 X115.4833 Y-77.5194
G01 X115.5064 Y-77.5334
G01 X115.5352 Y-77.5472
G01 X115.5629 Y-77.5571
G01 X115.5939 Y-77.5647
G01 X115.6206 Y-77.5686
G01 X115.6488 Y-77.5700
G01 X116.3500 Y-77.5700
G01 X116.3794 Y-77.5686
G01 X116.4085 Y-77.5642
G01 X116.4371 Y-77.5571
G01 X116.4648 Y-77.5472
G01 X116.4914 Y-77.5346
G01 X116.5167 Y-77.5194
G01 X116.5403 Y-77.5019
G01 X116.5621 Y-77.4821
G01 X116.5811 Y-77.4613
G01 X116.5994 Y-77.4367
G01 X116.6134 Y-77.4136
G01 X116.6280 Y-77.3825
G01 X116.6371 Y-77.3571
G01 X116.6442 Y-77.3285
G01 X116.6486 Y-77.2994
G01 X116.6499 Y-77.2725
G01 X116.6499 Y-75.7275
G01 X116.6486 Y-75.7006
G01 X116.6447 Y-75.6739
G01 X116.6371 Y-75.6429
G01 X116.6262 Y-75.6130
G01 X116.6146 Y-75.5886
G01 X116.6008 Y-75.5654
G01 X116.5819 Y-75.5397
G01 X116.5604 Y-75.5162
G01 X116.5403 Y-75.4981
G01 X116.5187 Y-75.4820
G01 X116.4914 Y-75.4654
G01 X116.4648 Y-75.4528
G01 X116.4347 Y-75.4423
G01 X116.4085 Y-75.4358
G01 X116.3818 Y-75.4317
G01 X116.3512 Y-75.4300
G01 X115.6488 Y-75.4300
G01 X115.6206 Y-75.4314
G01 X115.5939 Y-75.4353
G01 X115.5617 Y-75.4433
G01 X115.5330 Y-75.4538
G01 X115.5086 Y-75.4654
G01 X115.4854 Y-75.4792
G01 X115.4597 Y-75.4981
G01 X115.4379 Y-75.5179
G01 X115.4181 Y-75.5397
G01 X115.3992 Y-75.5654
G01 X115.3854 Y-75.5886
G01 X115.3738 Y-75.6130
G01 X115.3633 Y-75.6417
G01 X115.3553 Y-75.6739
G01 X115.3514 Y-75.7006
G01 X115.3500 Y-75.7288
G01 X115.3500 Y-76.0648
G01 X114.6500 Y-76.0648
G01 X114.6086 Y-76.0668
G01 X114.5651 Y-76.0732
G01 X114.5213 Y-76.0843
G01 X114.4835 Y-76.0979
G01 X114.4470 Y-76.1151
G01 X114.4072 Y-76.1388
G01 X114.3739 Y-76.1636
G01 X114.3423 Y-76.1923
G01 X111.9040 Y-78.6306
G01 X111.8851 Y-78.5907
G01 X111.8586 Y-78.5465
G01 X111.8252 Y-78.5011
G01 X111.7871 Y-78.4594
G01 X111.7489 Y-78.4248
G01 X111.7076 Y-78.3941
G01 X111.6593 Y-78.3649
G01 X111.6082 Y-78.3410
G01 X111.5597 Y-78.3237
G01 X111.5097 Y-78.3111
G01 X111.4551 Y-78.3028
G01 X111.4000 Y-78.3000
G01 X110.4000 Y-78.3000
G01 X110.3473 Y-78.3025
G01 X110.2927 Y-78.3106
G01 X110.2380 Y-78.3245
G01 X110.1895 Y-78.3419
G01 X110.1429 Y-78.3638
G01 X110.0944 Y-78.3927
G01 X110.0511 Y-78.4248
G01 X110.0111 Y-78.4611
G01 X109.9748 Y-78.5011
G01 X109.9427 Y-78.5444
G01 X109.9149 Y-78.5907
G01 X109.8919 Y-78.6395
G01 X109.8737 Y-78.6903
G01 X109.8603 Y-78.7439
G01 X109.8526 Y-78.7961
G01 X109.8500 Y-78.8500
G01 X109.8500 Y-79.8148
G01 X105.6453 Y-79.8148
G01 X105.6416 Y-79.7909
G01 X105.6313 Y-79.7505
G01 X105.6176 Y-79.7124
G01 X105.5992 Y-79.6736
G01 X105.5784 Y-79.6389
G01 X105.5535 Y-79.6054
G01 X105.5255 Y-79.5745
G01 X105.4956 Y-79.5473
G01 X105.4611 Y-79.5216
G01 X105.4275 Y-79.5014
G01 X105.3854 Y-79.4815
G01 X105.3484 Y-79.4683
G01 X105.3079 Y-79.4582
G01 X105.2667 Y-79.4520
G01 X105.2262 Y-79.4500
G01 X103.9750 Y-79.4500
G01 X103.9309 Y-79.4523
G01 X103.8897 Y-79.4587
G01 X103.8516 Y-79.4683
G01 X103.8146 Y-79.4815
G01 X103.7747 Y-79.5002
G01 X103.7389 Y-79.5216
G01 X103.7054 Y-79.5465
G01 X103.6728 Y-79.5763
G01 X103.6465 Y-79.6054
G01 X103.6230 Y-79.6369
G01 X103.6002 Y-79.6747
G01 X103.5824 Y-79.7124
G01 X103.5676 Y-79.7540
G01 X103.5582 Y-79.7921
G01 X103.5523 Y-79.8309
G01 X103.5501 Y-79.8725
G01 X103.5500 Y-80.6250
G01 X103.5522 Y-80.6679
G01 X103.5587 Y-80.7103
G01 X103.5683 Y-80.7484
G01 X103.5815 Y-80.7854
G01 X103.6002 Y-80.8253
G01 X103.6216 Y-80.8611
G01 X103.6465 Y-80.8946
G01 X103.6763 Y-80.9272
G01 X103.7054 Y-80.9535
G01 X103.7369 Y-80.9770
G01 X103.7747 Y-80.9998
G01 X103.8124 Y-81.0176
G01 X103.8540 Y-81.0324
G01 X103.8921 Y-81.0418
G01 X103.9309 Y-81.0477
G01 X103.9738 Y-81.0500
G01 X105.2250 Y-81.0500
G01 X105.2679 Y-81.0478
G01 X105.3079 Y-81.0418
G01 X105.3460 Y-81.0324
G01 X105.3876 Y-81.0176
G01 X105.4253 Y-80.9998
G01 X105.4590 Y-80.9797
G01 X105.4946 Y-80.9535
G01 X105.5272 Y-80.9237
G01 X105.5535 Y-80.8946
G01 X105.5784 Y-80.8611
G01 X105.6009 Y-80.8232
G01 X105.6176 Y-80.7876
G01 X105.6313 Y-80.7495
G00 Z2.0000
G00 X103.5500 Y-82.2500
G01 F60.00
G01 Z0.0000
G01 F120.00
G01 X103.5500 Y-82.1738
G01 X103.5519 Y-82.1358
G01 X103.5584 Y-82.0909
G01 X103.5683 Y-82.0516
G01 X103.5824 Y-82.0124
G01 X103.6002 Y-81.9747
G01 X103.6210 Y-81.9399
G01 X103.6465 Y-81.9054
G01 X103.6728 Y-81.8763
G01 X103.7073 Y-81.8450
G01 X103.7389 Y-81.8216
G01 X103.7747 Y-81.8002
G01 X103.8124 Y-81.7824
G01 X103.8516 Y-81.7683
G01 X103.8945 Y-81.7577
G01 X103.9333 Y-81.7520
G01 X103.9738 Y-81.7500
G01 X105.2250 Y-81.7500
G01 X105.2667 Y-81.7520
G01 X105.3079 Y-81.7582
G01 X105.3484 Y-81.7683
G01 X105.3899 Y-81.7833
G01 X105.4253 Y-81.8002
G01 X105.4590 Y-81.8203
G01 X105.4927 Y-81.8450
G01 X105.5255 Y-81.8745
G01 X105.5527 Y-81.9044
G01 X105.5784 Y-81.9389
G01 X105.5998 Y-81.9747
G01 X105.6176 Y-82.0124
G01 X105.6320 Y-82.0528
G01 X105.6418 Y-82.0921
G01 X105.6480 Y-82.1333
G01 X105.6500 Y-82.1738
G01 X105.6500 Y-82.2500
G01 X106.7500 Y-82.2500
G01 X106.7500 Y-82.1042
G01 X106.7398 Y-81.9603
G01 X106.6857 Y-81.7198
G01 X106.5938 Y-81.4914
G01 X106.5080 Y-81.3495
G01 X106.5052 Y-81.3443
G01 X106.5024 Y-81.3364
G01 X106.4846 Y-81.2689
G01 X106.4834 Y-81.2628
G01 X106.4830 Y-81.2578
G01 X106.4831 Y-81.2516
G01 X106.4850 Y-81.2419
G01 X106.5073 Y-81.1730
G01 X106.5097 Y-81.1673
G01 X106.5121 Y-81.1630
G01 X106.5165 Y-81.1570
G01 X106.5228 Y-81.1509
G01 X106.5777 Y-81.1059
G01 X106.5817 Y-81.1031
G01 X106.5870 Y-81.1002
G01 X106.5927 Y-81.0979
G01 X106.5985 Y-81.0963
G01 X106.6482 Y-81.0863
G01 X106.6569 Y-81.0855
G01 X109.2791 Y-81.0856
G01 X109.2884 Y-81.0872
G01 X109.3578 Y-81.1076
G01 X109.3647 Y-81.1104
G01 X109.3711 Y-81.1142
G01 X109.3750 Y-81.1172
G01 X109.3795 Y-81.1215
G01 X109.4277 Y-81.1772
G01 X109.4330 Y-81.1856
G01 X109.4354 Y-81.1914
G01 X109.4369 Y-81.1961
G01 X109.4484 Y-81.2489
G01 X109.4494 Y-81.2571
G01 X109.4495 Y-81.7058
G01 X109.4595 Y-81.8182
G01 X109.5128 Y-82.0044
G01 X109.6023 Y-82.1757
G01 X109.7244 Y-82.3256
G01 X109.8742 Y-82.4477
G01 X110.0456 Y-82.5372
G01 X110.2318 Y-82.5905
G01 X110.3442 Y-82.6005
G01 X111.4558 Y-82.6005
G01 X111.5682 Y-82.5905
G01 X111.7544 Y-82.5372
G01 X111.8073 Y-82.5096
G01 X111.8150 Y-82.5066
G01 X111.8894 Y-82.4916
G01 X111.8980 Y-82.4909
G01 X111.9067 Y-82.4917
G01 X111.9162 Y-82.4944
G01 X111.9846 Y-82.5215
G01 X111.9890 Y-82.5239
G01 X111.9941 Y-82.5274
G01 X112.0091 Y-82.5406
G01 X112.2720 Y-82.8037
G01 X112.2758 Y-82.8083
G01 X112.2789 Y-82.8134
G01 X112.3124 Y-82.8747
G01 X112.3155 Y-82.8815
G01 X112.3179 Y-82.8911
G01 X112.3185 Y-82.9010
G01 X112.3134 Y-82.9719
G01 X112.3117 Y-82.9817
G01 X112.3097 Y-82.9876
G01 X112.3063 Y-82.9943
G01 X112.2764 Y-83.0407
G01 X112.2712 Y-83.0472
G01 X108.2049 Y-87.1135
G01 X108.2014 Y-87.1167
G01 X108.1966 Y-87.1202
G01 X108.1681 Y-87.1359
G01 X108.1428 Y-87.1522
G01 X108.1348 Y-87.1561
G01 X108.1301 Y-87.1577
G01 X108.1160 Y-87.1611
G01 X108.0859 Y-87.1643
G01 X108.0481 Y-87.1645
G01 X108.0398 Y-87.1636
G01 X107.9681 Y-87.1428
G01 X107.9601 Y-87.1396
G01 X107.9537 Y-87.1359
G01 X107.9488 Y-87.1320
G01 X107.9130 Y-87.0981
G01 X107.9085 Y-87.0928
G01 X107.8716 Y-87.0420
G01 X107.7080 Y-86.8784
G01 X107.5207 Y-86.7423
G01 X107.3145 Y-86.6372
G01 X107.0943 Y-86.5657
G01 X106.8657 Y-86.5295
G01 X106.6343 Y-86.5295
G01 X106.4057 Y-86.5657
G01 X106.1855 Y-86.6372
G01 X105.9793 Y-86.7423
G01 X105.7920 Y-86.8784
G01 X105.6284 Y-87.0420
G01 X105.6237 Y-87.0482
G01 X105.6084 Y-87.0659
G01 X105.0239 Y-87.6504
G01 X105.0358 Y-87.6759
G01 X105.0630 Y-87.7521
G01 X105.0834 Y-87.8330
G01 X105.0959 Y-87.9167
G01 X105.1000 Y-88.0000
G01 X105.0959 Y-88.0833
G01 X105.0834 Y-88.1670
G01 X105.0630 Y-88.2479
G01 X105.0358 Y-88.3241
G01 X105.0239 Y-88.3496
G01 X105.6084 Y-88.9341
G01 X105.6237 Y-88.9518
G01 X105.6284 Y-88.9580
G01 X105.7920 Y-89.1216
G01 X105.9793 Y-89.2577
G01 X106.1855 Y-89.3628
G01 X106.4057 Y-89.4343
G01 X106.6343 Y-89.4705
G01 X106.8657 Y-89.4705
G01 X107.0943 Y-89.4343
G01 X107.3145 Y-89.3628
G01 X107.5207 Y-89.2577
G01 X107.7080 Y-89.1216
G01 X107.8716 Y-88.9580
G01 X107.9085 Y-88.9072
G01 X107.9139 Y-88.9009
G01 X107.9184 Y-88.8970
G01 X107.9747 Y-88.8536
G01 X107.9810 Y-88.8497
G01 X107.9867 Y-88.8471
G01 X107.9951 Y-88.8448
G01 X108.0412 Y-88.8362
G01 X108.0481 Y-88.8355
G01 X108.5823 Y-88.8355
G01 X108.7437 Y-88.8034
G01 X108.8958 Y-88.7404
G01 X109.0326 Y-88.6490
G01 X110.2546 Y-87.4272
G01 X110.2623 Y-87.4217
G01 X110.3247 Y-87.3876
G01 X110.3315 Y-87.3845
G01 X110.3374 Y-87.3828
G01 X110.3448 Y-87.3816
G01 X110.3510 Y-87.3815
G01 X110.4219 Y-87.3866
G01 X110.4269 Y-87.3872
G01 X110.4329 Y-87.3886
G01 X110.4376 Y-87.3903
G01 X110.4432 Y-87.3931
G01 X110.4907 Y-87.4236
G01 X110.4980 Y-87.4296
G01 X113.4674 Y-90.3990
G01 X113.6042 Y-90.4904
G01 X113.7563 Y-90.5534
G01 X113.9177 Y-90.5855
G01 X115.9775 Y-90.5857
G01 X115.9869 Y-90.5875
G01 X116.0539 Y-90.6072
G01 X116.0597 Y-90.6093
G01 X116.0641 Y-90.6115
G01 X116.0702 Y-90.6155
G01 X116.0929 Y-90.6337
G01 X116.1126 Y-90.6532
G01 X116.2519 Y-90.7392
G01 X116.4077 Y-90.7908
G01 X116.5025 Y-90.8005
G01 X117.4975 Y-90.8005
G01 X117.5923 Y-90.7908
G01 X117.7481 Y-90.7392
G01 X117.8874 Y-90.6532
G01 X117.9059 Y-90.6348
G01 X117.9105 Y-90.6311
G01 X117.9156 Y-90.6279
G01 X117.9769 Y-90.5945
G01 X117.9836 Y-90.5914
G01 X117.9895 Y-90.5896
G01 X117.9943 Y-90.5888
G01 X118.0272 Y-90.5855
G01 X121.2251 Y-90.5856
G01 X121.2311 Y-90.5862
G01 X121.2369 Y-90.5875
G01 X121.3051 Y-90.6076
G01 X121.3141 Y-90.6115
G01 X121.3202 Y-90.6155
G01 X121.3429 Y-90.6337
G01 X121.3626 Y-90.6532
G01 X121.5019 Y-90.7392
G01 X121.6577 Y-90.7908
G01 X121.7525 Y-90.8005
G01 X122.7475 Y-90.8005
G01 X122.8423 Y-90.7908
G01 X122.9981 Y-90.7392
G01 X123.1374 Y-90.6532
G01 X123.2532 Y-90.5374
G01 X123.3392 Y-90.3981
G01 X123.3908 Y-90.2423
G01 X123.4005 Y-90.1475
G01 X123.4005 Y-89.3525
G01 X123.3908 Y-89.2577
G01 X123.3392 Y-89.1019
G01 X123.2626 Y-88.9778
G01 X123.2589 Y-88.9704
G01 X123.2570 Y-88.9648
G01 X123.2377 Y-88.8937
G01 X123.2370 Y-88.8888
G01 X123.2368 Y-88.8826
G01 X123.2373 Y-88.8764
G01 X123.2387 Y-88.8704
G01 X123.2608 Y-88.8002
G01 X123.2651 Y-88.7912
G01 X123.2680 Y-88.7871
G01 X123.2721 Y-88.7824
G01 X123.3109 Y-88.7449
G01 X123.3174 Y-88.7397
G01 X123.4574 Y-88.6532
G01 X123.5732 Y-88.5374
G01 X123.6592 Y-88.3981
G01 X123.7108 Y-88.2423
G01 X123.7205 Y-88.1475
G01 X123.7205 Y-87.3525
G01 X123.7108 Y-87.2577
G01 X123.6592 Y-87.1019
G01 X123.5732 Y-86.9626
G01 X123.4574 Y-86.8468
G01 X123.3181 Y-86.7608
G01 X123.2048 Y-86.7233
G01 X123.1992 Y-86.7211
G01 X123.1920 Y-86.7169
G01 X123.1336 Y-86.6764
G01 X123.1288 Y-86.6725
G01 X123.1246 Y-86.6679
G01 X123.1209 Y-86.6629
G01 X123.1179 Y-86.6575
G01 X123.0901 Y-86.5907
G01 X123.0872 Y-86.5814
G01 X123.0864 Y-86.5754
G01 X123.0855 Y-86.5581
G01 X123.0855 Y-85.3290
G01 X123.0860 Y-85.3231
G01 X123.0872 Y-85.3172
G01 X123.1084 Y-85.2455
G01 X123.1104 Y-85.2410
G01 X123.1135 Y-85.2356
G01 X123.1172 Y-85.2306
G01 X123.1215 Y-85.2262
G01 X123.1762 Y-85.1788
G01 X123.1823 Y-85.1745
G01 X123.1878 Y-85.1716
G01 X123.1936 Y-85.1695
G01 X123.1996 Y-85.1681
G01 X123.2725 Y-85.1577
G01 X123.2775 Y-85.1574
G01 X123.2836 Y-85.1579
G01 X123.2885 Y-85.1587
G01 X123.2945 Y-85.1605
G01 X123.3626 Y-85.1915
G01 X123.3680 Y-85.1945
G01 X123.3720 Y-85.1974
G01 X123.3825 Y-85.2071
G01 X123.5470 Y-85.3716
G01 X123.7343 Y-85.5077
G01 X123.9405 Y-85.6128
G01 X124.1607 Y-85.6843
G01 X124.3893 Y-85.7205
G01 X124.6207 Y-85.7205
G01 X124.8493 Y-85.6843
G01 X125.0695 Y-85.6128
G01 X125.2757 Y-85.5077
G01 X125.4630 Y-85.3716
G01 X125.6266 Y-85.2080
G01 X125.7627 Y-85.0207
G01 X125.8678 Y-84.8145
G01 X125.9393 Y-84.5943
G01 X125.9755 Y-84.3657
G01 X125.9755 Y-84.1343
G01 X125.9393 Y-83.9057
G01 X125.9137 Y-83.8268
G01 X125.9120 Y-83.8199
G01 X125.9112 Y-83.8128
G01 X125.9092 Y-83.7429
G01 X125.9099 Y-83.7330
G01 X125.9122 Y-83.7247
G01 X125.9158 Y-83.7168
G01 X125.9525 Y-83.6559
G01 X125.9581 Y-83.6482
G01 X125.9633 Y-83.6433
G01 X125.9789 Y-83.6309
G01 X125.9968 Y-83.6185
G01 X126.1475 Y-83.4678
G01 X126.2680 Y-83.2920
G01 X126.3541 Y-83.0970
G01 X126.4030 Y-82.8890
G01 X126.4090 Y-82.8023
G01 X126.4090 Y-82.0100
G01 X125.3090 Y-82.0100
G01 X125.3089 Y-82.7325
G01 X125.3080 Y-82.7398
G01 X125.3056 Y-82.7480
G01 X125.3025 Y-82.7546
G01 X125.2984 Y-82.7608
G01 X125.2935 Y-82.7662
G01 X125.2868 Y-82.7716
G01 X125.2793 Y-82.7757
G01 X125.2723 Y-82.7782
G01 X125.2651 Y-82.7796
G01 X125.2590 Y-82.7800
G01 X123.7498 Y-82.7800
G01 X123.7437 Y-82.7795
G01 X123.7365 Y-82.7778
G01 X123.7307 Y-82.7757
G01 X123.7253 Y-82.7729
G01 X123.7193 Y-82.7687
G01 X123.7148 Y-82.7645
G01 X123.7108 Y-82.7598
G01 X123.7075 Y-82.7546
G01 X123.7048 Y-82.7491
G01 X123.7028 Y-82.7433
G01 X123.7014 Y-82.7361
G01 X123.7010 Y-82.7300
G01 X123.7010 Y-80.6900
G01 X123.7015 Y-80.6827
G01 X123.7032 Y-80.6755
G01 X123.7063 Y-80.6675
G01 X123.7108 Y-80.6602
G01 X123.7165 Y-80.6538
G01 X123.7232 Y-80.6484
G01 X123.7307 Y-80.6443
G01 X123.7389 Y-80.6415
G01 X123.7473 Y-80.6401
G01 X124.2050 Y-80.6400
G01 X124.2050 Y-79.5400
G01 X123.6787 Y-79.5400
G01 X123.5920 Y-79.5460
G01 X123.3840 Y-79.5949
G01 X123.1890 Y-79.6810
G01 X123.0728 Y-79.7606
G01 X123.0667 Y-79.7642
G01 X123.0601 Y-79.7669
G01 X122.9936 Y-79.7885
G01 X122.9839 Y-79.7907
G01 X122.9753 Y-79.7909
G01 X122.9655 Y-79.7894
G01 X122.8967 Y-79.7713
G01 X122.8908 Y-79.7693
G01 X122.8842 Y-79.7658
G01 X122.8792 Y-79.7622
G01 X122.8746 Y-79.7580
G01 X122.8256 Y-79.7048
G01 X122.8200 Y-79.6968
G01 X122.8159 Y-79.6879
G01 X122.8015 Y-79.6272
G01 X122.8008 Y-79.6221
G01 X122.8005 Y-79.6171
G01 X122.8005 Y-75.7031
G01 X122.8010 Y-75.6960
G01 X122.8025 Y-75.6891
G01 X122.8222 Y-75.6220
G01 X122.8259 Y-75.6129
G01 X122.8305 Y-75.6057
G01 X122.8515 Y-75.5801
G01 X127.0051 Y-71.4265
G01 X127.0105 Y-71.4218
G01 X127.0155 Y-71.4185
G01 X127.0789 Y-71.3839
G01 X127.0868 Y-71.3806
G01 X127.0952 Y-71.3788
G01 X127.1281 Y-71.3755
G01 X132.2198 Y-71.3755
G01 X132.2270 Y-71.3760
G01 X132.2339 Y-71.3775
G01 X132.3022 Y-71.3976
G01 X132.3068 Y-71.3993
G01 X132.3123 Y-71.4021
G01 X132.3184 Y-71.4064
G01 X132.3247 Y-71.4124
G01 X132.3712 Y-71.4662
G01 X132.3755 Y-71.4723
G01 X132.3784 Y-71.4778
G01 X132.3805 Y-71.4836
G01 X132.3819 Y-71.4896
G01 X132.3922 Y-71.5613
G01 X132.3924 Y-71.5711
G01 X132.3916 Y-71.5772
G01 X132.3903 Y-71.5819
G01 X132.3643 Y-71.6444
G01 X132.3601 Y-71.6523
G01 X132.1918 Y-71.8718
G01 X132.0496 Y-72.1182
G01 X131.9408 Y-72.3810
G01 X131.8671 Y-72.6557
G01 X131.8300 Y-72.9378
G01 X131.8300 Y-73.2222
G01 X131.8671 Y-73.5043
G01 X131.9408 Y-73.7790
G01 X132.0496 Y-74.0418
G01 X132.1918 Y-74.2882
G01 X132.2681 Y-74.3876
G01 X133.0619 Y-73.5938
G01 X133.0552 Y-73.5822
G01 X133.0106 Y-73.4872
G01 X132.9761 Y-73.3906
G01 X132.9506 Y-73.2887
G01 X132.9352 Y-73.1849
G01 X132.9301 Y-73.0825
G01 X132.9355 Y-72.9727
G01 X132.9506 Y-72.8713
G01 X132.9761 Y-72.7694
G01 X133.0114 Y-72.6705
G01 X133.0552 Y-72.5778
G01 X133.1117 Y-72.4835
G01 X133.1729 Y-72.4012
G01 X133.2434 Y-72.3234
G01 X133.3212 Y-72.2529
G01 X133.4035 Y-72.1917
G01 X133.4978 Y-72.1352
G01 X133.5905 Y-72.0914
G01 X133.6894 Y-72.0561
G01 X133.7913 Y-72.0306
G01 X133.8927 Y-72.0155
G01 X134.0025 Y-72.0101
G01 X134.1049 Y-72.0152
G01 X134.2087 Y-72.0306
G01 X134.3106 Y-72.0561
G01 X134.4072 Y-72.0906
G01 X134.5022 Y-72.1352
G01 X134.5138 Y-72.1419
G01 X135.3227 Y-71.3330
G01 X135.3189 Y-71.3274
G01 X135.3157 Y-71.3207
G01 X135.3134 Y-71.3136
G01 X135.3123 Y-71.3075
G01 X135.3079 Y-71.2341
G01 X135.3082 Y-71.2269
G01 X135.3095 Y-71.2198
G01 X135.3226 Y-71.1834
G01 X135.3628 Y-71.1045
G01 X135.4343 Y-70.8843
G01 X135.4705 Y-70.6557
G01 X135.4705 Y-70.4243
G01 X135.4343 Y-70.1957
G01 X135.3628 Y-69.9755
G01 X135.2577 Y-69.7693
G01 X135.1216 Y-69.5820
G01 X135.1017 Y-69.5620
G01 X135.0964 Y-69.5556
G01 X135.0588 Y-69.4869
G01 X135.0566 Y-69.4811
G01 X135.0554 Y-69.4762
G01 X135.0546 Y-69.4713
G01 X135.0544 Y-69.4651
G01 X135.0596 Y-69.3917
G01 X135.0606 Y-69.3856
G01 X135.0623 Y-69.3796
G01 X135.0647 Y-69.3739
G01 X135.0686 Y-69.3676
G01 X135.1120 Y-69.3096
G01 X135.1171 Y-69.3041
G01 X135.1240 Y-69.2986
G01 X135.1604 Y-69.2787
G01 X135.2381 Y-69.2495
G01 X135.3418 Y-69.1718
G01 X135.4195 Y-69.0681
G01 X135.4650 Y-68.9459
G01 X135.4705 Y-68.8952
G01 X135.4705 Y-67.1048
G01 X135.4650 Y-67.0541
G01 X135.4195 Y-66.9319
G01 X135.3418 Y-66.8282
G01 X135.2381 Y-66.7505
G01 X135.1159 Y-66.7050
G01 X135.0652 Y-66.6995
G01 X134.7285 Y-66.6995
G01 X134.7202 Y-66.6988
G01 X134.6560 Y-66.6833
G01 X134.6495 Y-66.6805
G01 X134.5645 Y-66.6372
G01 X134.3443 Y-66.5657
G01 X134.1157 Y-66.5295
G01 X128.1240 Y-66.5295
G01 X128.1169 Y-66.5290
G01 X128.1111 Y-66.5278
G01 X128.0417 Y-66.5074
G01 X128.0359 Y-66.5052
G01 X128.0315 Y-66.5029
G01 X128.0274 Y-66.5001
G01 X128.0226 Y-66.4961
G01 X127.9726 Y-66.4388
G01 X127.9690 Y-66.4337
G01 X127.9665 Y-66.4294
G01 X127.9641 Y-66.4236
G01 X127.9623 Y-66.4176
G01 X127.9509 Y-66.3650
G01 X127.9500 Y-66.3555
G01 X127.9500 Y-59.8000
G01 X113.5500 Y-59.8000
G01 X113.5500 Y-66.3555
G01 X113.5496 Y-66.3614
G01 X113.5483 Y-66.3684
G01 X113.5279 Y-66.4378
G01 X113.5246 Y-66.4458
G01 X113.5206 Y-66.4521
G01 X113.5140 Y-66.4595
G01 X113.4583 Y-66.5077
G01 X113.4499 Y-66.5130
G01 X113.4441 Y-66.5154
G01 X113.4394 Y-66.5169
G01 X113.3855 Y-66.5286
G01 X113.3772 Y-66.5295
G01 X112.8843 Y-66.5295
G01 X112.6557 Y-66.5657
G01 X112.4355 Y-66.6372
G01 X112.2293 Y-66.7423
G01 X112.0420 Y-66.8784
G01 X111.6723 Y-67.2480
G01 X111.6677 Y-67.2517
G01 X111.6637 Y-67.2543
G01 X111.6002 Y-67.2890
G01 X111.5922 Y-67.2923
G01 X111.5837 Y-67.2941
G01 X111.5738 Y-67.2944
G01 X111.5041 Y-67.2894
G01 X111.4979 Y-67.2886
G01 X111.4931 Y-67.2873
G01 X111.4872 Y-67.2851
G01 X111.4817 Y-67.2822
G01 X111.4353 Y-67.2524
G01 X111.4288 Y-67.2472
G01 X109.1286 Y-64.9470
G01 X109.1239 Y-64.9416
G01 X109.1200 Y-64.9356
G01 X109.0860 Y-64.8732
G01 X109.0831 Y-64.8663
G01 X109.0812 Y-64.8591
G01 X109.0805 Y-64.8529
G01 X109.0806 Y-64.8467
G01 X109.0856 Y-64.7758
G01 X109.0866 Y-64.7699
G01 X109.0879 Y-64.7652
G01 X109.0917 Y-64.7563
G01 X109.1162 Y-64.7149
G01 X109.1205 Y-64.7096
G01 X109.2577 Y-64.5207
G01 X109.3628 Y-64.3145
G01 X109.4343 Y-64.0943
G01 X109.4705 Y-63.8657
G01 X109.4705 Y-63.6343
G01 X109.4343 Y-63.4057
G01 X109.3628 Y-63.1855
G01 X109.2577 Y-62.9793
G01 X109.1216 Y-62.7920
G01 X108.9580 Y-62.6284
G01 X108.7707 Y-62.4923
G01 X108.5645 Y-62.3872
G01 X108.3443 Y-62.3157
G01 X108.1157 Y-62.2795
G01 X107.8843 Y-62.2795
G01 X107.6557 Y-62.3157
G01 X107.4355 Y-62.3872
G01 X107.2293 Y-62.4923
G01 X107.0420 Y-62.6284
G01 X106.8784 Y-62.7920
G01 X106.8737 Y-62.7982
G01 X106.8584 Y-62.8159
G01 X106.2739 Y-63.4004
G01 X106.2858 Y-63.4259
G01 X106.3130 Y-63.5021
G01 X106.3334 Y-63.5830
G01 X106.3459 Y-63.6667
G01 X106.3500 Y-63.7500
G01 X106.3459 Y-63.8333
G01 X106.3334 Y-63.9170
G01 X106.3130 Y-63.9979
G01 X106.2858 Y-64.0741
G01 X106.2739 Y-64.0996
G01 X106.8584 Y-64.6841
G01 X106.8737 Y-64.7018
G01 X106.8784 Y-64.7080
G01 X107.0420 Y-64.8716
G01 X107.0482 Y-64.8763
G01 X107.0649 Y-64.8907
G01 X107.1135 Y-64.9393
G01 X107.1182 Y-64.9447
G01 X107.1221 Y-64.9507
G01 X107.1555 Y-65.0120
G01 X107.1582 Y-65.0175
G01 X107.1601 Y-65.0234
G01 X107.1612 Y-65.0294
G01 X107.1643 Y-65.0583
G01 X107.1645 Y-65.0823
G01 X107.1966 Y-65.2437
G01 X107.2596 Y-65.3958
G01 X107.3510 Y-65.5326
G01 X109.8817 Y-68.0633
G01 X109.8856 Y-68.0679
G01 X109.8888 Y-68.0728
G01 X109.9229 Y-68.1352
G01 X109.9255 Y-68.1408
G01 X109.9277 Y-68.1479
G01 X109.9289 Y-68.1553
G01 X109.9289 Y-68.1627
G01 X109.9238 Y-68.2336
G01 X109.9219 Y-68.2434
G01 X109.9186 Y-68.2514
G01 X109.9141 Y-68.2588
G01 X109.8714 Y-68.3157
G01 X109.8664 Y-68.3212
G01 X109.8616 Y-68.3252
G01 X109.8564 Y-68.3285
G01 X109.8508 Y-68.3312
G01 X109.7830 Y-68.3564
G01 X109.7734 Y-68.3587
G01 X109.7596 Y-68.3595
G01 X106.1437 Y-68.3595
G01 X105.9338 Y-68.3928
G01 X105.9034 Y-68.4023
G01 X105.8625 Y-68.4089
G01 X105.8573 Y-68.4094
G01 X105.1848 Y-68.4095
G01 X105.1341 Y-68.4150
G01 X105.0119 Y-68.4605
G01 X104.9082 Y-68.5382
G01 X104.8305 Y-68.6419
G01 X104.7850 Y-68.7641
G01 X104.7795 Y-68.8148
G01 X104.7795 Y-70.6052
G01 X104.7850 Y-70.6559
G01 X104.8346 Y-70.7889
G01 X104.8366 Y-70.7958
G01 X104.8376 Y-70.8028
G01 X104.8426 Y-70.8725
G01 X104.8426 Y-70.8787
G01 X104.8421 Y-70.8837
G01 X104.8401 Y-70.8921
G01 X104.8366 Y-70.9001
G01 X104.8025 Y-70.9625
G01 X104.7991 Y-70.9676
G01 X104.7950 Y-70.9723
G01 X104.7894 Y-70.9773
G01 X104.7843 Y-70.9807
G01 X104.7219 Y-71.0148
G01 X104.7139 Y-71.0183
G01 X104.7067 Y-71.0201
G01 X104.7005 Y-71.0208
G01 X104.6956 Y-71.0208
G01 X104.6246 Y-71.0158
G01 X104.6160 Y-71.0144
G01 X104.6089 Y-71.0120
G01 X104.6012 Y-71.0080
G01 X104.5539 Y-70.9774
G01 X104.5485 Y-70.9728
G01 X104.5181 Y-70.9424
G01 X104.4418 Y-71.0418
G01 X104.2996 Y-71.2882
G01 X104.1908 Y-71.5510
G01 X104.1171 Y-71.8257
G01 X104.0800 Y-72.1078
G01 X104.0800 Y-72.3922
G01 X104.1171 Y-72.6743
G01 X104.1908 Y-72.9490
G01 X104.2996 Y-73.2118
G01 X104.4418 Y-73.4582
G01 X104.5181 Y-73.5576
G01 X105.3119 Y-72.7638
G01 X105.3052 Y-72.7522
G01 X105.2606 Y-72.6572
G01 X105.2261 Y-72.5606
G01 X105.2006 Y-72.4587
G01 X105.1850 Y-72.3524
G01 X105.1800 Y-72.2500
G01 X105.1850 Y-72.1476
G01 X105.2006 Y-72.0413
G01 X105.2264 Y-71.9382
G01 X105.2619 Y-71.8394
G01 X105.3058 Y-71.7467
G01 X105.3278 Y-71.7096
G01 X105.3274 Y-71.7045
G01 X105.3275 Y-71.6996
G01 X105.3326 Y-71.6286
G01 X105.3336 Y-71.6225
G01 X105.3358 Y-71.6153
G01 X105.3403 Y-71.6064
G01 X105.3688 Y-71.5621
G01 X105.3723 Y-71.5573
G01 X105.5537 Y-71.3755
G01 X105.5591 Y-71.3709
G01 X105.5641 Y-71.3676
G01 X105.6276 Y-71.3330
G01 X105.6321 Y-71.3309
G01 X105.6380 Y-71.3290
G01 X105.6453 Y-71.3277
G01 X105.6515 Y-71.3274
G01 X105.7041 Y-71.3311
G01 X105.7467 Y-71.3058
G01 X105.8394 Y-71.2619
G01 X105.9382 Y-71.2264
G01 X106.0413 Y-71.2006
G01 X106.1476 Y-71.1850
G01 X106.2525 Y-71.1801
G01 X106.3549 Y-71.1852
G01 X106.4563 Y-71.2001
G01 X106.5606 Y-71.2261
G01 X106.6595 Y-71.2614
G01 X106.7544 Y-71.3063
G01 X106.8445 Y-71.3603
G01 X106.9288 Y-71.4229
G01 X107.0066 Y-71.4934
G01 X107.0771 Y-71.5712
G01 X107.1403 Y-71.6566
G01 X107.1937 Y-71.7456
G01 X107.2376 Y-71.8383
G01 X107.2739 Y-71.9394
G01 X107.2999 Y-72.0437
G01 X107.3148 Y-72.1451
G01 X107.3199 Y-72.2475
G01 X107.3145 Y-72.3573
G01 X107.2994 Y-72.4587
G01 X107.2746 Y-72.5582
G01 X107.2386 Y-72.6595
G01 X107.1948 Y-72.7522
G01 X107.1881 Y-72.7638
G01 X107.9819 Y-73.5576
G01 X108.0582 Y-73.4582
G01 X108.2004 Y-73.2118
G01 X108.3092 Y-72.9490
G01 X108.3829 Y-72.6743
G01 X108.4200 Y-72.3922
G01 X108.4200 Y-72.1078
G01 X108.3829 Y-71.8257
G01 X108.3092 Y-71.5510
G01 X108.2057 Y-71.3011
G01 X108.2038 Y-71.2955
G01 X108.2024 Y-71.2885
G01 X108.1946 Y-71.2166
G01 X108.1946 Y-71.2091
G01 X108.1956 Y-71.2018
G01 X108.1969 Y-71.1970
G01 X108.1992 Y-71.1912
G01 X108.2310 Y-71.1276
G01 X108.2348 Y-71.1212
G01 X108.2387 Y-71.1164
G01 X108.2441 Y-71.1113
G01 X108.2492 Y-71.1077
G01 X108.3103 Y-71.0714
G01 X108.3157 Y-71.0686
G01 X108.3213 Y-71.0665
G01 X108.3272 Y-71.0651
G01 X108.3652 Y-71.0605
G01 X110.2817 Y-71.0605
G01 X110.2876 Y-71.0610
G01 X110.2934 Y-71.0622
G01 X110.3640 Y-71.0830
G01 X110.3686 Y-71.0848
G01 X110.3740 Y-71.0878
G01 X110.3781 Y-71.0906
G01 X110.3828 Y-71.0947
G01 X110.4319 Y-71.1512
G01 X110.4374 Y-71.1595
G01 X110.4400 Y-71.1652
G01 X110.4419 Y-71.1711
G01 X110.4534 Y-71.2239
G01 X110.4543 Y-71.2297
G01 X110.4545 Y-73.0419
G01 X110.4536 Y-73.0513
G01 X110.4328 Y-73.1230
G01 X110.4307 Y-73.1287
G01 X110.4279 Y-73.1342
G01 X110.4245 Y-73.1393
G01 X110.4035 Y-73.1649
G01 X106.5049 Y-77.0635
G01 X106.5004 Y-77.0675
G01 X106.4945 Y-77.0715
G01 X106.4322 Y-77.1055
G01 X106.4266 Y-77.1082
G01 X106.4220 Y-77.1097
G01 X106.4160 Y-77.1111
G01 X106.3859 Y-77.1143
G01 X105.9973 Y-77.1145
G01 X105.9914 Y-77.1141
G01 X105.9844 Y-77.1128
G01 X105.9139 Y-77.0920
G01 X105.9059 Y-77.0885
G01 X105.8997 Y-77.0844
G01 X105.8640 Y-77.0521
G01 X105.8122 Y-76.9878
G01 X105.6722 Y-76.8753
G01 X105.5114 Y-76.7956
G01 X105.3361 Y-76.7520
G01 X105.2994 Y-76.7495
G01 X103.9006 Y-76.7495
G01 X103.8639 Y-76.7520
G01 X103.6886 Y-76.7956
G01 X103.5278 Y-76.8753
G01 X103.3878 Y-76.9878
G01 X103.2753 Y-77.1278
G01 X103.1956 Y-77.2886
G01 X103.1520 Y-77.4639
G01 X103.1495 Y-77.5006
G01 X103.1495 Y-78.3994
G01 X103.1520 Y-78.4361
G01 X103.1956 Y-78.6114
G01 X103.2753 Y-78.7722
G01 X103.3878 Y-78.9122
G01 X103.4528 Y-78.9644
G01 X103.4588 Y-78.9701
G01 X103.4625 Y-78.9748
G01 X103.5031 Y-79.0332
G01 X103.5062 Y-79.0385
G01 X103.5086 Y-79.0443
G01 X103.5103 Y-79.0502
G01 X103.5112 Y-79.0564
G01 X103.5140 Y-79.1287
G01 X103.5133 Y-79.1386
G01 X103.5112 Y-79.1470
G01 X103.5076 Y-79.1549
G01 X103.4714 Y-79.2161
G01 X103.4672 Y-79.2222
G01 X103.4630 Y-79.2268
G01 X103.4535 Y-79.2350
G01 X103.3878 Y-79.2878
G01 X103.2753 Y-79.4278
G01 X103.1956 Y-79.5886
G01 X103.1520 Y-79.7639
G01 X103.1495 Y-79.8006
G01 X103.1495 Y-80.6994
G01 X103.1520 Y-80.7361
G01 X103.1551 Y-80.7493
G01 X103.1559 Y-80.7576
G01 X103.1528 Y-80.8310
G01 X103.1520 Y-80.8372
G01 X103.1501 Y-80.8444
G01 X103.1477 Y-80.8501
G01 X103.1446 Y-80.8555
G01 X103.1036 Y-80.9136
G01 X103.0989 Y-80.9194
G01 X103.0933 Y-80.9244
G01 X103.0822 Y-80.9323
G01 X102.8932 Y-81.0932
G01 X102.7336 Y-81.2807
G01 X102.6062 Y-81.4914
G01 X102.5143 Y-81.7198
G01 X102.4602 Y-81.9603
G01 X102.4500 Y-82.1042
G01 X102.4500 Y-82.2500
G01 X103.5500 Y-82.2500
G00 Z2.0000
G00 X102.5143 Y-83.3802
G01 F60.00
G01 Z0.0000
G01 F120.00
G01 X102.6062 Y-83.6086
G01 X102.7336 Y-83.8193
G01 X102.8932 Y-84.0068
G01 X103.0807 Y-84.1664
G01 X103.2914 Y-84.2938
G01 X103.5198 Y-84.3857
G01 X103.7603 Y-84.4398
G01 X103.9042 Y-84.4500
G01 X104.3000 Y-84.4500
G01 X104.3000 Y-83.3500
G01 X103.9750 Y-83.3500
G01 X103.9321 Y-83.3478
G01 X103.8897 Y-83.3413
G01 X103.8516 Y-83.3317
G01 X103.8146 Y-83.3185
G01 X103.7747 Y-83.2998
G01 X103.7389 Y-83.2784
G01 X103.7054 Y-83.2535
G01 X103.6763 Y-83.2272
G01 X103.6465 Y-83.1946
G01 X103.6203 Y-83.1590
G01 X103.6002 Y-83.1253
G01 X103.5828 Y-83.0888
G01 X103.5676 Y-83.0460
G01 X103.5582 Y-83.0079
G01 X103.5523 Y-82.9691
G01 X103.5500 Y-82.9262
G01 X103.5500 Y-82.8500
G01 X102.4500 Y-82.8500
G01 X102.4500 Y-82.9958
G01 X102.4602 Y-83.1397
G01 X102.5143 Y-83.3802
G00 Z2.0000
G00 X105.6802 Y-84.3857
G01 F60.00
G01 Z0.0000
G01 F120.00
G01 X105.9086 Y-84.2938
G01 X106.1193 Y-84.1664
G01 X106.3068 Y-84.0068
G01 X106.4664 Y-83.8193
G01 X106.5938 Y-83.6086
G01 X106.6857 Y-83.3802
G01 X106.7398 Y-83.1397
G01 X106.7500 Y-82.9958
G01 X106.7500 Y-82.8500
G01 X105.6500 Y-82.8500
G01 X105.6500 Y-82.9262
G01 X105.6477 Y-82.9691
G01 X105.6418 Y-83.0079
G01 X105.6324 Y-83.0460
G01 X105.6172 Y-83.0888
G01 X105.5998 Y-83.1253
G01 X105.5797 Y-83.1590
G01 X105.5535 Y-83.1946
G01 X105.5237 Y-83.2272
G01 X105.4946 Y-83.2535
G01 X105.4611 Y-83.2784
G01 X105.4253 Y-83.2998
G01 X105.3854 Y-83.3185
G01 X105.3484 Y-83.3317
G01 X105.3103 Y-83.3413
G01 X105.2679 Y-83.3478
G01 X105.2250 Y-83.3500
G01 X104.9000 Y-83.3500
G01 X104.9000 Y-84.4500
G01 X105.2958 Y-84.4500
G01 X105.4397 Y-84.4398
G01 X105.6802 Y-84.3857
G00 Z2.0000
G00 X104.8781 Y-86.1495
G01 F60.00
G01 Z0.0000
G01 F120.00
G01 X104.6312 Y-86.0834
G01 X104.3778 Y-86.0500
G01 X104.1222 Y-86.0500
G01 X103.8688 Y-86.0834
G01 X103.6219 Y-86.1495
G01 X103.3857 Y-86.2473
G01 X103.1643 Y-86.3752
G01 X103.0993 Y-86.4250
G01 X103.9004 Y-87.2261
G01 X103.9259 Y-87.2142
G01 X104.0021 Y-87.1870
G01 X104.0830 Y-87.1666
G01 X104.1667 Y-87.1541
G01 X104.2500 Y-87.1500
G01 X104.3333 Y-87.1541
G01 X104.4170 Y-87.1666
G01 X104.4979 Y-87.1870
G01 X104.5741 Y-87.2142
G01 X104.5996 Y-87.2261
G01 X105.4007 Y-86.4250
G01 X105.3357 Y-86.3752
G01 X105.1143 Y-86.2473
G01 X104.8781 Y-86.1495
G00 Z2.0000
G00 X102.4973 Y-88.8643
G01 F60.00
G01 Z0.0000
G01 F120.00
G01 X102.6252 Y-89.0857
G01 X102.6750 Y-89.1507
G01 X103.4761 Y-88.3496
G01 X103.4642 Y-88.3241
G01 X103.4370 Y-88.2479
G01 X103.4166 Y-88.1670
G01 X103.4041 Y-88.0833
G01 X103.4000 Y-88.0000
G01 X103.4041 Y-87.9167
G01 X103.4166 Y-87.8330
G01 X103.4370 Y-87.7521
G01 X103.4642 Y-87.6759
G01 X103.4761 Y-87.6504
G01 X102.6750 Y-86.8493
G01 X102.6252 Y-86.9143
G01 X102.4973 Y-87.1357
G01 X102.3995 Y-87.3719
G01 X102.3334 Y-87.6188
G01 X102.3000 Y-87.8722
G01 X102.3000 Y-88.1278
G01 X102.3334 Y-88.3812
G01 X102.3995 Y-88.6281
G01 X102.4973 Y-88.8643
G00 Z2.0000
G00 X103.6219 Y-89.8505
G01 F60.00
G01 Z0.0000
G01 F120.00
G01 X103.8688 Y-89.9166
G01 X104.1222 Y-89.9500
G01 X104.3778 Y-89.9500
G01 X104.6312 Y-89.9166
G01 X104.8781 Y-89.8505
G01 X105.1143 Y-89.7527
G01 X105.3357 Y-89.6248
G01 X105.4007 Y-89.5750
G01 X104.5996 Y-88.7739
G01 X104.5741 Y-88.7858
G01 X104.4979 Y-88.8130
G01 X104.4170 Y-88.8334
G01 X104.3333 Y-88.8459
G01 X104.2500 Y-88.8500
G01 X104.1667 Y-88.8459
G01 X104.0830 Y-88.8334
G01 X104.0021 Y-88.8130
G01 X103.9259 Y-88.7858
G01 X103.9004 Y-88.7739
G01 X103.0993 Y-89.5750
G01 X103.1643 Y-89.6248
G01 X103.3857 Y-89.7527
G01 X103.6219 Y-89.8505
G00 Z2.0000
G00 X118.9217 Y-85.1942
G01 F60.00
G01 Z0.0000
G01 F120.00
G01 X118.9343 Y-85.2002
G01 X117.0345 Y-87.1000
G01 X116.2300 Y-87.1000
G01 X116.2006 Y-87.1014
G01 X116.1715 Y-87.1058
G01 X116.1429 Y-87.1129
G01 X116.1152 Y-87.1228
G01 X116.0908 Y-87.1343
G01 X116.0613 Y-87.1520
G01 X116.0397 Y-87.1681
G01 X116.0170 Y-87.1887
G01 X115.9981 Y-87.2097
G01 X115.9806 Y-87.2333
G01 X115.9654 Y-87.2586
G01 X115.9538 Y-87.2830
G01 X115.9423 Y-87.3153
G01 X115.9358 Y-87.3415
G01 X115.9314 Y-87.3706
G01 X115.9300 Y-87.4000
G01 X115.9300 Y-88.1000
G01 X115.9314 Y-88.1294
G01 X115.9358 Y-88.1585
G01 X115.9429 Y-88.1871
G01 X115.9528 Y-88.2148
G01 X115.9654 Y-88.2414
G01 X115.9806 Y-88.2667
G01 X115.9981 Y-88.2903
G01 X116.0187 Y-88.3130
G01 X116.0397 Y-88.3319
G01 X116.0633 Y-88.3494
G01 X116.0886 Y-88.3646
G01 X116.1130 Y-88.3762
G01 X116.1453 Y-88.3877
G01 X116.1715 Y-88.3942
G01 X116.2030 Y-88.3987
G01 X116.2300 Y-88.4000
G01 X117.7700 Y-88.4000
G01 X117.7994 Y-88.3986
G01 X117.8309 Y-88.3937
G01 X117.8594 Y-88.3863
G01 X117.8848 Y-88.3772
G01 X117.9092 Y-88.3657
G01 X117.9367 Y-88.3494
G01 X117.9603 Y-88.3319
G01 X117.9821 Y-88.3121
G01 X118.0027 Y-88.2894
G01 X118.0194 Y-88.2667
G01 X118.0334 Y-88.2436
G01 X118.0472 Y-88.2148
G01 X118.0571 Y-88.1871
G01 X118.0637 Y-88.1609
G01 X118.0687 Y-88.1270
G01 X118.0700 Y-88.1000
G01 X118.0700 Y-87.3988
G01 X118.0686 Y-87.3706
G01 X118.0647 Y-87.3439
G01 X118.0577 Y-87.3153
G01 X118.0559 Y-87.3095
G01 X119.7327 Y-85.6327
G01 X119.7598 Y-85.6029
G01 X119.7868 Y-85.5668
G01 X119.8088 Y-85.5301
G01 X119.8271 Y-85.4915
G01 X119.8418 Y-85.4502
G01 X119.8518 Y-85.4099
G01 X119.8582 Y-85.3664
G01 X119.8602 Y-85.3262
G01 X119.8602 Y-85.2265
G01 X119.9294 Y-85.1937
G01 X120.0195 Y-85.1397
G01 X120.1038 Y-85.0771
G01 X120.1825 Y-85.0057
G01 X120.2521 Y-84.9288
G01 X120.3147 Y-84.8445
G01 X120.3687 Y-84.7544
G01 X120.4140 Y-84.6583
G01 X120.4489 Y-84.5606
G01 X120.4744 Y-84.4587
G01 X120.4898 Y-84.3549
G01 X120.4950 Y-84.2500
G01 X120.4898 Y-84.1451
G01 X120.4744 Y-84.0413
G01 X120.4489 Y-83.9394
G01 X120.4144 Y-83.8428
G01 X120.3687 Y-83.7456
G01 X120.3160 Y-83.6576
G01 X120.2505 Y-83.5693
G01 X120.1816 Y-83.4934
G01 X120.1038 Y-83.4229
G01 X120.0195 Y-83.3603
G01 X119.9294 Y-83.3063
G01 X119.8345 Y-83.2614
G01 X119.7356 Y-83.2261
G01 X119.6337 Y-83.2006
G01 X119.5299 Y-83.1852
G01 X119.4250 Y-83.1800
G01 X119.3201 Y-83.1852
G01 X119.2163 Y-83.2006
G01 X119.1144 Y-83.2261
G01 X119.0155 Y-83.2614
G01 X118.9206 Y-83.3063
G01 X118.8305 Y-83.3603
G01 X118.7462 Y-83.4229
G01 X118.6684 Y-83.4934
G01 X118.5979 Y-83.5712
G01 X118.5353 Y-83.6555
G01 X118.4813 Y-83.7456
G01 X118.4364 Y-83.8405
G01 X118.4011 Y-83.9394
G01 X118.3756 Y-84.0413
G01 X118.3602 Y-84.1451
G01 X118.3550 Y-84.2500
G01 X118.3602 Y-84.3549
G01 X118.3756 Y-84.4587
G01 X118.4011 Y-84.5606
G01 X118.4364 Y-84.6595
G01 X118.4813 Y-84.7544
G01 X118.5353 Y-84.8445
G01 X118.5979 Y-84.9288
G01 X118.6684 Y-85.0066
G01 X118.7462 Y-85.0771
G01 X118.8305 Y-85.1397
G01 X118.9217 Y-85.1942
G00 Z2.0000
G00 X117.9550 Y-81.7112
G01 F60.00
G01 Z0.0000
G01 F120.00
G01 X117.9498 Y-81.6051
G01 X117.9344 Y-81.5013
G01 X117.9089 Y-81.3994
G01 X117.8736 Y-81.3005
G01 X117.8287 Y-81.2056
G01 X117.7747 Y-81.1155
G01 X117.7121 Y-81.0312
G01 X117.6416 Y-80.9534
G01 X117.5638 Y-80.8829
G01 X117.4795 Y-80.8203
G01 X117.3894 Y-80.7663
G01 X117.2945 Y-80.7214
G01 X117.1956 Y-80.6861
G01 X117.0937 Y-80.6606
G01 X116.9899 Y-80.6452
G01 X116.8850 Y-80.6400
G01 X116.7801 Y-80.6452
G01 X116.6763 Y-80.6606
G01 X116.5744 Y-80.6861
G01 X116.4755 Y-80.7214
G01 X116.3806 Y-80.7663
G01 X116.2905 Y-80.8203
G01 X116.2062 Y-80.8829
G01 X116.1284 Y-80.9534
G01 X116.0579 Y-81.0312
G01 X115.9953 Y-81.1155
G01 X115.9413 Y-81.2056
G01 X115.8964 Y-81.3005
G01 X115.8611 Y-81.3994
G01 X115.8356 Y-81.5013
G01 X115.8202 Y-81.6051
G01 X115.8150 Y-81.7100
G01 X115.8202 Y-81.8149
G01 X115.8356 Y-81.9187
G01 X115.8611 Y-82.0206
G01 X115.8964 Y-82.1195
G01 X115.9413 Y-82.2144
G01 X115.9953 Y-82.3045
G01 X116.0579 Y-82.3888
G01 X116.1284 Y-82.4666
G01 X116.2062 Y-82.5371
G01 X116.2905 Y-82.5997
G01 X116.3806 Y-82.6537
G01 X116.4755 Y-82.6986
G01 X116.5744 Y-82.7339
G01 X116.6763 Y-82.7594
G01 X116.7801 Y-82.7748
G01 X116.8850 Y-82.7800
G01 X116.9899 Y-82.7748
G01 X117.0937 Y-82.7594
G01 X117.1956 Y-82.7339
G01 X117.2945 Y-82.6986
G01 X117.3894 Y-82.6537
G01 X117.4795 Y-82.5997
G01 X117.5638 Y-82.5371
G01 X117.6416 Y-82.4666
G01 X117.7121 Y-82.3888
G01 X117.7747 Y-82.3045
G01 X117.8287 Y-82.2144
G01 X117.8736 Y-82.1195
G01 X117.9089 Y-82.0206
G01 X117.9344 Y-81.9187
G01 X117.9498 Y-81.8149
G01 X117.9550 Y-81.7112
G00 Z2.0000
G00 X120.4950 Y-81.7112
G01 F60.00
G01 Z0.0000
G01 F120.00
G01 X120.4898 Y-81.6051
G01 X120.4744 Y-81.5013
G01 X120.4489 Y-81.3994
G01 X120.4136 Y-81.3005
G01 X120.3687 Y-81.2056
G01 X120.3147 Y-81.1155
G01 X120.2521 Y-81.0312
G01 X120.1816 Y-80.9534
G01 X120.1038 Y-80.8829
G01 X120.0195 Y-80.8203
G01 X119.9294 Y-80.7663
G01 X119.8345 Y-80.7214
G01 X119.7356 Y-80.6861
G01 X119.6337 Y-80.6606
G01 X119.5299 Y-80.6452
G01 X119.4250 Y-80.6400
G01 X119.3201 Y-80.6452
G01 X119.2163 Y-80.6606
G01 X119.1144 Y-80.6861
G01 X119.0155 Y-80.7214
G01 X118.9206 Y-80.7663
G01 X118.8305 Y-80.8203
G01 X118.7462 Y-80.8829
G01 X118.6684 Y-80.9534
G01 X118.5979 Y-81.0312
G01 X118.5353 Y-81.1155
G01 X118.4813 Y-81.2056
G01 X118.4364 Y-81.3005
G01 X118.4011 Y-81.3994
G01 X118.3756 Y-81.5013
G01 X118.3602 Y-81.6051
G01 X118.3550 Y-81.7100
G01 X118.3602 Y-81.8149
G01 X118.3756 Y-81.9187
G01 X118.4011 Y-82.0206
G01 X118.4364 Y-82.1195
G01 X118.4813 Y-82.2144
G01 X118.5353 Y-82.3045
G01 X118.5979 Y-82.3888
G01 X118.6684 Y-82.4666
G01 X118.7462 Y-82.5371
G01 X118.8305 Y-82.5997
G01 X118.9206 Y-82.6537
G01 X119.0155 Y-82.6986
G01 X119.1144 Y-82.7339
G01 X119.2163 Y-82.7594
G01 X119.3201 Y-82.7748
G01 X119.4250 Y-82.7800
G01 X119.5299 Y-82.7748
G01 X119.6337 Y-82.7594
G01 X119.7356 Y-82.7339
G01 X119.8345 Y-82.6986
G01 X119.9294 Y-82.6537
G01 X120.0195 Y-82.5997
G01 X120.1038 Y-82.5371
G01 X120.1816 Y-82.4666
G01 X120.2521 Y-82.3888
G01 X120.3147 Y-82.3045
G01 X120.3687 Y-82.2144
G01 X120.4136 Y-82.1195
G01 X120.4489 Y-82.0206
G01 X120.4744 Y-81.9187
G01 X120.4898 Y-81.8149
G01 X120.4950 Y-81.7112
G00 Z2.0000
G00 X125.2627 Y-80.6401
G01 F60.00
G01 Z0.0000
G01 F120.00
G01 X125.2711 Y-80.6415
G01 X125.2804 Y-80.6448
G01 X125.2878 Y-80.6491
G01 X125.2952 Y-80.6555
G01 X125.3006 Y-80.6622
G01 X125.3047 Y-80.6697
G01 X125.3078 Y-80.6790
G01 X125.3089 Y-80.6875
G01 X125.3090 Y-81.4100
G01 X126.4090 Y-81.4100
G01 X126.4090 Y-80.6177
G01 X126.4030 Y-80.5310
G01 X126.3541 Y-80.3230
G01 X126.2680 Y-80.1280
G01 X126.1475 Y-79.9522
G01 X125.9968 Y-79.8015
G01 X125.8210 Y-79.6810
G01 X125.6260 Y-79.5949
G01 X125.4180 Y-79.5460
G01 X125.3313 Y-79.5400
G01 X124.8050 Y-79.5400
G01 X124.8050 Y-80.6400
G01 X125.2627 Y-80.6401
G00 Z2.0000
G00 X125.5750 Y-84.2512
G01 F60.00
G01 Z0.0000
G01 F120.00
G01 X125.5698 Y-84.1451
G01 X125.5544 Y-84.0413
G01 X125.5289 Y-83.9394
G01 X125.4936 Y-83.8405
G01 X125.4487 Y-83.7456
G01 X125.3947 Y-83.6555
G01 X125.3321 Y-83.5712
G01 X125.2616 Y-83.4934
G01 X125.1838 Y-83.4229
G01 X125.0995 Y-83.3603
G01 X125.0094 Y-83.3063
G01 X124.9145 Y-83.2614
G01 X124.8156 Y-83.2261
G01 X124.7137 Y-83.2006
G01 X124.6099 Y-83.1852
G01 X124.5050 Y-83.1800
G01 X124.4001 Y-83.1852
G01 X124.2963 Y-83.2006
G01 X124.1944 Y-83.2261
G01 X124.0955 Y-83.2614
G01 X124.0006 Y-83.3063
G01 X123.9105 Y-83.3603
G01 X123.8262 Y-83.4229
G01 X123.7484 Y-83.4934
G01 X123.6779 Y-83.5712
G01 X123.6153 Y-83.6555
G01 X123.5613 Y-83.7456
G01 X123.5164 Y-83.8405
G01 X123.4811 Y-83.9394
G01 X123.4556 Y-84.0413
G01 X123.4402 Y-84.1451
G01 X123.4350 Y-84.2500
G01 X123.4402 Y-84.3549
G01 X123.4556 Y-84.4587
G01 X123.4811 Y-84.5606
G01 X123.5164 Y-84.6595
G01 X123.5613 Y-84.7544
G01 X123.6153 Y-84.8445
G01 X123.6779 Y-84.9288
G01 X123.7484 Y-85.0066
G01 X123.8262 Y-85.0771
G01 X123.9105 Y-85.1397
G01 X124.0006 Y-85.1937
G01 X124.0955 Y-85.2386
G01 X124.1944 Y-85.2739
G01 X124.2963 Y-85.2994
G01 X124.4001 Y-85.3148
G01 X124.5050 Y-85.3200
G01 X124.6099 Y-85.3148
G01 X124.7137 Y-85.2994
G01 X124.8156 Y-85.2739
G01 X124.9145 Y-85.2386
G01 X125.0094 Y-85.1937
G01 X125.0995 Y-85.1397
G01 X125.1838 Y-85.0771
G01 X125.2616 Y-85.0066
G01 X125.3321 Y-84.9288
G01 X125.3947 Y-84.8445
G01 X125.4487 Y-84.7544
G01 X125.4936 Y-84.6595
G01 X125.5289 Y-84.5606
G01 X125.5544 Y-84.4587
G01 X125.5698 Y-84.3549
G01 X125.5750 Y-84.2512
G00 Z2.0000
G00 X123.0212 Y-87.1000
G01 F60.00
G01 Z0.0000
G01 F120.00
G01 X122.6852 Y-87.1000
G01 X122.6852 Y-85.0397
G01 X122.7225 Y-85.0057
G01 X122.7929 Y-84.9278
G01 X122.8547 Y-84.8445
G01 X122.9081 Y-84.7555
G01 X122.9544 Y-84.6572
G01 X122.9889 Y-84.5606
G01 X123.0142 Y-84.4599
G01 X123.0300 Y-84.3524
G01 X123.0350 Y-84.2500
G01 X123.0298 Y-84.1451
G01 X123.0139 Y-84.0389
G01 X122.9889 Y-83.9394
G01 X122.9540 Y-83.8417
G01 X122.9087 Y-83.7456
G01 X122.8547 Y-83.6555
G01 X122.7921 Y-83.5712
G01 X122.7216 Y-83.4934
G01 X122.6438 Y-83.4229
G01 X122.5595 Y-83.3603
G01 X122.4694 Y-83.3063
G01 X122.3745 Y-83.2614
G01 X122.2756 Y-83.2261
G01 X122.1737 Y-83.2006
G01 X122.0699 Y-83.1852
G01 X121.9650 Y-83.1800
G01 X121.8601 Y-83.1852
G01 X121.7563 Y-83.2006
G01 X121.6544 Y-83.2261
G01 X121.5567 Y-83.2610
G01 X121.4585 Y-83.3076
G01 X121.3705 Y-83.3603
G01 X121.2862 Y-83.4229
G01 X121.2067 Y-83.4952
G01 X121.1379 Y-83.5712
G01 X121.0767 Y-83.6535
G01 X121.0213 Y-83.7456
G01 X120.9756 Y-83.8428
G01 X120.9411 Y-83.9394
G01 X120.9161 Y-84.0389
G01 X120.9000 Y-84.1463
G01 X120.8950 Y-84.2500
G01 X120.9002 Y-84.3549
G01 X120.9156 Y-84.4587
G01 X120.9411 Y-84.5606
G01 X120.9764 Y-84.6595
G01 X121.0213 Y-84.7544
G01 X121.0753 Y-84.8445
G01 X121.1371 Y-84.9278
G01 X121.2084 Y-85.0066
G01 X121.2862 Y-85.0771
G01 X121.3705 Y-85.1397
G01 X121.4595 Y-85.1931
G01 X121.5555 Y-85.2386
G01 X121.6532 Y-85.2736
G01 X121.7551 Y-85.2992
G01 X121.8148 Y-85.3082
G01 X121.8148 Y-87.1000
G01 X121.4788 Y-87.1000
G01 X121.4482 Y-87.1017
G01 X121.4215 Y-87.1058
G01 X121.3941 Y-87.1126
G01 X121.3652 Y-87.1228
G01 X121.3386 Y-87.1354
G01 X121.3133 Y-87.1506
G01 X121.2897 Y-87.1681
G01 X121.2679 Y-87.1879
G01 X121.2481 Y-87.2097
G01 X121.2306 Y-87.2333
G01 X121.2149 Y-87.2597
G01 X121.2028 Y-87.2852
G01 X121.1923 Y-87.3153
G01 X121.1858 Y-87.3415
G01 X121.1817 Y-87.3682
G01 X121.1801 Y-87.3975
G01 X121.1800 Y-88.1012
G01 X121.1814 Y-88.1294
G01 X121.1853 Y-88.1561
G01 X121.1929 Y-88.1871
G01 X121.2028 Y-88.2148
G01 X121.2143 Y-88.2392
G01 X121.2306 Y-88.2667
G01 X121.2481 Y-88.2903
G01 X121.2696 Y-88.3138
G01 X121.2897 Y-88.3319
G01 X121.3113 Y-88.3480
G01 X121.3386 Y-88.3646
G01 X121.3652 Y-88.3772
G01 X121.3953 Y-88.3877
G01 X121.4215 Y-88.3942
G01 X121.4482 Y-88.3983
G01 X121.4775 Y-88.3999
G01 X123.0212 Y-88.4000
G01 X123.0494 Y-88.3986
G01 X123.0761 Y-88.3947
G01 X123.1071 Y-88.3871
G01 X123.1348 Y-88.3772
G01 X123.1592 Y-88.3657
G01 X123.1867 Y-88.3494
G01 X123.2103 Y-88.3319
G01 X123.2321 Y-88.3121
G01 X123.2519 Y-88.2903
G01 X123.2708 Y-88.2646
G01 X123.2846 Y-88.2414
G01 X123.2962 Y-88.2170
G01 X123.3063 Y-88.1894
G01 X123.3142 Y-88.1585
G01 X123.3184 Y-88.1306
G01 X123.3200 Y-88.1000
G01 X123.3200 Y-87.4000
G01 X123.3184 Y-87.3694
G01 X123.3142 Y-87.3415
G01 X123.3071 Y-87.3129
G01 X123.2972 Y-87.2852
G01 X123.2857 Y-87.2608
G01 X123.2680 Y-87.2313
G01 X123.2519 Y-87.2097
G01 X123.2304 Y-87.1862
G01 X123.2103 Y-87.1681
G01 X123.1867 Y-87.1506
G01 X123.1614 Y-87.1354
G01 X123.1348 Y-87.1228
G01 X123.1071 Y-87.1129
G01 X123.0785 Y-87.1058
G01 X123.0494 Y-87.1014
G01 X123.0212 Y-87.1000
G00 Z2.0000
G00 X117.3633 Y-75.6417
G01 F60.00
G01 Z0.0000
G01 F120.00
G01 X117.3553 Y-75.6739
G01 X117.3514 Y-75.7006
G01 X117.3500 Y-75.7300
G01 X117.3500 Y-77.2712
G01 X117.3514 Y-77.2994
G01 X117.3553 Y-77.3261
G01 X117.3629 Y-77.3571
G01 X117.3728 Y-77.3848
G01 X117.3843 Y-77.4092
G01 X117.4013 Y-77.4377
G01 X117.4181 Y-77.4603
G01 X117.4379 Y-77.4821
G01 X117.4597 Y-77.5019
G01 X117.4854 Y-77.5208
G01 X117.5086 Y-77.5346
G01 X117.5330 Y-77.5462
G01 X117.5606 Y-77.5563
G01 X117.5915 Y-77.5642
G01 X117.6194 Y-77.5684
G01 X117.6500 Y-77.5700
G01 X118.3512 Y-77.5700
G01 X118.3794 Y-77.5686
G01 X118.4061 Y-77.5647
G01 X118.4347 Y-77.5577
G01 X118.4405 Y-77.5559
G01 X121.5298 Y-80.6453
G01 X121.5298 Y-80.7335
G01 X121.4606 Y-80.7663
G01 X121.3705 Y-80.8203
G01 X121.2862 Y-80.8829
G01 X121.2084 Y-80.9534
G01 X121.1379 Y-81.0312
G01 X121.0753 Y-81.1155
G01 X121.0213 Y-81.2056
G01 X120.9764 Y-81.3005
G01 X120.9411 Y-81.3994
G01 X120.9156 Y-81.5013
G01 X120.9002 Y-81.6051
G01 X120.8951 Y-81.7075
G01 X120.9005 Y-81.8173
G01 X120.9156 Y-81.9187
G01 X120.9418 Y-82.0229
G01 X120.9764 Y-82.1195
G01 X121.0213 Y-82.2144
G01 X121.0753 Y-82.3045
G01 X121.1379 Y-82.3888
G01 X121.2084 Y-82.4666
G01 X121.2862 Y-82.5371
G01 X121.3705 Y-82.5997
G01 X121.4606 Y-82.6537
G01 X121.5555 Y-82.6986
G01 X121.6544 Y-82.7339
G01 X121.7563 Y-82.7594
G01 X121.8601 Y-82.7748
G01 X121.9650 Y-82.7800
G01 X122.0699 Y-82.7748
G01 X122.1737 Y-82.7594
G01 X122.2756 Y-82.7339
G01 X122.3745 Y-82.6986
G01 X122.4672 Y-82.6548
G01 X122.5595 Y-82.5997
G01 X122.6438 Y-82.5371
G01 X122.7198 Y-82.4683
G01 X122.7936 Y-82.3869
G01 X122.8547 Y-82.3045
G01 X122.9087 Y-82.2144
G01 X122.9536 Y-82.1195
G01 X122.9882 Y-82.0229
G01 X123.0149 Y-81.9163
G01 X123.0298 Y-81.8149
G01 X123.0350 Y-81.7112
G01 X123.0295 Y-81.6027
G01 X123.0144 Y-81.5013
G01 X122.9889 Y-81.3994
G01 X122.9526 Y-81.2983
G01 X122.9087 Y-81.2056
G01 X122.8553 Y-81.1166
G01 X122.7905 Y-81.0293
G01 X122.7216 Y-80.9534
G01 X122.6447 Y-80.8837
G01 X122.5574 Y-80.8190
G01 X122.4694 Y-80.7663
G01 X122.4002 Y-80.7335
G01 X122.4002 Y-75.4653
G01 X126.8903 Y-70.9752
G01 X133.0235 Y-70.9752
G01 X133.0563 Y-71.0444
G01 X133.1103 Y-71.1345
G01 X133.1729 Y-71.2188
G01 X133.2417 Y-71.2948
G01 X133.3231 Y-71.3686
G01 X133.4055 Y-71.4297
G01 X133.4945 Y-71.4831
G01 X133.5928 Y-71.5294
G01 X133.6894 Y-71.5639
G01 X133.7913 Y-71.5894
G01 X133.8951 Y-71.6048
G01 X133.9975 Y-71.6099
G01 X134.1049 Y-71.6048
G01 X134.2087 Y-71.5894
G01 X134.3129 Y-71.5632
G01 X134.4095 Y-71.5286
G01 X134.5022 Y-71.4848
G01 X134.5924 Y-71.4310
G01 X134.6788 Y-71.3671
G01 X134.7566 Y-71.2966
G01 X134.8271 Y-71.2188
G01 X134.8897 Y-71.1345
G01 X134.9437 Y-71.0444
G01 X134.9894 Y-70.9472
G01 X135.0246 Y-70.8482
G01 X135.0494 Y-70.7487
G01 X135.0645 Y-70.6473
G01 X135.0700 Y-70.5400
G01 X135.0648 Y-70.4351
G01 X135.0494 Y-70.3313
G01 X135.0239 Y-70.2294
G01 X134.9886 Y-70.1305
G01 X134.9448 Y-70.0378
G01 X134.8883 Y-69.9435
G01 X134.8271 Y-69.8612
G01 X134.7566 Y-69.7834
G01 X134.6788 Y-69.7129
G01 X134.5965 Y-69.6517
G01 X134.5022 Y-69.5952
G01 X134.4095 Y-69.5514
G01 X134.3106 Y-69.5161
G01 X134.2063 Y-69.4901
G01 X134.1049 Y-69.4752
G01 X134.0000 Y-69.4700
G01 X133.8951 Y-69.4752
G01 X133.7937 Y-69.4901
G01 X133.6894 Y-69.5161
G01 X133.5883 Y-69.5524
G01 X133.4956 Y-69.5963
G01 X133.4066 Y-69.6497
G01 X133.3193 Y-69.7145
G01 X133.2434 Y-69.7834
G01 X133.1737 Y-69.8603
G01 X133.1090 Y-69.9476
G01 X133.0563 Y-70.0356
G01 X133.0235 Y-70.1048
G01 X126.9312 Y-70.1048
G01 X126.9154 Y-70.0975
G01 X126.8775 Y-70.0839
G01 X126.8361 Y-70.0734
G01 X126.7927 Y-70.0669
G01 X126.7500 Y-70.0648
G01 X126.7049 Y-70.0672
G01 X126.6651 Y-70.0732
G01 X126.6237 Y-70.0835
G01 X126.5835 Y-70.0979
G01 X126.5470 Y-70.1151
G01 X126.5082 Y-70.1382
G01 X126.4739 Y-70.1636
G01 X126.4423 Y-70.1923
G01 X121.6573 Y-74.9773
G01 X121.6271 Y-75.0109
G01 X121.6032 Y-75.0432
G01 X121.5812 Y-75.0799
G01 X121.5629 Y-75.1185
G01 X121.5479 Y-75.1610
G01 X121.5382 Y-75.2001
G01 X121.5322 Y-75.2399
G01 X121.5298 Y-75.2850
G01 X121.5298 Y-79.4144
G01 X118.6500 Y-76.5345
G01 X118.6500 Y-75.7300
G01 X118.6486 Y-75.7006
G01 X118.6442 Y-75.6715
G01 X118.6371 Y-75.6429
G01 X118.6272 Y-75.6152
G01 X118.6146 Y-75.5886
G01 X118.5994 Y-75.5633
G01 X118.5819 Y-75.5397
G01 X118.5621 Y-75.5179
G01 X118.5422 Y-75.4997
G01 X118.5146 Y-75.4792
G01 X118.4914 Y-75.4654
G01 X118.4648 Y-75.4528
G01 X118.4371 Y-75.4429
G01 X118.4109 Y-75.4363
G01 X118.3782 Y-75.4313
G01 X118.3500 Y-75.4300
G01 X117.6500 Y-75.4300
G01 X117.6194 Y-75.4316
G01 X117.5915 Y-75.4358
G01 X117.5653 Y-75.4423
G01 X117.5352 Y-75.4528
G01 X117.5086 Y-75.4654
G01 X117.4854 Y-75.4792
G01 X117.4597 Y-75.4981
G01 X117.4362 Y-75.5196
G01 X117.4181 Y-75.5397
G01 X117.4006 Y-75.5633
G01 X117.3843 Y-75.5908
G01 X117.3728 Y-75.6152
G01 X117.3633 Y-75.6417
G00 Z2.0000
G00 X133.8578 Y-75.2500
G01 F60.00
G01 Z0.0000
G01 F120.00
G01 X134.1422 Y-75.2500
G01 X134.4243 Y-75.2129
G01 X134.6990 Y-75.1392
G01 X134.9618 Y-75.0304
G01 X135.2082 Y-74.8882
G01 X135.3076 Y-74.8119
G01 X134.5138 Y-74.0181
G01 X134.5022 Y-74.0248
G01 X134.4095 Y-74.0686
G01 X134.3082 Y-74.1046
G01 X134.2087 Y-74.1294
G01 X134.1073 Y-74.1445
G01 X134.0000 Y-74.1500
G01 X133.8927 Y-74.1445
G01 X133.7913 Y-74.1294
G01 X133.6918 Y-74.1046
G01 X133.5905 Y-74.0686
G01 X133.4978 Y-74.0248
G01 X133.4862 Y-74.0181
G01 X132.6924 Y-74.8119
G01 X132.7918 Y-74.8882
G01 X133.0382 Y-75.0304
G01 X133.3010 Y-75.1392
G01 X133.5757 Y-75.2129
G01 X133.8578 Y-75.2500
G00 Z2.0000
G00 X136.0592 Y-73.7790
G01 F60.00
G01 Z0.0000
G01 F120.00
G01 X136.1329 Y-73.5043
G01 X136.1700 Y-73.2222
G01 X136.1700 Y-72.9378
G01 X136.1329 Y-72.6557
G01 X136.0592 Y-72.3810
G01 X135.9504 Y-72.1182
G01 X135.8082 Y-71.8718
G01 X135.7319 Y-71.7724
G01 X134.9381 Y-72.5662
G01 X134.9448 Y-72.5778
G01 X134.9886 Y-72.6705
G01 X135.0246 Y-72.7718
G01 X135.0494 Y-72.8713
G01 X135.0645 Y-72.9727
G01 X135.0700 Y-73.0800
G01 X135.0645 Y-73.1873
G01 X135.0494 Y-73.2887
G01 X135.0246 Y-73.3882
G01 X134.9886 Y-73.4895
G01 X134.9448 Y-73.5822
G01 X134.9381 Y-73.5938
G01 X135.7319 Y-74.3876
G01 X135.8082 Y-74.2882
G01 X135.9504 Y-74.0418
G01 X136.0592 Y-73.7790
G00 Z2.0000
M05
G00 Z2.0000
G00 Z15.00


