(G-CODE GENERATED BY FLATCAM v2024.4 - www.flatcam.org - Version Date: 2024/04/15)

(Name: wled-esp01-controller-B_Cu.gbr_iso_combined_1_cnc)
(Type: G-code from Geometry)
(Units: MM)

(Created on Wednesday, 31 December 2025 at 18:33)

(This preprocessor is the default preprocessor used by FlatCAM.)
(It is made to work with MACH3 compatible motion controllers.)

(TOOL DIAMETER: 0.1 mm)
(Feedrate_XY: 120.0 mm/min)
(Feedrate_Z: 60.0 mm/min)
(Feedrate rapids 1500.0 mm/min)

(Z_Cut: 0.0 mm)
(Z_Move: 2.0 mm)
(Z Start: None mm)
(Z End: 15.0 mm)
(X,Y End: None mm)
(Steps per circle: 64)
(Preprocessor Geometry: default)

(X range:   -0.0500 ...   38.5490  mm)
(Y range:   -0.0500 ...   33.0490  mm)

(Spindle Speed: 0.0 RPM)
G21
G90
G94

G01 F120.00

M5
G00 Z15.0000
G00 X0.0000 Y0.0000
T1
M6    
(MSG, Change to Tool Dia = 0.1000)
M0
G00 Z15.0000

M03
G01 F120.00
G00 X12.4297 Y8.1044
G01 F60.00
G01 Z0.0000
G01 F120.00
G01 X12.4245 Y7.9995
G01 X12.4297 Y7.8946
G01 X12.4451 Y7.7908
G01 X12.4706 Y7.6889
G01 X12.5059 Y7.5900
G01 X12.5508 Y7.4951
G01 X12.6048 Y7.4050
G01 X12.6674 Y7.3207
G01 X12.7379 Y7.2429
G01 X12.8157 Y7.1724
G01 X12.9000 Y7.1098
G01 X12.9901 Y7.0558
G01 X13.0850 Y7.0109
G01 X13.1839 Y6.9756
G01 X13.2858 Y6.9501
G01 X13.3896 Y6.9347
G01 X13.4945 Y6.9295
G01 X13.5994 Y6.9347
G01 X13.7032 Y6.9501
G01 X13.8051 Y6.9756
G01 X13.9040 Y7.0109
G01 X13.9989 Y7.0558
G01 X14.0890 Y7.1098
G01 X14.1733 Y7.1724
G01 X14.2511 Y7.2429
G01 X14.3216 Y7.3207
G01 X14.3842 Y7.4050
G01 X14.4382 Y7.4951
G01 X14.4831 Y7.5900
G01 X14.5184 Y7.6889
G01 X14.5439 Y7.7908
G01 X14.5593 Y7.8946
G01 X14.5645 Y7.9995
G01 X14.5593 Y8.1044
G01 X14.5439 Y8.2082
G01 X14.5184 Y8.3101
G01 X14.4831 Y8.4090
G01 X14.4382 Y8.5039
G01 X14.3842 Y8.5940
G01 X14.3216 Y8.6783
G01 X14.2511 Y8.7561
G01 X14.1733 Y8.8266
G01 X14.0890 Y8.8892
G01 X13.9989 Y8.9432
G01 X13.9040 Y8.9881
G01 X13.8051 Y9.0234
G01 X13.7032 Y9.0489
G01 X13.5994 Y9.0643
G01 X13.4945 Y9.0695
G01 X13.3896 Y9.0643
G01 X13.2858 Y9.0489
G01 X13.1839 Y9.0234
G01 X13.0850 Y8.9881
G01 X12.9901 Y8.9432
G01 X12.9000 Y8.8892
G01 X12.8157 Y8.8266
G01 X12.7379 Y8.7561
G01 X12.6674 Y8.6783
G01 X12.6048 Y8.5940
G01 X12.5508 Y8.5039
G01 X12.5059 Y8.4090
G01 X12.4706 Y8.3101
G01 X12.4451 Y8.2082
G01 X12.4297 Y8.1044
G00 Z2.0000
G00 X15.2779 Y7.2429
G01 F60.00
G01 Z0.0000
G01 F120.00
G01 X15.3143 Y7.2098
G01 X15.3143 Y5.1495
G01 X14.9783 Y5.1495
G01 X14.9501 Y5.1481
G01 X14.9234 Y5.1442
G01 X14.8936 Y5.1369
G01 X14.8647 Y5.1267
G01 X14.8381 Y5.1141
G01 X14.8128 Y5.0989
G01 X14.7892 Y5.0814
G01 X14.7674 Y5.0616
G01 X14.7476 Y5.0398
G01 X14.7301 Y5.0162
G01 X14.7149 Y4.9909
G01 X14.7023 Y4.9643
G01 X14.6918 Y4.9342
G01 X14.6853 Y4.9080
G01 X14.6812 Y4.8813
G01 X14.6795 Y4.8507
G01 X14.6795 Y4.1483
G01 X14.6809 Y4.1201
G01 X14.6853 Y4.0910
G01 X14.6924 Y4.0624
G01 X14.7023 Y4.0347
G01 X14.7161 Y4.0059
G01 X14.7301 Y3.9828
G01 X14.7476 Y3.9592
G01 X14.7691 Y3.9357
G01 X14.7892 Y3.9176
G01 X14.8108 Y3.9015
G01 X14.8381 Y3.8849
G01 X14.8670 Y3.8715
G01 X14.8924 Y3.8624
G01 X14.9186 Y3.8558
G01 X14.9513 Y3.8508
G01 X14.9795 Y3.8495
G01 X16.5207 Y3.8495
G01 X16.5489 Y3.8509
G01 X16.5780 Y3.8553
G01 X16.6066 Y3.8624
G01 X16.6343 Y3.8723
G01 X16.6609 Y3.8849
G01 X16.6882 Y3.9015
G01 X16.7098 Y3.9176
G01 X16.7299 Y3.9357
G01 X16.7514 Y3.9592
G01 X16.7703 Y3.9849
G01 X16.7841 Y4.0081
G01 X16.7957 Y4.0325
G01 X16.8066 Y4.0624
G01 X16.8140 Y4.0922
G01 X16.8181 Y4.1201
G01 X16.8195 Y4.1495
G01 X16.8195 Y4.8495
G01 X16.8178 Y4.8813
G01 X16.8137 Y4.9080
G01 X16.8072 Y4.9342
G01 X16.7967 Y4.9643
G01 X16.7829 Y4.9931
G01 X16.7689 Y5.0162
G01 X16.7529 Y5.0379
G01 X16.7316 Y5.0616
G01 X16.7079 Y5.0829
G01 X16.6862 Y5.0989
G01 X16.6631 Y5.1129
G01 X16.6343 Y5.1267
G01 X16.6066 Y5.1366
G01 X16.5804 Y5.1432
G01 X16.5465 Y5.1482
G01 X16.5195 Y5.1495
G01 X16.1847 Y5.1495
G01 X16.1847 Y6.9413
G01 X16.2444 Y6.9503
G01 X16.3439 Y6.9752
G01 X16.4451 Y7.0114
G01 X16.5389 Y7.0558
G01 X16.6269 Y7.1085
G01 X16.7142 Y7.1732
G01 X16.7911 Y7.2429
G01 X16.8600 Y7.3188
G01 X16.9242 Y7.4050
G01 X16.9793 Y7.4973
G01 X17.0231 Y7.5900
G01 X17.0581 Y7.6877
G01 X17.0844 Y7.7932
G01 X17.0993 Y7.8946
G01 X17.1044 Y7.9970
G01 X17.0993 Y8.1044
G01 X17.0834 Y8.2106
G01 X17.0584 Y8.3101
G01 X17.0239 Y8.4067
G01 X16.9782 Y8.5039
G01 X16.9228 Y8.5960
G01 X16.8616 Y8.6783
G01 X16.7911 Y8.7561
G01 X16.7133 Y8.8266
G01 X16.6290 Y8.8892
G01 X16.5389 Y8.9432
G01 X16.4440 Y8.9881
G01 X16.3451 Y9.0234
G01 X16.2432 Y9.0489
G01 X16.1394 Y9.0643
G01 X16.0345 Y9.0695
G01 X15.9296 Y9.0643
G01 X15.8258 Y9.0489
G01 X15.7239 Y9.0234
G01 X15.6250 Y8.9881
G01 X15.5301 Y8.9432
G01 X15.4400 Y8.8892
G01 X15.3557 Y8.8266
G01 X15.2779 Y8.7561
G01 X15.2074 Y8.6783
G01 X15.1448 Y8.5940
G01 X15.0908 Y8.5039
G01 X15.0459 Y8.4090
G01 X15.0106 Y8.3101
G01 X14.9851 Y8.2082
G01 X14.9697 Y8.1044
G01 X14.9645 Y7.9995
G01 X14.9697 Y7.8946
G01 X14.9851 Y7.7908
G01 X15.0106 Y7.6889
G01 X15.0459 Y7.5900
G01 X15.0908 Y7.4951
G01 X15.1448 Y7.4050
G01 X15.2074 Y7.3207
G01 X15.2779 Y7.2429
G00 Z2.0000
G00 X18.0701 Y7.0558
G01 F60.00
G01 Z0.0000
G01 F120.00
G01 X18.1393 Y7.0230
G01 X18.1393 Y6.9233
G01 X18.1413 Y6.8831
G01 X18.1477 Y6.8396
G01 X18.1577 Y6.7993
G01 X18.1724 Y6.7580
G01 X18.1907 Y6.7194
G01 X18.2127 Y6.6827
G01 X18.2397 Y6.6466
G01 X18.2668 Y6.6168
G01 X19.9436 Y4.9400
G01 X19.9418 Y4.9342
G01 X19.9348 Y4.9056
G01 X19.9309 Y4.8789
G01 X19.9295 Y4.8507
G01 X19.9295 Y4.1495
G01 X19.9309 Y4.1201
G01 X19.9353 Y4.0910
G01 X19.9424 Y4.0624
G01 X19.9523 Y4.0347
G01 X19.9649 Y4.0081
G01 X19.9801 Y3.9828
G01 X19.9976 Y3.9592
G01 X20.0174 Y3.9374
G01 X20.0401 Y3.9168
G01 X20.0628 Y3.9001
G01 X20.0859 Y3.8861
G01 X20.1170 Y3.8715
G01 X20.1424 Y3.8624
G01 X20.1710 Y3.8553
G01 X20.2001 Y3.8509
G01 X20.2270 Y3.8496
G01 X21.7707 Y3.8495
G01 X21.7989 Y3.8509
G01 X21.8304 Y3.8558
G01 X21.8566 Y3.8624
G01 X21.8820 Y3.8715
G01 X21.9087 Y3.8838
G01 X21.9362 Y3.9001
G01 X21.9598 Y3.9176
G01 X21.9816 Y3.9374
G01 X22.0022 Y3.9601
G01 X22.0189 Y3.9828
G01 X22.0329 Y4.0059
G01 X22.0467 Y4.0347
G01 X22.0566 Y4.0624
G01 X22.0632 Y4.0886
G01 X22.0682 Y4.1213
G01 X22.0695 Y4.1495
G01 X22.0695 Y4.8507
G01 X22.0681 Y4.8789
G01 X22.0637 Y4.9080
G01 X22.0566 Y4.9366
G01 X22.0467 Y4.9643
G01 X22.0341 Y4.9909
G01 X22.0189 Y5.0162
G01 X22.0014 Y5.0398
G01 X21.9825 Y5.0608
G01 X21.9598 Y5.0814
G01 X21.9382 Y5.0975
G01 X21.9087 Y5.1152
G01 X21.8843 Y5.1267
G01 X21.8566 Y5.1366
G01 X21.8280 Y5.1437
G01 X21.7989 Y5.1481
G01 X21.7695 Y5.1495
G01 X20.9650 Y5.1495
G01 X19.0652 Y7.0493
G01 X19.0810 Y7.0571
G01 X19.1690 Y7.1098
G01 X19.2552 Y7.1740
G01 X19.3311 Y7.2429
G01 X19.4000 Y7.3188
G01 X19.4655 Y7.4071
G01 X19.5182 Y7.4951
G01 X19.5621 Y7.5878
G01 X19.5984 Y7.6889
G01 X19.6239 Y7.7908
G01 X19.6390 Y7.8922
G01 X19.6445 Y7.9995
G01 X19.6393 Y8.1044
G01 X19.6244 Y8.2058
G01 X19.5984 Y8.3101
G01 X19.5621 Y8.4112
G01 X19.5182 Y8.5039
G01 X19.4655 Y8.5919
G01 X19.4016 Y8.6783
G01 X19.3293 Y8.7578
G01 X19.2533 Y8.8266
G01 X19.1710 Y8.8878
G01 X19.0789 Y8.9432
G01 X18.9840 Y8.9881
G01 X18.8851 Y9.0234
G01 X18.7832 Y9.0489
G01 X18.6794 Y9.0643
G01 X18.5745 Y9.0695
G01 X18.4696 Y9.0643
G01 X18.3658 Y9.0489
G01 X18.2639 Y9.0234
G01 X18.1650 Y8.9881
G01 X18.0701 Y8.9432
G01 X17.9800 Y8.8892
G01 X17.8957 Y8.8266
G01 X17.8179 Y8.7561
G01 X17.7474 Y8.6783
G01 X17.6848 Y8.5940
G01 X17.6308 Y8.5039
G01 X17.5859 Y8.4090
G01 X17.5506 Y8.3101
G01 X17.5251 Y8.2082
G01 X17.5097 Y8.1044
G01 X17.5045 Y7.9995
G01 X17.5097 Y7.8946
G01 X17.5251 Y7.7908
G01 X17.5506 Y7.6889
G01 X17.5859 Y7.5900
G01 X17.6308 Y7.4951
G01 X17.6848 Y7.4050
G01 X17.7474 Y7.3207
G01 X17.8179 Y7.2429
G01 X17.8957 Y7.1724
G01 X17.9800 Y7.1098
G01 X18.0701 Y7.0558
G00 Z2.0000
G00 X17.5097 Y10.6444
G01 F60.00
G01 Z0.0000
G01 F120.00
G01 X17.5045 Y10.5395
G01 X17.5097 Y10.4346
G01 X17.5251 Y10.3308
G01 X17.5506 Y10.2289
G01 X17.5859 Y10.1300
G01 X17.6308 Y10.0351
G01 X17.6848 Y9.9450
G01 X17.7474 Y9.8607
G01 X17.8179 Y9.7829
G01 X17.8957 Y9.7124
G01 X17.9800 Y9.6498
G01 X18.0701 Y9.5958
G01 X18.1650 Y9.5509
G01 X18.2639 Y9.5156
G01 X18.3658 Y9.4901
G01 X18.4696 Y9.4747
G01 X18.5745 Y9.4695
G01 X18.6794 Y9.4747
G01 X18.7832 Y9.4901
G01 X18.8851 Y9.5156
G01 X18.9840 Y9.5509
G01 X19.0789 Y9.5958
G01 X19.1690 Y9.6498
G01 X19.2533 Y9.7124
G01 X19.3311 Y9.7829
G01 X19.4016 Y9.8607
G01 X19.4642 Y9.9450
G01 X19.5182 Y10.0351
G01 X19.5631 Y10.1300
G01 X19.5984 Y10.2289
G01 X19.6239 Y10.3308
G01 X19.6393 Y10.4346
G01 X19.6445 Y10.5395
G01 X19.6393 Y10.6444
G01 X19.6239 Y10.7482
G01 X19.5984 Y10.8501
G01 X19.5631 Y10.9490
G01 X19.5182 Y11.0439
G01 X19.4642 Y11.1340
G01 X19.4016 Y11.2183
G01 X19.3311 Y11.2961
G01 X19.2533 Y11.3666
G01 X19.1690 Y11.4292
G01 X19.0789 Y11.4832
G01 X18.9840 Y11.5281
G01 X18.8851 Y11.5634
G01 X18.7832 Y11.5889
G01 X18.6794 Y11.6043
G01 X18.5745 Y11.6095
G01 X18.4696 Y11.6043
G01 X18.3658 Y11.5889
G01 X18.2639 Y11.5634
G01 X18.1650 Y11.5281
G01 X18.0701 Y11.4832
G01 X17.9800 Y11.4292
G01 X17.8957 Y11.3666
G01 X17.8179 Y11.2961
G01 X17.7474 Y11.2183
G01 X17.6848 Y11.1340
G01 X17.6308 Y11.0439
G01 X17.5859 Y10.9490
G01 X17.5506 Y10.8501
G01 X17.5251 Y10.7482
G01 X17.5097 Y10.6444
G00 Z2.0000
G00 X20.0497 Y10.6444
G01 F60.00
G01 Z0.0000
G01 F120.00
G01 X20.0445 Y10.5395
G01 X20.0497 Y10.4346
G01 X20.0651 Y10.3308
G01 X20.0906 Y10.2289
G01 X20.1259 Y10.1300
G01 X20.1708 Y10.0351
G01 X20.2248 Y9.9450
G01 X20.2874 Y9.8607
G01 X20.3579 Y9.7829
G01 X20.4357 Y9.7124
G01 X20.5200 Y9.6498
G01 X20.6101 Y9.5958
G01 X20.7050 Y9.5509
G01 X20.8039 Y9.5156
G01 X20.9058 Y9.4901
G01 X21.0096 Y9.4747
G01 X21.1145 Y9.4695
G01 X21.2194 Y9.4747
G01 X21.3232 Y9.4901
G01 X21.4251 Y9.5156
G01 X21.5240 Y9.5509
G01 X21.6189 Y9.5958
G01 X21.7090 Y9.6498
G01 X21.7933 Y9.7124
G01 X21.8711 Y9.7829
G01 X21.9416 Y9.8607
G01 X22.0042 Y9.9450
G01 X22.0582 Y10.0351
G01 X22.1031 Y10.1300
G01 X22.1384 Y10.2289
G01 X22.1639 Y10.3308
G01 X22.1793 Y10.4346
G01 X22.1845 Y10.5395
G01 X22.1793 Y10.6444
G01 X22.1639 Y10.7482
G01 X22.1384 Y10.8501
G01 X22.1031 Y10.9490
G01 X22.0582 Y11.0439
G01 X22.0042 Y11.1340
G01 X21.9416 Y11.2183
G01 X21.8711 Y11.2961
G01 X21.7933 Y11.3666
G01 X21.7090 Y11.4292
G01 X21.6189 Y11.4832
G01 X21.5240 Y11.5281
G01 X21.4251 Y11.5634
G01 X21.3232 Y11.5889
G01 X21.2194 Y11.6043
G01 X21.1145 Y11.6095
G01 X21.0096 Y11.6043
G01 X20.9058 Y11.5889
G01 X20.8039 Y11.5634
G01 X20.7050 Y11.5281
G01 X20.6101 Y11.4832
G01 X20.5200 Y11.4292
G01 X20.4357 Y11.3666
G01 X20.3579 Y11.2961
G01 X20.2874 Y11.2183
G01 X20.2248 Y11.1340
G01 X20.1708 Y11.0439
G01 X20.1259 Y10.9490
G01 X20.0906 Y10.8501
G01 X20.0651 Y10.7482
G01 X20.0497 Y10.6444
G00 Z2.0000
G00 X12.3735 Y12.6546
G01 F60.00
G01 Z0.0000
G01 F120.00
G01 X12.1785 Y12.5685
G01 X12.0027 Y12.4480
G01 X11.8520 Y12.2973
G01 X11.7315 Y12.1215
G01 X11.6454 Y11.9265
G01 X11.5965 Y11.7185
G01 X11.5905 Y11.6318
G01 X11.5905 Y10.8395
G01 X12.6905 Y10.8395
G01 X12.6905 Y11.5595
G01 X12.6910 Y11.5668
G01 X12.6927 Y11.5740
G01 X12.6953 Y11.5809
G01 X12.6989 Y11.5873
G01 X12.7026 Y11.5922
G01 X12.7069 Y11.5965
G01 X12.7117 Y11.6004
G01 X12.7159 Y11.6030
G01 X12.7202 Y11.6052
G01 X12.7260 Y11.6073
G01 X12.7320 Y11.6088
G01 X12.7380 Y11.6094
G01 X13.1945 Y11.6095
G01 X13.1945 Y12.7095
G01 X12.6682 Y12.7095
G01 X12.5815 Y12.7035
G01 X12.3735 Y12.6546
G00 Z2.0000
G00 X4.5050 Y18.2264
G01 F60.00
G01 Z0.0000
G01 F120.00
G01 X4.4090 Y18.1809
G01 X4.3077 Y18.1449
G01 X4.2082 Y18.1201
G01 X4.1068 Y18.1050
G01 X3.9995 Y18.0995
G01 X3.8922 Y18.1050
G01 X3.7908 Y18.1201
G01 X3.6913 Y18.1449
G01 X3.5900 Y18.1809
G01 X3.4973 Y18.2247
G01 X3.4857 Y18.2314
G01 X2.6919 Y17.4376
G01 X2.7913 Y17.3613
G01 X3.0377 Y17.2191
G01 X3.3005 Y17.1103
G01 X3.5752 Y17.0366
G01 X3.8573 Y16.9995
G01 X4.1417 Y16.9995
G01 X4.4238 Y17.0366
G01 X4.6985 Y17.1103
G01 X4.9613 Y17.2191
G01 X5.2077 Y17.3613
G01 X5.3071 Y17.4376
G01 X4.5133 Y18.2314
G01 X4.5050 Y18.2264
G00 Z2.0000
G00 X3.0553 Y18.6662
G01 F60.00
G01 Z0.0000
G01 F120.00
G01 X3.0101 Y18.7623
G01 X2.9756 Y18.8589
G01 X2.9506 Y18.9584
G01 X2.9347 Y19.0646
G01 X2.9295 Y19.1695
G01 X2.9350 Y19.2768
G01 X2.9501 Y19.3782
G01 X2.9749 Y19.4777
G01 X3.0109 Y19.5790
G01 X3.0547 Y19.6717
G01 X3.0614 Y19.6833
G01 X2.2676 Y20.4771
G01 X2.1913 Y20.3777
G01 X2.0491 Y20.1313
G01 X1.9403 Y19.8685
G01 X1.8666 Y19.5938
G01 X1.8295 Y19.3117
G01 X1.8295 Y19.0273
G01 X1.8666 Y18.7452
G01 X1.9403 Y18.4705
G01 X2.0491 Y18.2077
G01 X2.1913 Y17.9613
G01 X2.2676 Y17.8619
G01 X3.0614 Y18.6557
G01 X3.0553 Y18.6662
G00 Z2.0000
G00 X4.9432 Y21.2051
G01 F60.00
G01 Z0.0000
G01 F120.00
G01 X4.9760 Y21.2743
G01 X11.1092 Y21.2743
G01 X15.5993 Y16.7842
G01 X15.5993 Y11.5160
G01 X15.5301 Y11.4832
G01 X15.4421 Y11.4305
G01 X15.3548 Y11.3658
G01 X15.2779 Y11.2961
G01 X15.2090 Y11.2202
G01 X15.1442 Y11.1329
G01 X15.0908 Y11.0439
G01 X15.0469 Y10.9512
G01 X15.0106 Y10.8501
G01 X14.9851 Y10.7482
G01 X14.9700 Y10.6468
G01 X14.9645 Y10.5395
G01 X14.9697 Y10.4346
G01 X14.9846 Y10.3332
G01 X15.0106 Y10.2289
G01 X15.0469 Y10.1278
G01 X15.0908 Y10.0351
G01 X15.1448 Y9.9450
G01 X15.2074 Y9.8607
G01 X15.2762 Y9.7847
G01 X15.3557 Y9.7124
G01 X15.4421 Y9.6485
G01 X15.5301 Y9.5958
G01 X15.6250 Y9.5509
G01 X15.7239 Y9.5156
G01 X15.8258 Y9.4901
G01 X15.9296 Y9.4747
G01 X16.0345 Y9.4695
G01 X16.1394 Y9.4747
G01 X16.2432 Y9.4901
G01 X16.3451 Y9.5156
G01 X16.4440 Y9.5509
G01 X16.5389 Y9.5958
G01 X16.6290 Y9.6498
G01 X16.7133 Y9.7124
G01 X16.7911 Y9.7829
G01 X16.8616 Y9.8607
G01 X16.9242 Y9.9450
G01 X16.9782 Y10.0351
G01 X17.0231 Y10.1300
G01 X17.0584 Y10.2289
G01 X17.0839 Y10.3308
G01 X17.0993 Y10.4346
G01 X17.1045 Y10.5395
G01 X17.0993 Y10.6444
G01 X17.0839 Y10.7482
G01 X17.0584 Y10.8501
G01 X17.0235 Y10.9478
G01 X16.9782 Y11.0439
G01 X16.9242 Y11.1340
G01 X16.8616 Y11.2183
G01 X16.7920 Y11.2952
G01 X16.7133 Y11.3666
G01 X16.6290 Y11.4292
G01 X16.5389 Y11.4832
G01 X16.4697 Y11.5160
G01 X16.4697 Y11.6042
G01 X19.5590 Y14.6936
G01 X19.5648 Y14.6918
G01 X19.5934 Y14.6848
G01 X19.6201 Y14.6809
G01 X19.6495 Y14.6795
G01 X20.3495 Y14.6795
G01 X20.3789 Y14.6809
G01 X20.4056 Y14.6848
G01 X20.4366 Y14.6924
G01 X20.4665 Y14.7033
G01 X20.4909 Y14.7149
G01 X20.5141 Y14.7287
G01 X20.5398 Y14.7476
G01 X20.5616 Y14.7674
G01 X20.5829 Y14.7911
G01 X20.5989 Y14.8128
G01 X20.6129 Y14.8359
G01 X20.6267 Y14.8647
G01 X20.6366 Y14.8924
G01 X20.6437 Y14.9210
G01 X20.6481 Y14.9501
G01 X20.6495 Y14.9783
G01 X20.6495 Y16.5195
G01 X20.6478 Y16.5513
G01 X20.6437 Y16.5780
G01 X20.6372 Y16.6042
G01 X20.6267 Y16.6343
G01 X20.6135 Y16.6620
G01 X20.5975 Y16.6882
G01 X20.5814 Y16.7098
G01 X20.5633 Y16.7299
G01 X20.5398 Y16.7514
G01 X20.5162 Y16.7689
G01 X20.4909 Y16.7841
G01 X20.4620 Y16.7975
G01 X20.4366 Y16.8066
G01 X20.4104 Y16.8132
G01 X20.3801 Y16.8179
G01 X20.3495 Y16.8195
G01 X19.6470 Y16.8194
G01 X19.6177 Y16.8178
G01 X19.5910 Y16.8137
G01 X19.5648 Y16.8072
G01 X19.5347 Y16.7967
G01 X19.5092 Y16.7846
G01 X19.4828 Y16.7689
G01 X19.4573 Y16.7498
G01 X19.4357 Y16.7299
G01 X19.4176 Y16.7098
G01 X19.4015 Y16.6882
G01 X19.3849 Y16.6609
G01 X19.3723 Y16.6343
G01 X19.3624 Y16.6066
G01 X19.3548 Y16.5756
G01 X19.3509 Y16.5489
G01 X19.3495 Y16.5195
G01 X19.3495 Y15.7150
G01 X16.4697 Y12.8351
G01 X16.4697 Y16.9645
G01 X16.4673 Y17.0096
G01 X16.4613 Y17.0494
G01 X16.4516 Y17.0885
G01 X16.4366 Y17.1310
G01 X16.4183 Y17.1696
G01 X16.3963 Y17.2063
G01 X16.3724 Y17.2386
G01 X16.3422 Y17.2722
G01 X11.5572 Y22.0572
G01 X11.5256 Y22.0859
G01 X11.4933 Y22.1099
G01 X11.4525 Y22.1344
G01 X11.4160 Y22.1516
G01 X11.3758 Y22.1660
G01 X11.3344 Y22.1763
G01 X11.2946 Y22.1823
G01 X11.2495 Y22.1847
G01 X11.2068 Y22.1826
G01 X11.1634 Y22.1761
G01 X11.1220 Y22.1656
G01 X11.0841 Y22.1520
G01 X11.0683 Y22.1447
G01 X4.9760 Y22.1447
G01 X4.9432 Y22.2139
G01 X4.8905 Y22.3019
G01 X4.8266 Y22.3883
G01 X4.7543 Y22.4678
G01 X4.6783 Y22.5366
G01 X4.5940 Y22.5992
G01 X4.5017 Y22.6543
G01 X4.4090 Y22.6981
G01 X4.3101 Y22.7334
G01 X4.2058 Y22.7594
G01 X4.1044 Y22.7743
G01 X4.0007 Y22.7795
G01 X3.8922 Y22.7740
G01 X3.7908 Y22.7589
G01 X3.6913 Y22.7341
G01 X3.5900 Y22.6981
G01 X3.4930 Y22.6519
G01 X3.4050 Y22.5992
G01 X3.3226 Y22.5381
G01 X3.2429 Y22.4661
G01 X3.1724 Y22.3883
G01 X3.1112 Y22.3060
G01 X3.0558 Y22.2139
G01 X3.0109 Y22.1190
G01 X2.9756 Y22.0201
G01 X2.9501 Y21.9182
G01 X2.9347 Y21.8144
G01 X2.9295 Y21.7095
G01 X2.9347 Y21.6046
G01 X2.9501 Y21.5008
G01 X2.9756 Y21.3989
G01 X3.0109 Y21.3000
G01 X3.0558 Y21.2051
G01 X3.1098 Y21.1150
G01 X3.1724 Y21.0307
G01 X3.2429 Y20.9529
G01 X3.3207 Y20.8824
G01 X3.4050 Y20.8198
G01 X3.4951 Y20.7658
G01 X3.5900 Y20.7209
G01 X3.6889 Y20.6856
G01 X3.7908 Y20.6601
G01 X3.8946 Y20.6447
G01 X3.9995 Y20.6395
G01 X4.1044 Y20.6447
G01 X4.2082 Y20.6601
G01 X4.3101 Y20.6856
G01 X4.4090 Y20.7209
G01 X4.5039 Y20.7658
G01 X4.5940 Y20.8198
G01 X4.6783 Y20.8824
G01 X4.7561 Y20.9529
G01 X4.8266 Y21.0307
G01 X4.8892 Y21.1150
G01 X4.9432 Y21.2051
G00 Z2.0000
G00 X2.6577 Y23.0777
G01 F60.00
G01 Z0.0000
G01 F120.00
G01 X2.7614 Y23.0000
G01 X2.8381 Y22.9713
G01 X2.8744 Y22.9515
G01 X2.8796 Y22.9479
G01 X2.8842 Y22.9437
G01 X2.8883 Y22.9389
G01 X2.9309 Y22.8819
G01 X2.9342 Y22.8767
G01 X2.9368 Y22.8710
G01 X2.9386 Y22.8651
G01 X2.9399 Y22.8578
G01 X2.9451 Y22.7831
G01 X2.9449 Y22.7782
G01 X2.9439 Y22.7720
G01 X2.9425 Y22.7673
G01 X2.9401 Y22.7615
G01 X2.9031 Y22.6939
G01 X2.8978 Y22.6875
G01 X2.8779 Y22.6675
G01 X2.7418 Y22.4802
G01 X2.6367 Y22.2740
G01 X2.5652 Y22.0538
G01 X2.5290 Y21.8252
G01 X2.5290 Y21.5938
G01 X2.5652 Y21.3652
G01 X2.6367 Y21.1450
G01 X2.6769 Y21.0661
G01 X2.6900 Y21.0297
G01 X2.6913 Y21.0226
G01 X2.6916 Y21.0154
G01 X2.6872 Y20.9420
G01 X2.6861 Y20.9359
G01 X2.6838 Y20.9288
G01 X2.6806 Y20.9221
G01 X2.6768 Y20.9165
G01 X3.4857 Y20.1076
G01 X3.4973 Y20.1143
G01 X3.5923 Y20.1589
G01 X3.6889 Y20.1934
G01 X3.7908 Y20.2189
G01 X3.8946 Y20.2343
G01 X3.9970 Y20.2394
G01 X4.1068 Y20.2340
G01 X4.2082 Y20.2189
G01 X4.3101 Y20.1934
G01 X4.4090 Y20.1581
G01 X4.5017 Y20.1143
G01 X4.5960 Y20.0578
G01 X4.6783 Y19.9966
G01 X4.7561 Y19.9261
G01 X4.8266 Y19.8483
G01 X4.8878 Y19.7660
G01 X4.9443 Y19.6717
G01 X4.9881 Y19.5790
G01 X5.0234 Y19.4801
G01 X5.0489 Y19.3782
G01 X5.0640 Y19.2768
G01 X5.0694 Y19.1670
G01 X5.0643 Y19.0646
G01 X5.0489 Y18.9608
G01 X5.0234 Y18.8589
G01 X4.9889 Y18.7623
G01 X4.9443 Y18.6673
G01 X4.9376 Y18.6557
G01 X5.7314 Y17.8619
G01 X5.8077 Y17.9613
G01 X5.9499 Y18.2077
G01 X6.0587 Y18.4705
G01 X6.1324 Y18.7452
G01 X6.1695 Y19.0273
G01 X6.1695 Y19.3117
G01 X6.1324 Y19.5938
G01 X6.0587 Y19.8685
G01 X5.9499 Y20.1313
G01 X5.8077 Y20.3777
G01 X5.6394 Y20.5972
G01 X5.6352 Y20.6051
G01 X5.6092 Y20.6676
G01 X5.6079 Y20.6723
G01 X5.6071 Y20.6784
G01 X5.6073 Y20.6882
G01 X5.6176 Y20.7599
G01 X5.6190 Y20.7659
G01 X5.6211 Y20.7717
G01 X5.6246 Y20.7783
G01 X5.6283 Y20.7833
G01 X5.6748 Y20.8371
G01 X5.6801 Y20.8423
G01 X5.6872 Y20.8474
G01 X5.6927 Y20.8502
G01 X5.6973 Y20.8519
G01 X5.7656 Y20.8720
G01 X5.7725 Y20.8735
G01 X5.7797 Y20.8740
G01 X10.8714 Y20.8740
G01 X10.9043 Y20.8707
G01 X10.9127 Y20.8689
G01 X10.9206 Y20.8656
G01 X10.9840 Y20.8310
G01 X10.9899 Y20.8270
G01 X10.9944 Y20.8230
G01 X15.1480 Y16.6694
G01 X15.1682 Y16.6448
G01 X15.1730 Y16.6376
G01 X15.1769 Y16.6287
G01 X15.1970 Y16.5604
G01 X15.1985 Y16.5535
G01 X15.1990 Y16.5464
G01 X15.1990 Y12.6324
G01 X15.1987 Y12.6274
G01 X15.1980 Y12.6223
G01 X15.1836 Y12.5616
G01 X15.1795 Y12.5527
G01 X15.1739 Y12.5447
G01 X15.1249 Y12.4915
G01 X15.1203 Y12.4873
G01 X15.1153 Y12.4837
G01 X15.1087 Y12.4802
G01 X15.1028 Y12.4782
G01 X15.0340 Y12.4601
G01 X15.0255 Y12.4587
G01 X15.0156 Y12.4588
G01 X15.0059 Y12.4610
G01 X14.9394 Y12.4826
G01 X14.9328 Y12.4853
G01 X14.9267 Y12.4889
G01 X14.8105 Y12.5685
G01 X14.6155 Y12.6546
G01 X14.4075 Y12.7035
G01 X14.3208 Y12.7095
G01 X13.7945 Y12.7095
G01 X13.7945 Y11.6095
G01 X14.2522 Y11.6094
G01 X14.2606 Y11.6080
G01 X14.2688 Y11.6052
G01 X14.2763 Y11.6011
G01 X14.2821 Y11.5965
G01 X14.2879 Y11.5903
G01 X14.2926 Y11.5831
G01 X14.2960 Y11.5752
G01 X14.2980 Y11.5668
G01 X14.2985 Y11.5595
G01 X14.2985 Y9.5195
G01 X14.2981 Y9.5134
G01 X14.2970 Y9.5074
G01 X14.2947 Y9.5004
G01 X14.2920 Y9.4949
G01 X14.2887 Y9.4897
G01 X14.2847 Y9.4850
G01 X14.2802 Y9.4808
G01 X14.2742 Y9.4766
G01 X14.2676 Y9.4733
G01 X14.2618 Y9.4713
G01 X14.2558 Y9.4700
G01 X14.2497 Y9.4695
G01 X12.7405 Y9.4695
G01 X12.7332 Y9.4700
G01 X12.7272 Y9.4713
G01 X12.7202 Y9.4738
G01 X12.7127 Y9.4779
G01 X12.7069 Y9.4825
G01 X12.7018 Y9.4878
G01 X12.6976 Y9.4938
G01 X12.6939 Y9.5015
G01 X12.6915 Y9.5097
G01 X12.6906 Y9.5170
G01 X12.6905 Y10.2395
G01 X11.5905 Y10.2395
G01 X11.5905 Y9.4472
G01 X11.5965 Y9.3605
G01 X11.6454 Y9.1525
G01 X11.7315 Y8.9575
G01 X11.8520 Y8.7817
G01 X12.0027 Y8.6310
G01 X12.0206 Y8.6186
G01 X12.0362 Y8.6062
G01 X12.0414 Y8.6013
G01 X12.0470 Y8.5936
G01 X12.0837 Y8.5327
G01 X12.0873 Y8.5248
G01 X12.0896 Y8.5165
G01 X12.0903 Y8.5066
G01 X12.0883 Y8.4367
G01 X12.0875 Y8.4296
G01 X12.0858 Y8.4227
G01 X12.0602 Y8.3438
G01 X12.0240 Y8.1152
G01 X12.0240 Y7.8838
G01 X12.0602 Y7.6552
G01 X12.1317 Y7.4350
G01 X12.2368 Y7.2288
G01 X12.3729 Y7.0415
G01 X12.5365 Y6.8779
G01 X12.7238 Y6.7418
G01 X12.9300 Y6.6367
G01 X13.1502 Y6.5652
G01 X13.3788 Y6.5290
G01 X13.6102 Y6.5290
G01 X13.8388 Y6.5652
G01 X14.0590 Y6.6367
G01 X14.2652 Y6.7418
G01 X14.4525 Y6.8779
G01 X14.6170 Y7.0424
G01 X14.6275 Y7.0521
G01 X14.6315 Y7.0550
G01 X14.6369 Y7.0580
G01 X14.7050 Y7.0890
G01 X14.7110 Y7.0908
G01 X14.7159 Y7.0916
G01 X14.7208 Y7.0920
G01 X14.7270 Y7.0918
G01 X14.7999 Y7.0814
G01 X14.8059 Y7.0800
G01 X14.8117 Y7.0779
G01 X14.8183 Y7.0743
G01 X14.8233 Y7.0707
G01 X14.8780 Y7.0233
G01 X14.8823 Y7.0189
G01 X14.8860 Y7.0139
G01 X14.8891 Y7.0085
G01 X14.8911 Y7.0040
G01 X14.9123 Y6.9323
G01 X14.9135 Y6.9264
G01 X14.9140 Y6.9205
G01 X14.9140 Y5.6914
G01 X14.9130 Y5.6729
G01 X14.9114 Y5.6645
G01 X14.9094 Y5.6588
G01 X14.8811 Y5.5909
G01 X14.8779 Y5.5855
G01 X14.8749 Y5.5816
G01 X14.8716 Y5.5779
G01 X14.8669 Y5.5738
G01 X14.8075 Y5.5326
G01 X14.8003 Y5.5284
G01 X14.7947 Y5.5262
G01 X14.6814 Y5.4887
G01 X14.5421 Y5.4027
G01 X14.4263 Y5.2869
G01 X14.3403 Y5.1476
G01 X14.2887 Y4.9918
G01 X14.2790 Y4.8970
G01 X14.2790 Y4.1020
G01 X14.2887 Y4.0072
G01 X14.3403 Y3.8514
G01 X14.4263 Y3.7121
G01 X14.5421 Y3.5963
G01 X14.6821 Y3.5098
G01 X14.6886 Y3.5046
G01 X14.7274 Y3.4671
G01 X14.7337 Y3.4593
G01 X14.7362 Y3.4550
G01 X14.7387 Y3.4493
G01 X14.7605 Y3.3803
G01 X14.7619 Y3.3743
G01 X14.7627 Y3.3644
G01 X14.7616 Y3.3545
G01 X14.7425 Y3.2847
G01 X14.7406 Y3.2791
G01 X14.7369 Y3.2717
G01 X14.6603 Y3.1476
G01 X14.6087 Y2.9918
G01 X14.5990 Y2.8970
G01 X14.5990 Y2.1020
G01 X14.6087 Y2.0072
G01 X14.6603 Y1.8514
G01 X14.7463 Y1.7121
G01 X14.8621 Y1.5963
G01 X15.0014 Y1.5103
G01 X15.1572 Y1.4587
G01 X15.2520 Y1.4490
G01 X16.2470 Y1.4490
G01 X16.3418 Y1.4587
G01 X16.4976 Y1.5103
G01 X16.6369 Y1.5963
G01 X16.6566 Y1.6158
G01 X16.6793 Y1.6340
G01 X16.6854 Y1.6380
G01 X16.6944 Y1.6419
G01 X16.7626 Y1.6620
G01 X16.7684 Y1.6633
G01 X16.7744 Y1.6639
G01 X19.9736 Y1.6640
G01 X20.0064 Y1.6606
G01 X20.0124 Y1.6592
G01 X20.0170 Y1.6577
G01 X20.0226 Y1.6550
G01 X20.0839 Y1.6216
G01 X20.0890 Y1.6184
G01 X20.0936 Y1.6147
G01 X20.1121 Y1.5963
G01 X20.2514 Y1.5103
G01 X20.4072 Y1.4587
G01 X20.5020 Y1.4490
G01 X21.4970 Y1.4490
G01 X21.5918 Y1.4587
G01 X21.7476 Y1.5103
G01 X21.8869 Y1.5963
G01 X21.9066 Y1.6158
G01 X21.9293 Y1.6340
G01 X21.9354 Y1.6380
G01 X21.9410 Y1.6407
G01 X21.9456 Y1.6423
G01 X22.0126 Y1.6620
G01 X22.0220 Y1.6638
G01 X24.0818 Y1.6640
G01 X24.2432 Y1.6961
G01 X24.3953 Y1.7591
G01 X24.5321 Y1.8505
G01 X27.5015 Y4.8199
G01 X27.5088 Y4.8259
G01 X27.5563 Y4.8564
G01 X27.5654 Y4.8605
G01 X27.5751 Y4.8627
G01 X27.6485 Y4.8680
G01 X27.6547 Y4.8679
G01 X27.6621 Y4.8667
G01 X27.6680 Y4.8650
G01 X27.6748 Y4.8619
G01 X27.7372 Y4.8278
G01 X27.7449 Y4.8223
G01 X28.9669 Y3.6005
G01 X29.1037 Y3.5091
G01 X29.2558 Y3.4461
G01 X29.4172 Y3.4140
G01 X29.9514 Y3.4140
G01 X29.9583 Y3.4133
G01 X30.0044 Y3.4047
G01 X30.0128 Y3.4024
G01 X30.0185 Y3.3998
G01 X30.0248 Y3.3959
G01 X30.0811 Y3.3525
G01 X30.0856 Y3.3486
G01 X30.0910 Y3.3423
G01 X30.1279 Y3.2915
G01 X30.2915 Y3.1279
G01 X30.4788 Y2.9918
G01 X30.6850 Y2.8867
G01 X30.9052 Y2.8152
G01 X31.1338 Y2.7790
G01 X31.3652 Y2.7790
G01 X31.5938 Y2.8152
G01 X31.8140 Y2.8867
G01 X32.0202 Y2.9918
G01 X32.2075 Y3.1279
G01 X32.3711 Y3.2915
G01 X32.3758 Y3.2977
G01 X32.3911 Y3.3154
G01 X32.9756 Y3.8999
G01 X32.9637 Y3.9254
G01 X32.9365 Y4.0016
G01 X32.9161 Y4.0825
G01 X32.9036 Y4.1662
G01 X32.8995 Y4.2495
G01 X32.9036 Y4.3328
G01 X32.9161 Y4.4165
G01 X32.9365 Y4.4974
G01 X32.9637 Y4.5736
G01 X32.9756 Y4.5991
G01 X32.3911 Y5.1836
G01 X32.3758 Y5.2013
G01 X32.3711 Y5.2075
G01 X32.2075 Y5.3711
G01 X32.0202 Y5.5072
G01 X31.8140 Y5.6123
G01 X31.5938 Y5.6838
G01 X31.3652 Y5.7200
G01 X31.1338 Y5.7200
G01 X30.9052 Y5.6838
G01 X30.6850 Y5.6123
G01 X30.4788 Y5.5072
G01 X30.2915 Y5.3711
G01 X30.1279 Y5.2075
G01 X30.0910 Y5.1567
G01 X30.0865 Y5.1514
G01 X30.0507 Y5.1175
G01 X30.0448 Y5.1130
G01 X30.0394 Y5.1099
G01 X30.0314 Y5.1067
G01 X29.9597 Y5.0859
G01 X29.9514 Y5.0850
G01 X29.9136 Y5.0852
G01 X29.8823 Y5.0886
G01 X29.8694 Y5.0918
G01 X29.8635 Y5.0939
G01 X29.8567 Y5.0973
G01 X29.8314 Y5.1136
G01 X29.8050 Y5.1280
G01 X29.8000 Y5.1313
G01 X29.7946 Y5.1360
G01 X25.7291 Y9.2015
G01 X25.7231 Y9.2088
G01 X25.6926 Y9.2563
G01 X25.6903 Y9.2607
G01 X25.6881 Y9.2666
G01 X25.6862 Y9.2764
G01 X25.6810 Y9.3485
G01 X25.6812 Y9.3560
G01 X25.6823 Y9.3621
G01 X25.6845 Y9.3692
G01 X25.6871 Y9.3748
G01 X25.7206 Y9.4361
G01 X25.7259 Y9.4440
G01 X25.9897 Y9.7081
G01 X26.0045 Y9.7213
G01 X26.0105 Y9.7256
G01 X26.0171 Y9.7290
G01 X26.0833 Y9.7551
G01 X26.0916 Y9.7576
G01 X26.1002 Y9.7586
G01 X26.1089 Y9.7581
G01 X26.1845 Y9.7429
G01 X26.1922 Y9.7399
G01 X26.2451 Y9.7123
G01 X26.4313 Y9.6590
G01 X26.5437 Y9.6490
G01 X27.6553 Y9.6490
G01 X27.7677 Y9.6590
G01 X27.9539 Y9.7123
G01 X28.1253 Y9.8018
G01 X28.2751 Y9.9239
G01 X28.3972 Y10.0738
G01 X28.4867 Y10.2451
G01 X28.5400 Y10.4313
G01 X28.5500 Y10.5437
G01 X28.5501 Y10.9924
G01 X28.5511 Y11.0006
G01 X28.5626 Y11.0534
G01 X28.5659 Y11.0628
G01 X28.5690 Y11.0682
G01 X28.5718 Y11.0723
G01 X28.6200 Y11.1280
G01 X28.6245 Y11.1323
G01 X28.6284 Y11.1353
G01 X28.6348 Y11.1391
G01 X28.6417 Y11.1419
G01 X28.7111 Y11.1623
G01 X28.7204 Y11.1639
G01 X31.3426 Y11.1640
G01 X31.3513 Y11.1632
G01 X31.4010 Y11.1532
G01 X31.4068 Y11.1516
G01 X31.4125 Y11.1493
G01 X31.4178 Y11.1464
G01 X31.4218 Y11.1436
G01 X31.4767 Y11.0985
G01 X31.4821 Y11.0934
G01 X31.4874 Y11.0865
G01 X31.4903 Y11.0810
G01 X31.4922 Y11.0765
G01 X31.5145 Y11.0076
G01 X31.5157 Y11.0028
G01 X31.5165 Y10.9966
G01 X31.5161 Y10.9867
G01 X31.5149 Y10.9806
G01 X31.4971 Y10.9131
G01 X31.4943 Y10.9052
G01 X31.4915 Y10.9000
G01 X31.4057 Y10.7581
G01 X31.3138 Y10.5297
G01 X31.2597 Y10.2892
G01 X31.2495 Y10.1453
G01 X31.2495 Y9.9995
G01 X32.3495 Y9.9995
G01 X32.3495 Y10.0757
G01 X32.3515 Y10.1162
G01 X32.3577 Y10.1574
G01 X32.3675 Y10.1967
G01 X32.3819 Y10.2371
G01 X32.3997 Y10.2748
G01 X32.4211 Y10.3106
G01 X32.4468 Y10.3451
G01 X32.4740 Y10.3750
G01 X32.5068 Y10.4045
G01 X32.5384 Y10.4279
G01 X32.5720 Y10.4481
G01 X32.6096 Y10.4662
G01 X32.6511 Y10.4812
G01 X32.6916 Y10.4913
G01 X32.7328 Y10.4975
G01 X32.7745 Y10.4995
G01 X34.0245 Y10.4995
G01 X34.0662 Y10.4975
G01 X34.1062 Y10.4916
G01 X34.1479 Y10.4812
G01 X34.1871 Y10.4671
G01 X34.2248 Y10.4493
G01 X34.2606 Y10.4279
G01 X34.2941 Y10.4030
G01 X34.3250 Y10.3750
G01 X34.3530 Y10.3441
G01 X34.3772 Y10.3116
G01 X34.3993 Y10.2748
G01 X34.4171 Y10.2371
G01 X34.4312 Y10.1979
G01 X34.4411 Y10.1586
G01 X34.4476 Y10.1137
G01 X34.4495 Y10.0757
G01 X34.4495 Y9.9995
G01 X35.5495 Y9.9995
G01 X35.5495 Y10.1453
G01 X35.5393 Y10.2892
G01 X35.4852 Y10.5297
G01 X35.3933 Y10.7581
G01 X35.2659 Y10.9688
G01 X35.1063 Y11.1563
G01 X34.9173 Y11.3172
G01 X34.9062 Y11.3251
G01 X34.9006 Y11.3301
G01 X34.8959 Y11.3359
G01 X34.8549 Y11.3940
G01 X34.8518 Y11.3994
G01 X34.8494 Y11.4051
G01 X34.8477 Y11.4111
G01 X34.8467 Y11.4185
G01 X34.8436 Y11.4919
G01 X34.8444 Y11.5002
G01 X34.8475 Y11.5134
G01 X34.8500 Y11.5501
G01 X34.8500 Y12.4489
G01 X34.8475 Y12.4856
G01 X34.8039 Y12.6609
G01 X34.7242 Y12.8217
G01 X34.6117 Y12.9617
G01 X34.5460 Y13.0145
G01 X34.5365 Y13.0227
G01 X34.5323 Y13.0273
G01 X34.5281 Y13.0334
G01 X34.4919 Y13.0946
G01 X34.4883 Y13.1025
G01 X34.4864 Y13.1097
G01 X34.4855 Y13.1196
G01 X34.4883 Y13.1931
G01 X34.4892 Y13.1993
G01 X34.4905 Y13.2041
G01 X34.4927 Y13.2098
G01 X34.4950 Y13.2142
G01 X34.5370 Y13.2747
G01 X34.5407 Y13.2794
G01 X34.5467 Y13.2851
G01 X34.6117 Y13.3373
G01 X34.7242 Y13.4773
G01 X34.8039 Y13.6381
G01 X34.8475 Y13.8134
G01 X34.8500 Y13.8501
G01 X34.8500 Y14.7489
G01 X34.8475 Y14.7856
G01 X34.8039 Y14.9609
G01 X34.7242 Y15.1217
G01 X34.6117 Y15.2617
G01 X34.4717 Y15.3742
G01 X34.3109 Y15.4539
G01 X34.1356 Y15.4975
G01 X34.0989 Y15.5000
G01 X32.7001 Y15.5000
G01 X32.6634 Y15.4975
G01 X32.4881 Y15.4539
G01 X32.3273 Y15.3742
G01 X32.1873 Y15.2617
G01 X32.1355 Y15.1974
G01 X32.0998 Y15.1651
G01 X32.0925 Y15.1604
G01 X32.0856 Y15.1575
G01 X32.0151 Y15.1367
G01 X32.0081 Y15.1354
G01 X32.0022 Y15.1350
G01 X31.6136 Y15.1352
G01 X31.5835 Y15.1384
G01 X31.5787 Y15.1394
G01 X31.5729 Y15.1413
G01 X31.5673 Y15.1440
G01 X31.5060 Y15.1774
G01 X31.5000 Y15.1813
G01 X31.4946 Y15.1860
G01 X27.5960 Y19.0846
G01 X27.5750 Y19.1102
G01 X27.5716 Y19.1153
G01 X27.5688 Y19.1208
G01 X27.5667 Y19.1265
G01 X27.5464 Y19.1959
G01 X27.5454 Y19.2017
G01 X27.5450 Y19.2076
G01 X27.5452 Y21.0198
G01 X27.5461 Y21.0256
G01 X27.5576 Y21.0784
G01 X27.5595 Y21.0843
G01 X27.5621 Y21.0900
G01 X27.5676 Y21.0983
G01 X27.6167 Y21.1548
G01 X27.6204 Y21.1581
G01 X27.6255 Y21.1617
G01 X27.6298 Y21.1641
G01 X27.6355 Y21.1665
G01 X27.7061 Y21.1873
G01 X27.7119 Y21.1885
G01 X27.7178 Y21.1890
G01 X29.6343 Y21.1890
G01 X29.6723 Y21.1844
G01 X29.6782 Y21.1830
G01 X29.6838 Y21.1809
G01 X29.6892 Y21.1781
G01 X29.7503 Y21.1418
G01 X29.7563 Y21.1374
G01 X29.7608 Y21.1331
G01 X29.7654 Y21.1272
G01 X29.7685 Y21.1219
G01 X29.8003 Y21.0583
G01 X29.8022 Y21.0537
G01 X29.8039 Y21.0477
G01 X29.8049 Y21.0404
G01 X29.8049 Y21.0329
G01 X29.7971 Y20.9610
G01 X29.7957 Y20.9540
G01 X29.7938 Y20.9484
G01 X29.6903 Y20.6985
G01 X29.6166 Y20.4238
G01 X29.5795 Y20.1417
G01 X29.5795 Y19.8573
G01 X29.6166 Y19.5752
G01 X29.6903 Y19.3005
G01 X29.7991 Y19.0377
G01 X29.9413 Y18.7913
G01 X30.0176 Y18.6919
G01 X30.8114 Y19.4857
G01 X30.8047 Y19.4973
G01 X30.7609 Y19.5900
G01 X30.7249 Y19.6913
G01 X30.7001 Y19.7908
G01 X30.6850 Y19.8922
G01 X30.6796 Y20.0020
G01 X30.6847 Y20.1044
G01 X30.6996 Y20.2058
G01 X30.7256 Y20.3101
G01 X30.7619 Y20.4112
G01 X30.8058 Y20.5039
G01 X30.8592 Y20.5929
G01 X30.9224 Y20.6783
G01 X30.9929 Y20.7561
G01 X31.0707 Y20.8266
G01 X31.1550 Y20.8892
G01 X31.2451 Y20.9432
G01 X31.3400 Y20.9881
G01 X31.4389 Y21.0234
G01 X31.5432 Y21.0494
G01 X31.6446 Y21.0643
G01 X31.7470 Y21.0694
G01 X31.8519 Y21.0645
G01 X31.9582 Y21.0489
G01 X32.0613 Y21.0231
G01 X32.1601 Y20.9876
G01 X32.2528 Y20.9437
G01 X32.2954 Y20.9184
G01 X32.3480 Y20.9221
G01 X32.3554 Y20.9217
G01 X32.3615 Y20.9205
G01 X32.3663 Y20.9190
G01 X32.3719 Y20.9165
G01 X32.4354 Y20.8819
G01 X32.4413 Y20.8779
G01 X32.4458 Y20.8740
G01 X32.6272 Y20.6922
G01 X32.6307 Y20.6874
G01 X32.6592 Y20.6431
G01 X32.6637 Y20.6342
G01 X32.6656 Y20.6282
G01 X32.6669 Y20.6209
G01 X32.6720 Y20.5499
G01 X32.6721 Y20.5450
G01 X32.6717 Y20.5399
G01 X32.6937 Y20.5028
G01 X32.7376 Y20.4101
G01 X32.7731 Y20.3113
G01 X32.7989 Y20.2082
G01 X32.8145 Y20.1019
G01 X32.8195 Y19.9995
G01 X32.8145 Y19.8971
G01 X32.7989 Y19.7908
G01 X32.7734 Y19.6889
G01 X32.7389 Y19.5923
G01 X32.6943 Y19.4973
G01 X32.6876 Y19.4857
G01 X33.4814 Y18.6919
G01 X33.5577 Y18.7913
G01 X33.6999 Y19.0377
G01 X33.8087 Y19.3005
G01 X33.8824 Y19.5752
G01 X33.9195 Y19.8573
G01 X33.9195 Y20.1417
G01 X33.8824 Y20.4238
G01 X33.8087 Y20.6985
G01 X33.6999 Y20.9613
G01 X33.5577 Y21.2077
G01 X33.4814 Y21.3071
G01 X33.4510 Y21.2767
G01 X33.4456 Y21.2721
G01 X33.3983 Y21.2415
G01 X33.3906 Y21.2375
G01 X33.3835 Y21.2351
G01 X33.3749 Y21.2337
G01 X33.3039 Y21.2287
G01 X33.2977 Y21.2288
G01 X33.2928 Y21.2294
G01 X33.2844 Y21.2316
G01 X33.2776 Y21.2347
G01 X33.2152 Y21.2688
G01 X33.2101 Y21.2722
G01 X33.2045 Y21.2772
G01 X33.2004 Y21.2819
G01 X33.1970 Y21.2870
G01 X33.1629 Y21.3494
G01 X33.1594 Y21.3574
G01 X33.1574 Y21.3658
G01 X33.1569 Y21.3708
G01 X33.1569 Y21.3770
G01 X33.1619 Y21.4467
G01 X33.1629 Y21.4537
G01 X33.1649 Y21.4606
G01 X33.2145 Y21.5936
G01 X33.2200 Y21.6443
G01 X33.2200 Y23.4347
G01 X33.2145 Y23.4854
G01 X33.1690 Y23.6076
G01 X33.0913 Y23.7113
G01 X32.9876 Y23.7890
G01 X32.8654 Y23.8345
G01 X32.8147 Y23.8400
G01 X32.1422 Y23.8401
G01 X32.1370 Y23.8406
G01 X32.0961 Y23.8472
G01 X32.0657 Y23.8567
G01 X31.8558 Y23.8900
G01 X28.2399 Y23.8900
G01 X28.2261 Y23.8908
G01 X28.2165 Y23.8931
G01 X28.1487 Y23.9183
G01 X28.1431 Y23.9210
G01 X28.1379 Y23.9243
G01 X28.1331 Y23.9283
G01 X28.1281 Y23.9338
G01 X28.0854 Y23.9907
G01 X28.0809 Y23.9981
G01 X28.0776 Y24.0061
G01 X28.0757 Y24.0159
G01 X28.0706 Y24.0868
G01 X28.0706 Y24.0942
G01 X28.0718 Y24.1016
G01 X28.0735 Y24.1075
G01 X28.0766 Y24.1143
G01 X28.1107 Y24.1767
G01 X28.1139 Y24.1816
G01 X28.1178 Y24.1862
G01 X30.6485 Y26.7169
G01 X30.7399 Y26.8537
G01 X30.8029 Y27.0058
G01 X30.8350 Y27.1672
G01 X30.8352 Y27.1912
G01 X30.8383 Y27.2201
G01 X30.8394 Y27.2261
G01 X30.8413 Y27.2320
G01 X30.8440 Y27.2375
G01 X30.8774 Y27.2988
G01 X30.8813 Y27.3048
G01 X30.8860 Y27.3102
G01 X30.9346 Y27.3588
G01 X30.9513 Y27.3732
G01 X30.9575 Y27.3779
G01 X31.1211 Y27.5415
G01 X31.1258 Y27.5477
G01 X31.1411 Y27.5654
G01 X31.7256 Y28.1499
G01 X31.7137 Y28.1754
G01 X31.6865 Y28.2516
G01 X31.6661 Y28.3325
G01 X31.6536 Y28.4162
G01 X31.6495 Y28.4995
G01 X31.6536 Y28.5828
G01 X31.6661 Y28.6665
G01 X31.6865 Y28.7474
G01 X31.7137 Y28.8236
G01 X31.7256 Y28.8491
G01 X31.1411 Y29.4336
G01 X31.1258 Y29.4513
G01 X31.1211 Y29.4575
G01 X30.9575 Y29.6211
G01 X30.7702 Y29.7572
G01 X30.5640 Y29.8623
G01 X30.3438 Y29.9338
G01 X30.1152 Y29.9700
G01 X29.8838 Y29.9700
G01 X29.6552 Y29.9338
G01 X29.4350 Y29.8623
G01 X29.2288 Y29.7572
G01 X29.0415 Y29.6211
G01 X28.8779 Y29.4575
G01 X28.7418 Y29.2702
G01 X28.6367 Y29.0640
G01 X28.5652 Y28.8438
G01 X28.5290 Y28.6152
G01 X28.5290 Y28.3838
G01 X28.5652 Y28.1552
G01 X28.6367 Y27.9350
G01 X28.7418 Y27.7288
G01 X28.8790 Y27.5399
G01 X28.8833 Y27.5346
G01 X28.9078 Y27.4932
G01 X28.9116 Y27.4843
G01 X28.9129 Y27.4796
G01 X28.9139 Y27.4737
G01 X28.9189 Y27.4028
G01 X28.9190 Y27.3966
G01 X28.9183 Y27.3904
G01 X28.9164 Y27.3832
G01 X28.9135 Y27.3763
G01 X28.8795 Y27.3139
G01 X28.8756 Y27.3079
G01 X28.8709 Y27.3025
G01 X26.5707 Y25.0023
G01 X26.5642 Y24.9971
G01 X26.5178 Y24.9673
G01 X26.5123 Y24.9644
G01 X26.5064 Y24.9622
G01 X26.5004 Y24.9607
G01 X26.4954 Y24.9601
G01 X26.4257 Y24.9551
G01 X26.4158 Y24.9554
G01 X26.4073 Y24.9572
G01 X26.3993 Y24.9605
G01 X26.3358 Y24.9952
G01 X26.3318 Y24.9978
G01 X26.3272 Y25.0015
G01 X25.9575 Y25.3711
G01 X25.7702 Y25.5072
G01 X25.5640 Y25.6123
G01 X25.3438 Y25.6838
G01 X25.1152 Y25.7200
G01 X24.6223 Y25.7200
G01 X24.6140 Y25.7209
G01 X24.5601 Y25.7326
G01 X24.5542 Y25.7345
G01 X24.5496 Y25.7365
G01 X24.5412 Y25.7418
G01 X24.4855 Y25.7900
G01 X24.4789 Y25.7974
G01 X24.4749 Y25.8037
G01 X24.4716 Y25.8117
G01 X24.4512 Y25.8811
G01 X24.4499 Y25.8881
G01 X24.4495 Y25.8940
G01 X24.4495 Y32.4495
G01 X10.0495 Y32.4495
G01 X10.0495 Y25.8940
G01 X10.0486 Y25.8845
G01 X10.0366 Y25.8294
G01 X10.0330 Y25.8201
G01 X10.0277 Y25.8117
G01 X9.9795 Y25.7560
G01 X9.9741 Y25.7509
G01 X9.9680 Y25.7466
G01 X9.9625 Y25.7438
G01 X9.9578 Y25.7421
G01 X9.8896 Y25.7220
G01 X9.8838 Y25.7207
G01 X9.8767 Y25.7200
G01 X3.8838 Y25.7200
G01 X3.6552 Y25.6838
G01 X3.4350 Y25.6123
G01 X3.3500 Y25.5690
G01 X3.3435 Y25.5662
G01 X3.2793 Y25.5507
G01 X3.2710 Y25.5500
G01 X2.9343 Y25.5500
G01 X2.8836 Y25.5445
G01 X2.7614 Y25.4990
G01 X2.6577 Y25.4213
G01 X2.5800 Y25.3176
G01 X2.5345 Y25.1954
G01 X2.5290 Y25.1447
G01 X2.5290 Y23.3543
G01 X2.5345 Y23.3036
G01 X2.5800 Y23.1814
G01 X2.6577 Y23.0777
G00 Z2.0000
G00 X27.0243 Y23.5591
G01 F60.00
G01 Z0.0000
G01 F120.00
G01 X26.9981 Y23.6326
G01 X30.3072 Y26.9418
G01 X30.3359 Y26.9734
G01 X30.3627 Y27.0098
G01 X30.3844 Y27.0465
G01 X30.4016 Y27.0830
G01 X30.4152 Y27.1208
G01 X30.4263 Y27.1646
G01 X30.4323 Y27.2044
G01 X30.4347 Y27.2495
G01 X30.4347 Y27.5230
G01 X30.5039 Y27.5558
G01 X30.5919 Y27.6085
G01 X30.6783 Y27.6724
G01 X30.7578 Y27.7447
G01 X30.8266 Y27.8207
G01 X30.8885 Y27.9040
G01 X30.9432 Y27.9951
G01 X30.9889 Y28.0923
G01 X31.0234 Y28.1889
G01 X31.0484 Y28.2884
G01 X31.0643 Y28.3946
G01 X31.0695 Y28.4995
G01 X31.0645 Y28.6019
G01 X31.0489 Y28.7082
G01 X31.0227 Y28.8124
G01 X30.9881 Y28.9090
G01 X30.9443 Y29.0017
G01 X30.8892 Y29.0940
G01 X30.8250 Y29.1802
G01 X30.7561 Y29.2561
G01 X30.6802 Y29.3250
G01 X30.5919 Y29.3905
G01 X30.5039 Y29.4432
G01 X30.4090 Y29.4881
G01 X30.3101 Y29.5234
G01 X30.2082 Y29.5489
G01 X30.1044 Y29.5643
G01 X29.9995 Y29.5695
G01 X29.8946 Y29.5643
G01 X29.7932 Y29.5494
G01 X29.6889 Y29.5234
G01 X29.5923 Y29.4889
G01 X29.4930 Y29.4419
G01 X29.4050 Y29.3892
G01 X29.3207 Y29.3266
G01 X29.2429 Y29.2561
G01 X29.1724 Y29.1783
G01 X29.1098 Y29.0940
G01 X29.0547 Y29.0017
G01 X29.0109 Y28.9090
G01 X28.9763 Y28.8124
G01 X28.9506 Y28.7106
G01 X28.9347 Y28.6044
G01 X28.9295 Y28.4995
G01 X28.9347 Y28.3946
G01 X28.9503 Y28.2896
G01 X28.9756 Y28.1889
G01 X29.0109 Y28.0900
G01 X29.0558 Y27.9951
G01 X29.1105 Y27.9040
G01 X29.1724 Y27.8207
G01 X29.2412 Y27.7447
G01 X29.3207 Y27.6724
G01 X29.4071 Y27.6085
G01 X29.4951 Y27.5558
G01 X29.5643 Y27.5230
G01 X29.5643 Y27.4298
G01 X26.4487 Y24.3142
G01 X25.7556 Y25.0073
G01 X25.6786 Y25.0770
G01 X25.5953 Y25.1389
G01 X25.5019 Y25.1947
G01 X25.4092 Y25.2385
G01 X25.3103 Y25.2739
G01 X25.2059 Y25.2999
G01 X25.1044 Y25.3149
G01 X25.0007 Y25.3200
G01 X3.9995 Y25.3200
G01 X3.8921 Y25.3146
G01 X3.7907 Y25.2994
G01 X3.6887 Y25.2739
G01 X3.5876 Y25.2375
G01 X3.4949 Y25.1936
G01 X3.4212 Y25.1495
G01 X2.9746 Y25.1493
G01 X2.9650 Y25.1473
G01 X2.9570 Y25.1442
G01 X2.9497 Y25.1397
G01 X2.9433 Y25.1340
G01 X2.9379 Y25.1273
G01 X2.9338 Y25.1198
G01 X2.9310 Y25.1116
G01 X2.9296 Y25.1032
G01 X2.9295 Y24.2611
G01 X2.9290 Y24.2495
G01 X2.9295 Y24.2379
G01 X2.9295 Y23.3995
G01 X2.9299 Y23.3934
G01 X2.9310 Y23.3874
G01 X2.9329 Y23.3815
G01 X2.9348 Y23.3770
G01 X2.9379 Y23.3717
G01 X2.9416 Y23.3668
G01 X2.9459 Y23.3625
G01 X2.9517 Y23.3579
G01 X2.9570 Y23.3548
G01 X2.9638 Y23.3520
G01 X2.9697 Y23.3505
G01 X2.9770 Y23.3496
G01 X3.4212 Y23.3495
G01 X3.4949 Y23.3054
G01 X3.5876 Y23.2615
G01 X3.6864 Y23.2259
G01 X3.7907 Y23.1996
G01 X3.8946 Y23.1841
G01 X3.9995 Y23.1790
G01 X24.5561 Y23.1790
G01 X25.2425 Y22.4925
G01 X25.3213 Y22.4212
G01 X25.4048 Y22.3594
G01 X25.4927 Y22.3066
G01 X25.5887 Y22.2610
G01 X25.6899 Y22.2247
G01 X25.7895 Y22.1998
G01 X25.8247 Y22.1945
G01 X25.8319 Y22.1747
G01 X25.8725 Y22.0893
G01 X25.9192 Y22.0115
G01 X25.9764 Y21.9347
G01 X26.0374 Y21.8674
G01 X26.1065 Y21.8048
G01 X26.1815 Y21.7492
G01 X26.2604 Y21.7019
G01 X26.2743 Y21.6951
G01 X26.2743 Y18.7883
G01 X26.2764 Y18.7468
G01 X26.2822 Y18.7070
G01 X26.2930 Y18.6632
G01 X26.3074 Y18.6230
G01 X26.3246 Y18.5865
G01 X26.3483 Y18.5467
G01 X26.3731 Y18.5134
G01 X26.4018 Y18.4818
G01 X30.8918 Y13.9918
G01 X30.9234 Y13.9631
G01 X30.9557 Y13.9391
G01 X30.9965 Y13.9146
G01 X31.0330 Y13.8974
G01 X31.0732 Y13.8830
G01 X31.1146 Y13.8727
G01 X31.1568 Y13.8664
G01 X31.1995 Y13.8643
G01 X32.3542 Y13.8643
G01 X32.3579 Y13.8404
G01 X32.3682 Y13.8000
G01 X32.3819 Y13.7619
G01 X32.3991 Y13.7252
G01 X32.4225 Y13.6864
G01 X32.4460 Y13.6549
G01 X32.4749 Y13.6231
G01 X32.5049 Y13.5960
G01 X32.5364 Y13.5725
G01 X32.5763 Y13.5486
G01 X32.6119 Y13.5319
G01 X32.6511 Y13.5178
G01 X32.6916 Y13.5077
G01 X32.7316 Y13.5017
G01 X32.7745 Y13.4995
G01 X34.0270 Y13.4996
G01 X34.0662 Y13.5015
G01 X34.1050 Y13.5072
G01 X34.1479 Y13.5178
G01 X34.1871 Y13.5319
G01 X34.2227 Y13.5486
G01 X34.2626 Y13.5725
G01 X34.2941 Y13.5960
G01 X34.3232 Y13.6223
G01 X34.3514 Y13.6530
G01 X34.3779 Y13.6884
G01 X34.3993 Y13.7242
G01 X34.4171 Y13.7619
G01 X34.4319 Y13.8035
G01 X34.4413 Y13.8416
G01 X34.4472 Y13.8804
G01 X34.4495 Y13.9233
G01 X34.4495 Y14.6745
G01 X34.4472 Y14.7186
G01 X34.4413 Y14.7574
G01 X34.4312 Y14.7979
G01 X34.4171 Y14.8371
G01 X34.3993 Y14.8748
G01 X34.3779 Y14.9106
G01 X34.3530 Y14.9441
G01 X34.3250 Y14.9750
G01 X34.2922 Y15.0045
G01 X34.2606 Y15.0279
G01 X34.2270 Y15.0481
G01 X34.1871 Y15.0671
G01 X34.1479 Y15.0812
G01 X34.1098 Y15.0908
G01 X34.0637 Y15.0976
G01 X34.0245 Y15.0995
G01 X32.7745 Y15.0995
G01 X32.7328 Y15.0975
G01 X32.6916 Y15.0913
G01 X32.6535 Y15.0819
G01 X32.6096 Y15.0662
G01 X32.5742 Y15.0493
G01 X32.5384 Y15.0279
G01 X32.5049 Y15.0030
G01 X32.4749 Y14.9759
G01 X32.4460 Y14.9441
G01 X32.4225 Y14.9126
G01 X32.3991 Y14.8738
G01 X32.3819 Y14.8371
G01 X32.3682 Y14.7990
G01 X32.3579 Y14.7586
G01 X32.3542 Y14.7347
G01 X31.3798 Y14.7347
G01 X27.1447 Y18.9698
G01 X27.1447 Y21.5890
G01 X31.7495 Y21.5890
G01 X31.8427 Y21.5936
G01 X31.9337 Y21.6071
G01 X32.0242 Y21.6296
G01 X32.0522 Y21.6395
G01 X32.7695 Y21.6395
G01 X32.7768 Y21.6400
G01 X32.7852 Y21.6420
G01 X32.7931 Y21.6454
G01 X32.7993 Y21.6493
G01 X32.8049 Y21.6541
G01 X32.8097 Y21.6597
G01 X32.8136 Y21.6659
G01 X32.8166 Y21.6727
G01 X32.8188 Y21.6810
G01 X32.8195 Y21.6883
G01 X32.8195 Y23.3895
G01 X32.8188 Y23.3980
G01 X32.8170 Y23.4052
G01 X32.8142 Y23.4120
G01 X32.8097 Y23.4193
G01 X32.8065 Y23.4231
G01 X32.8022 Y23.4274
G01 X32.7983 Y23.4304
G01 X32.7931 Y23.4336
G01 X32.7886 Y23.4357
G01 X32.7828 Y23.4377
G01 X32.7768 Y23.4390
G01 X32.7707 Y23.4395
G01 X32.0522 Y23.4395
G01 X32.0242 Y23.4494
G01 X31.9337 Y23.4719
G01 X31.8427 Y23.4854
G01 X31.7495 Y23.4900
G01 X27.0416 Y23.4900
G01 X27.0243 Y23.5591
G00 Z2.0000
G00 X31.8714 Y26.6490
G01 F60.00
G01 Z0.0000
G01 F120.00
G01 X32.1183 Y26.5829
G01 X32.3717 Y26.5495
G01 X32.6273 Y26.5495
G01 X32.8807 Y26.5829
G01 X33.1276 Y26.6490
G01 X33.3638 Y26.7468
G01 X33.5852 Y26.8747
G01 X33.6502 Y26.9245
G01 X32.8491 Y27.7256
G01 X32.8236 Y27.7137
G01 X32.7474 Y27.6865
G01 X32.6665 Y27.6661
G01 X32.5828 Y27.6536
G01 X32.4995 Y27.6495
G01 X32.4162 Y27.6536
G01 X32.3325 Y27.6661
G01 X32.2516 Y27.6865
G01 X32.1754 Y27.7137
G01 X32.1499 Y27.7256
G01 X31.3488 Y26.9245
G01 X31.4138 Y26.8747
G01 X31.6352 Y26.7468
G01 X31.8714 Y26.6490
G00 Z2.0000
G00 X34.3500 Y27.8714
G01 F60.00
G01 Z0.0000
G01 F120.00
G01 X34.4161 Y28.1183
G01 X34.4495 Y28.3717
G01 X34.4495 Y28.6273
G01 X34.4161 Y28.8807
G01 X34.3500 Y29.1276
G01 X34.2522 Y29.3638
G01 X34.1243 Y29.5852
G01 X34.0745 Y29.6502
G01 X33.2734 Y28.8491
G01 X33.2853 Y28.8236
G01 X33.3125 Y28.7474
G01 X33.3329 Y28.6665
G01 X33.3454 Y28.5828
G01 X33.3495 Y28.4995
G01 X33.3454 Y28.4162
G01 X33.3329 Y28.3325
G01 X33.3125 Y28.2516
G01 X33.2853 Y28.1754
G01 X33.2734 Y28.1499
G01 X34.0745 Y27.3488
G01 X34.1243 Y27.4138
G01 X34.2522 Y27.6352
G01 X34.3500 Y27.8714
G00 Z2.0000
G00 X33.1276 Y30.3500
G01 F60.00
G01 Z0.0000
G01 F120.00
G01 X32.8807 Y30.4161
G01 X32.6273 Y30.4495
G01 X32.3717 Y30.4495
G01 X32.1183 Y30.4161
G01 X31.8714 Y30.3500
G01 X31.6352 Y30.2522
G01 X31.4138 Y30.1243
G01 X31.3488 Y30.0745
G01 X32.1499 Y29.2734
G01 X32.1754 Y29.2853
G01 X32.2516 Y29.3125
G01 X32.3325 Y29.3329
G01 X32.4162 Y29.3454
G01 X32.4995 Y29.3495
G01 X32.5828 Y29.3454
G01 X32.6665 Y29.3329
G01 X32.7474 Y29.3125
G01 X32.8236 Y29.2853
G01 X32.8491 Y29.2734
G01 X33.6502 Y30.0745
G01 X33.5852 Y30.1243
G01 X33.3638 Y30.2522
G01 X33.1276 Y30.3500
G00 Z2.0000
G00 X32.2528 Y19.0553
G01 F60.00
G01 Z0.0000
G01 F120.00
G01 X32.1567 Y19.0101
G01 X32.0601 Y18.9756
G01 X31.9606 Y18.9506
G01 X31.8544 Y18.9347
G01 X31.7495 Y18.9295
G01 X31.6422 Y18.9350
G01 X31.5408 Y18.9501
G01 X31.4413 Y18.9749
G01 X31.3400 Y19.0109
G01 X31.2473 Y19.0547
G01 X31.2357 Y19.0614
G01 X30.4419 Y18.2676
G01 X30.5413 Y18.1913
G01 X30.7877 Y18.0491
G01 X31.0505 Y17.9403
G01 X31.3252 Y17.8666
G01 X31.6073 Y17.8295
G01 X31.8917 Y17.8295
G01 X32.1738 Y17.8666
G01 X32.4485 Y17.9403
G01 X32.7113 Y18.0491
G01 X32.9577 Y18.1913
G01 X33.0571 Y18.2676
G01 X32.2633 Y19.0614
G01 X32.2528 Y19.0553
G00 Z2.0000
G00 X34.4476 Y9.2853
G01 F60.00
G01 Z0.0000
G01 F120.00
G01 X34.4413 Y9.2416
G01 X34.4304 Y9.1988
G01 X34.4171 Y9.1619
G01 X34.4004 Y9.1263
G01 X34.3779 Y9.0884
G01 X34.3514 Y9.0530
G01 X34.3250 Y9.0240
G01 X34.2960 Y8.9976
G01 X34.2606 Y8.9711
G01 X34.2238 Y8.9491
G01 X34.1871 Y8.9319
G01 X34.1479 Y8.9178
G01 X34.1074 Y8.9077
G01 X34.0662 Y8.9015
G01 X34.0245 Y8.8995
G01 X33.6995 Y8.8995
G01 X33.6995 Y7.7995
G01 X34.0953 Y7.7995
G01 X34.2392 Y7.8097
G01 X34.4797 Y7.8638
G01 X34.7081 Y7.9557
G01 X34.9188 Y8.0831
G01 X35.1063 Y8.2427
G01 X35.2659 Y8.4302
G01 X35.3933 Y8.6409
G01 X35.4852 Y8.8693
G01 X35.5393 Y9.1098
G01 X35.5495 Y9.2537
G01 X35.5495 Y9.3995
G01 X34.4495 Y9.3995
G01 X34.4495 Y9.3233
G01 X34.4476 Y9.2853
G00 Z2.0000
G00 X31.8802 Y8.0831
G01 F60.00
G01 Z0.0000
G01 F120.00
G01 X32.0909 Y7.9557
G01 X32.3193 Y7.8638
G01 X32.5598 Y7.8097
G01 X32.7037 Y7.7995
G01 X33.0995 Y7.7995
G01 X33.0995 Y8.8995
G01 X32.7745 Y8.8995
G01 X32.7316 Y8.9017
G01 X32.6892 Y8.9082
G01 X32.6511 Y8.9178
G01 X32.6141 Y8.9310
G01 X32.5742 Y8.9497
G01 X32.5384 Y8.9711
G01 X32.5049 Y8.9960
G01 X32.4758 Y9.0223
G01 X32.4460 Y9.0549
G01 X32.4198 Y9.0905
G01 X32.3997 Y9.1242
G01 X32.3823 Y9.1607
G01 X32.3671 Y9.2035
G01 X32.3577 Y9.2416
G01 X32.3518 Y9.2804
G01 X32.3495 Y9.3233
G01 X32.3495 Y9.3995
G01 X31.2495 Y9.3995
G01 X31.2495 Y9.2537
G01 X31.2597 Y9.1098
G01 X31.3138 Y8.8693
G01 X31.4057 Y8.6409
G01 X31.5331 Y8.4302
G01 X31.6927 Y8.2427
G01 X31.8802 Y8.0831
G00 Z2.0000
G00 X33.4254 Y5.0353
G01 F60.00
G01 Z0.0000
G01 F120.00
G01 X33.5028 Y5.0629
G01 X33.5837 Y5.0832
G01 X33.6662 Y5.0954
G01 X33.7507 Y5.0995
G01 X33.8328 Y5.0954
G01 X33.9165 Y5.0829
G01 X33.9974 Y5.0625
G01 X34.0736 Y5.0353
G01 X34.0991 Y5.0234
G01 X34.9002 Y5.8245
G01 X34.8352 Y5.8743
G01 X34.6138 Y6.0022
G01 X34.3776 Y6.1000
G01 X34.1307 Y6.1661
G01 X33.8773 Y6.1995
G01 X33.6217 Y6.1995
G01 X33.3683 Y6.1661
G01 X33.1214 Y6.1000
G01 X32.8852 Y6.0022
G01 X32.6638 Y5.8743
G01 X32.5988 Y5.8245
G01 X33.3999 Y5.0234
G01 X33.4254 Y5.0353
G00 Z2.0000
G00 X34.0736 Y3.4637
G01 F60.00
G01 Z0.0000
G01 F120.00
G01 X33.9962 Y3.4361
G01 X33.9153 Y3.4158
G01 X33.8328 Y3.4036
G01 X33.7483 Y3.3995
G01 X33.6662 Y3.4036
G01 X33.5825 Y3.4161
G01 X33.5016 Y3.4365
G01 X33.4254 Y3.4637
G01 X33.3999 Y3.4756
G01 X32.5988 Y2.6745
G01 X32.6638 Y2.6247
G01 X32.8852 Y2.4968
G01 X33.1214 Y2.3990
G01 X33.3683 Y2.3329
G01 X33.6217 Y2.2995
G01 X33.8773 Y2.2995
G01 X34.1307 Y2.3329
G01 X34.3776 Y2.3990
G01 X34.6138 Y2.4968
G01 X34.8352 Y2.6247
G01 X34.9002 Y2.6745
G01 X34.0991 Y3.4756
G01 X34.0736 Y3.4637
G00 Z2.0000
G00 X35.3743 Y5.3352
G01 F60.00
G01 Z0.0000
G01 F120.00
G01 X35.3245 Y5.4002
G01 X34.5234 Y4.5991
G01 X34.5353 Y4.5736
G01 X34.5625 Y4.4974
G01 X34.5829 Y4.4165
G01 X34.5954 Y4.3328
G01 X34.5995 Y4.2495
G01 X34.5954 Y4.1662
G01 X34.5829 Y4.0825
G01 X34.5625 Y4.0016
G01 X34.5353 Y3.9254
G01 X34.5234 Y3.8999
G01 X35.3245 Y3.0988
G01 X35.3743 Y3.1638
G01 X35.5022 Y3.3852
G01 X35.6000 Y3.6214
G01 X35.6661 Y3.8683
G01 X35.6995 Y4.1217
G01 X35.6995 Y4.3773
G01 X35.6661 Y4.6307
G01 X35.6000 Y4.8776
G01 X35.5022 Y5.1138
G01 X35.3743 Y5.3352
G00 Z2.0000
G00 X38.5489 Y0.1204
G01 F60.00
G01 Z0.0000
G01 F120.00
G01 X38.5490 Y32.8750
G01 X38.5485 Y32.8821
G01 X38.5470 Y32.8891
G01 X38.5269 Y32.9573
G01 X38.5247 Y32.9631
G01 X38.5224 Y32.9675
G01 X38.5181 Y32.9736
G01 X38.5130 Y32.9790
G01 X38.4593 Y33.0256
G01 X38.4543 Y33.0294
G01 X38.4500 Y33.0319
G01 X38.4455 Y33.0341
G01 X38.4396 Y33.0361
G01 X38.3845 Y33.0481
G01 X38.3750 Y33.0490
G01 X0.1240 Y33.0490
G01 X0.1169 Y33.0485
G01 X0.1099 Y33.0470
G01 X0.0417 Y33.0269
G01 X0.0359 Y33.0247
G01 X0.0315 Y33.0224
G01 X0.0254 Y33.0181
G01 X0.0200 Y33.0130
G01 X-0.0266 Y32.9593
G01 X-0.0297 Y32.9553
G01 X-0.0329 Y32.9500
G01 X-0.0355 Y32.9443
G01 X-0.0371 Y32.9396
G01 X-0.0491 Y32.8845
G01 X-0.0500 Y32.8750
G01 X-0.0500 Y0.1240
G01 X-0.0495 Y0.1169
G01 X-0.0480 Y0.1099
G01 X-0.0279 Y0.0417
G01 X-0.0262 Y0.0370
G01 X-0.0234 Y0.0315
G01 X-0.0191 Y0.0254
G01 X-0.0140 Y0.0200
G01 X0.0397 Y-0.0266
G01 X0.0447 Y-0.0304
G01 X0.0490 Y-0.0329
G01 X0.0535 Y-0.0351
G01 X0.0594 Y-0.0371
G01 X0.1145 Y-0.0491
G01 X0.1240 Y-0.0500
G01 X38.3750 Y-0.0500
G01 X38.3821 Y-0.0495
G01 X38.3879 Y-0.0483
G01 X38.4573 Y-0.0279
G01 X38.4620 Y-0.0262
G01 X38.4675 Y-0.0234
G01 X38.4726 Y-0.0199
G01 X38.4773 Y-0.0158
G01 X38.5264 Y0.0407
G01 X38.5319 Y0.0490
G01 X38.5345 Y0.0547
G01 X38.5364 Y0.0606
G01 X38.5479 Y0.1134
G01 X38.5489 Y0.1204
G00 Z2.0000
G00 X16.4862 Y2.0612
G01 F60.00
G01 Z0.0000
G01 F120.00
G01 X16.4871 Y2.0643
G01 X20.2619 Y2.0643
G01 X20.2733 Y2.0325
G01 X20.2849 Y2.0081
G01 X20.2987 Y1.9849
G01 X20.3176 Y1.9592
G01 X20.3391 Y1.9357
G01 X20.3592 Y1.9176
G01 X20.3808 Y1.9015
G01 X20.4081 Y1.8849
G01 X20.4347 Y1.8723
G01 X20.4601 Y1.8632
G01 X20.4922 Y1.8550
G01 X20.5201 Y1.8509
G01 X20.5495 Y1.8495
G01 X21.4495 Y1.8495
G01 X21.4789 Y1.8509
G01 X21.5056 Y1.8548
G01 X21.5389 Y1.8632
G01 X21.5643 Y1.8723
G01 X21.5909 Y1.8849
G01 X21.6162 Y1.9001
G01 X21.6379 Y1.9161
G01 X21.6633 Y1.9391
G01 X21.6814 Y1.9592
G01 X21.6989 Y1.9828
G01 X21.7141 Y2.0081
G01 X21.7257 Y2.0325
G01 X21.7371 Y2.0643
G01 X23.9995 Y2.0643
G01 X24.0422 Y2.0664
G01 X24.0820 Y2.0722
G01 X24.1258 Y2.0830
G01 X24.1683 Y2.0984
G01 X24.2046 Y2.1157
G01 X24.2392 Y2.1363
G01 X24.2756 Y2.1631
G01 X24.3072 Y2.1918
G01 X27.6245 Y5.5090
G01 X29.1918 Y3.9418
G01 X29.2234 Y3.9131
G01 X29.2557 Y3.8891
G01 X29.2944 Y3.8657
G01 X29.3330 Y3.8474
G01 X29.3732 Y3.8330
G01 X29.4146 Y3.8227
G01 X29.4593 Y3.8162
G01 X29.4995 Y3.8143
G01 X30.2730 Y3.8143
G01 X30.3058 Y3.7451
G01 X30.3585 Y3.6571
G01 X30.4209 Y3.5726
G01 X30.4929 Y3.4929
G01 X30.5707 Y3.4224
G01 X30.6550 Y3.3598
G01 X30.7473 Y3.3047
G01 X30.8400 Y3.2609
G01 X30.9366 Y3.2263
G01 X31.0396 Y3.2003
G01 X31.1446 Y3.1847
G01 X31.2495 Y3.1795
G01 X31.3544 Y3.1847
G01 X31.4558 Y3.1996
G01 X31.5601 Y3.2256
G01 X31.6567 Y3.2601
G01 X31.7560 Y3.3071
G01 X31.8460 Y3.3612
G01 X31.9283 Y3.4224
G01 X32.0043 Y3.4912
G01 X32.0766 Y3.5707
G01 X32.1392 Y3.6550
G01 X32.1943 Y3.7473
G01 X32.2381 Y3.8400
G01 X32.2727 Y3.9366
G01 X32.2989 Y4.0408
G01 X32.3143 Y4.1446
G01 X32.3195 Y4.2495
G01 X32.3140 Y4.3568
G01 X32.2989 Y4.4582
G01 X32.2741 Y4.5577
G01 X32.2381 Y4.6590
G01 X32.1932 Y4.7539
G01 X32.1378 Y4.8460
G01 X32.0766 Y4.9283
G01 X32.0078 Y5.0043
G01 X31.9302 Y5.0750
G01 X31.8440 Y5.1392
G01 X31.7539 Y5.1932
G01 X31.6590 Y5.2381
G01 X31.5577 Y5.2741
G01 X31.4582 Y5.2989
G01 X31.3568 Y5.3140
G01 X31.2520 Y5.3194
G01 X31.1446 Y5.3143
G01 X31.0420 Y5.2992
G01 X30.9389 Y5.2734
G01 X30.8378 Y5.2371
G01 X30.7451 Y5.1932
G01 X30.6571 Y5.1405
G01 X30.5717 Y5.0774
G01 X30.4929 Y5.0061
G01 X30.4209 Y4.9264
G01 X30.3585 Y4.8419
G01 X30.3058 Y4.7539
G01 X30.2730 Y4.6847
G01 X29.6798 Y4.6847
G01 X25.0400 Y9.3245
G01 X26.0955 Y10.3801
G01 X26.1144 Y10.3402
G01 X26.1409 Y10.2960
G01 X26.1743 Y10.2506
G01 X26.2124 Y10.2089
G01 X26.2506 Y10.1743
G01 X26.2919 Y10.1436
G01 X26.3402 Y10.1144
G01 X26.3913 Y10.0905
G01 X26.4398 Y10.0732
G01 X26.4898 Y10.0606
G01 X26.5444 Y10.0523
G01 X26.5995 Y10.0495
G01 X27.5995 Y10.0495
G01 X27.6522 Y10.0520
G01 X27.7092 Y10.0606
G01 X27.7592 Y10.0732
G01 X27.8077 Y10.0905
G01 X27.8588 Y10.1144
G01 X27.9061 Y10.1429
G01 X27.9484 Y10.1743
G01 X27.9884 Y10.2106
G01 X28.0247 Y10.2506
G01 X28.0568 Y10.2939
G01 X28.0846 Y10.3402
G01 X28.1076 Y10.3890
G01 X28.1258 Y10.4398
G01 X28.1392 Y10.4934
G01 X28.1469 Y10.5456
G01 X28.1495 Y10.5995
G01 X28.1495 Y11.5643
G01 X32.3542 Y11.5643
G01 X32.3579 Y11.5404
G01 X32.3682 Y11.5000
G01 X32.3819 Y11.4619
G01 X32.3991 Y11.4252
G01 X32.4225 Y11.3864
G01 X32.4460 Y11.3549
G01 X32.4731 Y11.3249
G01 X32.5068 Y11.2945
G01 X32.5384 Y11.2711
G01 X32.5742 Y11.2497
G01 X32.6119 Y11.2319
G01 X32.6488 Y11.2186
G01 X32.6916 Y11.2077
G01 X32.7328 Y11.2015
G01 X32.7745 Y11.1995
G01 X34.0245 Y11.1995
G01 X34.0662 Y11.2015
G01 X34.1050 Y11.2072
G01 X34.1502 Y11.2186
G01 X34.1871 Y11.2319
G01 X34.2227 Y11.2486
G01 X34.2606 Y11.2711
G01 X34.2960 Y11.2976
G01 X34.3250 Y11.3240
G01 X34.3514 Y11.3530
G01 X34.3779 Y11.3884
G01 X34.4004 Y11.4263
G01 X34.4171 Y11.4619
G01 X34.4304 Y11.4988
G01 X34.4416 Y11.5428
G01 X34.4475 Y11.5828
G01 X34.4495 Y11.6245
G01 X34.4494 Y12.3770
G01 X34.4472 Y12.4186
G01 X34.4413 Y12.4574
G01 X34.4319 Y12.4955
G01 X34.4171 Y12.5371
G01 X34.3981 Y12.5770
G01 X34.3765 Y12.6126
G01 X34.3530 Y12.6441
G01 X34.3267 Y12.6732
G01 X34.2941 Y12.7030
G01 X34.2606 Y12.7279
G01 X34.2248 Y12.7493
G01 X34.1849 Y12.7680
G01 X34.1479 Y12.7812
G01 X34.1098 Y12.7908
G01 X34.0686 Y12.7972
G01 X34.0245 Y12.7995
G01 X32.7733 Y12.7995
G01 X32.7328 Y12.7975
G01 X32.6916 Y12.7913
G01 X32.6511 Y12.7812
G01 X32.6141 Y12.7680
G01 X32.5720 Y12.7481
G01 X32.5384 Y12.7279
G01 X32.5039 Y12.7022
G01 X32.4740 Y12.6750
G01 X32.4460 Y12.6441
G01 X32.4211 Y12.6106
G01 X32.4003 Y12.5759
G01 X32.3819 Y12.5371
G01 X32.3682 Y12.4990
G01 X32.3579 Y12.4586
G01 X32.3542 Y12.4347
G01 X28.1495 Y12.4347
G01 X28.1495 Y13.3995
G01 X28.1469 Y13.4534
G01 X28.1392 Y13.5056
G01 X28.1258 Y13.5592
G01 X28.1076 Y13.6100
G01 X28.0846 Y13.6588
G01 X28.0568 Y13.7051
G01 X28.0247 Y13.7484
G01 X27.9884 Y13.7884
G01 X27.9484 Y13.8247
G01 X27.9051 Y13.8568
G01 X27.8566 Y13.8857
G01 X27.8100 Y13.9076
G01 X27.7615 Y13.9250
G01 X27.7068 Y13.9389
G01 X27.6522 Y13.9470
G01 X27.5995 Y13.9495
G01 X26.5995 Y13.9495
G01 X26.5444 Y13.9467
G01 X26.4898 Y13.9384
G01 X26.4398 Y13.9258
G01 X26.3913 Y13.9085
G01 X26.3402 Y13.8846
G01 X26.2919 Y13.8554
G01 X26.2506 Y13.8247
G01 X26.2124 Y13.7901
G01 X26.1743 Y13.7484
G01 X26.1409 Y13.7030
G01 X26.1144 Y13.6588
G01 X26.0955 Y13.6189
G01 X23.6572 Y16.0572
G01 X23.6256 Y16.0859
G01 X23.5923 Y16.1107
G01 X23.5525 Y16.1344
G01 X23.5160 Y16.1516
G01 X23.4782 Y16.1652
G01 X23.4344 Y16.1763
G01 X23.3909 Y16.1827
G01 X23.3495 Y16.1847
G01 X22.6495 Y16.1847
G01 X22.6495 Y16.5207
G01 X22.6481 Y16.5489
G01 X22.6442 Y16.5756
G01 X22.6362 Y16.6078
G01 X22.6257 Y16.6365
G01 X22.6141 Y16.6609
G01 X22.6003 Y16.6841
G01 X22.5814 Y16.7098
G01 X22.5616 Y16.7316
G01 X22.5398 Y16.7514
G01 X22.5141 Y16.7703
G01 X22.4909 Y16.7841
G01 X22.4665 Y16.7957
G01 X22.4378 Y16.8062
G01 X22.4056 Y16.8142
G01 X22.3789 Y16.8181
G01 X22.3507 Y16.8195
G01 X21.6483 Y16.8195
G01 X21.6177 Y16.8178
G01 X21.5910 Y16.8137
G01 X21.5648 Y16.8072
G01 X21.5347 Y16.7967
G01 X21.5059 Y16.7829
G01 X21.4828 Y16.7689
G01 X21.4611 Y16.7529
G01 X21.4374 Y16.7316
G01 X21.4161 Y16.7079
G01 X21.4001 Y16.6862
G01 X21.3861 Y16.6631
G01 X21.3723 Y16.6343
G01 X21.3618 Y16.6042
G01 X21.3553 Y16.5780
G01 X21.3512 Y16.5513
G01 X21.3496 Y16.5220
G01 X21.3496 Y14.9770
G01 X21.3509 Y14.9501
G01 X21.3553 Y14.9210
G01 X21.3624 Y14.8924
G01 X21.3715 Y14.8670
G01 X21.3861 Y14.8359
G01 X21.4001 Y14.8128
G01 X21.4184 Y14.7882
G01 X21.4374 Y14.7674
G01 X21.4592 Y14.7476
G01 X21.4828 Y14.7301
G01 X21.5081 Y14.7149
G01 X21.5347 Y14.7023
G01 X21.5624 Y14.6924
G01 X21.5910 Y14.6853
G01 X21.6201 Y14.6809
G01 X21.6495 Y14.6795
G01 X22.3507 Y14.6795
G01 X22.3789 Y14.6809
G01 X22.4056 Y14.6848
G01 X22.4366 Y14.6924
G01 X22.4643 Y14.7023
G01 X22.4931 Y14.7161
G01 X22.5162 Y14.7301
G01 X22.5379 Y14.7461
G01 X22.5616 Y14.7674
G01 X22.5814 Y14.7892
G01 X22.6003 Y14.8149
G01 X22.6141 Y14.8381
G01 X22.6257 Y14.8625
G01 X22.6362 Y14.8912
G01 X22.6442 Y14.9234
G01 X22.6481 Y14.9501
G01 X22.6495 Y14.9783
G01 X22.6495 Y15.3143
G01 X23.1692 Y15.3143
G01 X26.0495 Y12.4340
G01 X26.0495 Y11.5650
G01 X22.9192 Y8.4347
G01 X22.0910 Y8.4347
G01 X22.0582 Y8.5039
G01 X22.0055 Y8.5919
G01 X21.9431 Y8.6764
G01 X21.8711 Y8.7561
G01 X21.7923 Y8.8274
G01 X21.7069 Y8.8905
G01 X21.6189 Y8.9432
G01 X21.5262 Y8.9871
G01 X21.4251 Y9.0234
G01 X21.3232 Y9.0489
G01 X21.2194 Y9.0643
G01 X21.1145 Y9.0695
G01 X21.0096 Y9.0643
G01 X20.9058 Y9.0489
G01 X20.8039 Y9.0234
G01 X20.7050 Y8.9881
G01 X20.6101 Y8.9432
G01 X20.5190 Y8.8885
G01 X20.4357 Y8.8266
G01 X20.3579 Y8.7561
G01 X20.2874 Y8.6783
G01 X20.2248 Y8.5940
G01 X20.1708 Y8.5039
G01 X20.1259 Y8.4090
G01 X20.0906 Y8.3101
G01 X20.0656 Y8.2106
G01 X20.0495 Y8.1019
G01 X20.0445 Y7.9995
G01 X20.0500 Y7.8922
G01 X20.0651 Y7.7908
G01 X20.0906 Y7.6889
G01 X20.1259 Y7.5900
G01 X20.1703 Y7.4962
G01 X20.2248 Y7.4050
G01 X20.2859 Y7.3226
G01 X20.3597 Y7.2412
G01 X20.4357 Y7.1724
G01 X20.5200 Y7.1098
G01 X20.6101 Y7.0558
G01 X20.7050 Y7.0109
G01 X20.8039 Y6.9756
G01 X20.9034 Y6.9506
G01 X21.0121 Y6.9345
G01 X21.1145 Y6.9295
G01 X21.2194 Y6.9347
G01 X21.3232 Y6.9501
G01 X21.4239 Y6.9752
G01 X21.5240 Y7.0109
G01 X21.6189 Y7.0558
G01 X21.7090 Y7.1098
G01 X21.7942 Y7.1732
G01 X21.8711 Y7.2429
G01 X21.9431 Y7.3226
G01 X22.0055 Y7.4071
G01 X22.0582 Y7.4951
G01 X22.0910 Y7.5643
G01 X23.1020 Y7.5644
G01 X23.1446 Y7.5667
G01 X23.1844 Y7.5727
G01 X23.2235 Y7.5824
G01 X23.2660 Y7.5974
G01 X23.3057 Y7.6163
G01 X23.3413 Y7.6377
G01 X23.3736 Y7.6616
G01 X23.4072 Y7.6918
G01 X24.4245 Y8.7090
G01 X27.0090 Y6.1245
G01 X23.8192 Y2.9347
G01 X21.7371 Y2.9347
G01 X21.7257 Y2.9665
G01 X21.7141 Y2.9909
G01 X21.6989 Y3.0162
G01 X21.6814 Y3.0398
G01 X21.6633 Y3.0599
G01 X21.6379 Y3.0829
G01 X21.6162 Y3.0989
G01 X21.5909 Y3.1141
G01 X21.5643 Y3.1267
G01 X21.5389 Y3.1358
G01 X21.5056 Y3.1442
G01 X21.4789 Y3.1481
G01 X21.4495 Y3.1495
G01 X20.5495 Y3.1495
G01 X20.5201 Y3.1481
G01 X20.4922 Y3.1440
G01 X20.4601 Y3.1358
G01 X20.4347 Y3.1267
G01 X20.4081 Y3.1141
G01 X20.3808 Y3.0975
G01 X20.3592 Y3.0814
G01 X20.3391 Y3.0633
G01 X20.3176 Y3.0398
G01 X20.2987 Y3.0141
G01 X20.2849 Y2.9909
G01 X20.2733 Y2.9665
G01 X20.2619 Y2.9347
G01 X16.4871 Y2.9347
G01 X16.4757 Y2.9665
G01 X16.4641 Y2.9909
G01 X16.4489 Y3.0162
G01 X16.4314 Y3.0398
G01 X16.4133 Y3.0599
G01 X16.3879 Y3.0829
G01 X16.3662 Y3.0989
G01 X16.3409 Y3.1141
G01 X16.3143 Y3.1267
G01 X16.2889 Y3.1358
G01 X16.2556 Y3.1442
G01 X16.2289 Y3.1481
G01 X16.2007 Y3.1495
G01 X15.2995 Y3.1495
G01 X15.2689 Y3.1479
G01 X15.2410 Y3.1437
G01 X15.2101 Y3.1358
G01 X15.1825 Y3.1257
G01 X15.1581 Y3.1141
G01 X15.1349 Y3.1003
G01 X15.1092 Y3.0814
G01 X15.0874 Y3.0616
G01 X15.0676 Y3.0398
G01 X15.0501 Y3.0162
G01 X15.0338 Y2.9887
G01 X15.0223 Y2.9643
G01 X15.0132 Y2.9389
G01 X15.0053 Y2.9080
G01 X15.0008 Y2.8765
G01 X14.9995 Y2.8495
G01 X14.9995 Y2.1495
G01 X15.0008 Y2.1213
G01 X15.0053 Y2.0910
G01 X15.0124 Y2.0624
G01 X15.0223 Y2.0347
G01 X15.0361 Y2.0059
G01 X15.0515 Y1.9808
G01 X15.0676 Y1.9592
G01 X15.0857 Y1.9391
G01 X15.1092 Y1.9176
G01 X15.1328 Y1.9001
G01 X15.1603 Y1.8838
G01 X15.1847 Y1.8723
G01 X15.2124 Y1.8624
G01 X15.2434 Y1.8548
G01 X15.2701 Y1.8509
G01 X15.2970 Y1.8496
G01 X16.1995 Y1.8495
G01 X16.2301 Y1.8511
G01 X16.2580 Y1.8553
G01 X16.2842 Y1.8618
G01 X16.3143 Y1.8723
G01 X16.3431 Y1.8861
G01 X16.3662 Y1.9001
G01 X16.3898 Y1.9176
G01 X16.4133 Y1.9391
G01 X16.4314 Y1.9592
G01 X16.4489 Y1.9828
G01 X16.4652 Y2.0103
G01 X16.4767 Y2.0347
G01 X16.4862 Y2.0612
G00 Z2.0000
M05
G00 Z2.0000
G00 Z15.00


