(G-CODE GENERATED BY FLATCAM v2024.4 - www.flatcam.org - Version Date: 2024/04/15)

(Name: wled-esp01-controller.drl_cnc)
(Type: G-code from Geometry)
(Units: MM)

(Created on Wednesday, 31 December 2025 at 19:36)

(This preprocessor is the default preprocessor used by FlatCAM.)
(It is made to work with MACH3 compatible motion controllers.)


(TOOLS DIAMETER: )
(Tool: 1 -> Dia: 0.8)
(Tool: 2 -> Dia: 1.0)

(FEEDRATE Z: )
(Tool: 1 -> Feedrate: 300)
(Tool: 2 -> Feedrate: 300)

(FEEDRATE RAPIDS: )
(Tool: 1 -> Feedrate Rapids: 1500)
(Tool: 2 -> Feedrate Rapids: 1500)

(Z_CUT: )
(Tool: 1 -> Z_Cut: -1.3)
(Tool: 2 -> Z_Cut: -1.3)

(Tools Offset: )
(Tool: 1 -> Offset Z: 0.0)
(Tool: 2 -> Offset Z: 0.0)

(Z_MOVE: )
(Tool: 1 -> Z_Move: 2)
(Tool: 2 -> Z_Move: 2)

(Z Toolchange: 5.0 mm)
(X,Y Toolchange: 0.0000, 0.0000 mm)
(Z Start: None mm)
(Z End: 1.0 mm)
(X,Y End: 0.0000, 0.0000 mm)
(Steps per circle: 64)
(Preprocessor Excellon: default)

(X range:    3.4585 ...   34.0994  mm)
(Y range:    3.8523 ...   28.8949  mm)

(Spindle Speed: 0 RPM)
G21
G90
G94

G01 F300.00

M5
G00 Z5.0000
T1
G00 X0.0000 Y0.0000                
M6
(MSG, Change to Tool Dia = 0.8000 ||| Total drills for tool T1 = 17)
M0
G00 Z5.0000

G01 F300.00
M03
G00 X33.6994 Y4.2523
G01 Z-1.3000
G01 Z0
G00 Z2.0000
G00 X3.9585 Y19.1677
G01 Z-1.3000
G01 Z0
G00 Z2.0000
G00 X3.9585 Y21.7070
G01 Z-1.3000
G01 Z0
G00 Z2.0000
G00 X3.9585 Y24.2462
G01 Z-1.3000
G01 Z0
G00 Z2.0000
G00 X13.4506 Y8.0011
G01 Z-1.3000
G01 Z0
G00 Z2.0000
G00 X13.4506 Y10.5404
G01 Z-1.3000
G01 Z0
G00 Z2.0000
G00 X15.9898 Y8.0011
G01 Z-1.3000
G01 Z0
G00 Z2.0000
G00 X15.9898 Y10.5404
G01 Z-1.3000
G01 Z0
G00 Z2.0000
G00 X18.5291 Y8.0011
G01 Z-1.3000
G01 Z0
G00 Z2.0000
G00 X18.5291 Y10.5404
G01 Z-1.3000
G01 Z0
G00 Z2.0000
G00 X21.0683 Y8.0011
G01 Z-1.3000
G01 Z0
G00 Z2.0000
G00 X21.0683 Y10.5404
G01 Z-1.3000
G01 Z0
G00 Z2.0000
G00 X31.7000 Y19.9975
G01 Z-1.3000
G01 Z0
G00 Z2.0000
G00 X31.7000 Y22.5367
G01 Z-1.3000
G01 Z0
G00 Z2.0000
G00 X29.9506 Y28.4949
G01 Z-1.3000
G01 Z0
G00 Z2.0000
G00 X31.2002 Y4.2523
G01 Z-1.3000
G01 Z0
G00 Z2.0000
G00 X32.4498 Y28.4949
G01 Z-1.3000
G01 Z0
G00 Z2.0000
M05
G00 Z1.00
G00 X0.0 Y0.0


