( pcb2gcode 2.5.0 )
( Software-independent Gcode )

G94 ( Millimeters per minute feed rate. )
G21 ( Units == Millimeters. )

G90 ( Absolute coordinates. )
G00 S24000 ( RPM spindle speed. )
G01 F600.00000 ( Feedrate. )


G00 Z35.00000 (Retract to tool change height)
T1
M5      (Spindle stop.)
G04 P1.00000 (Wait for spindle to stop)
(MSG, Change tool bit to mill diameter 0.05000mm)
M0      (Temporary machine stop.)
M3 ( Spindle on clockwise. )
G04 P1.00000 (Wait for spindle to get up to speed)
G04 P0 ( dwell for no time -- G64 should not smooth over this point )
G00 Z2.00000 ( retract )

G00 X12.55000 Y0.00000 ( rapid move to begin. )
G01 F100.00000
( Mill infeed pass 1/1 )
G01 Z-0.10000
G04 P0 ( dwell for no time -- G64 should not smooth over this point )
G01 F600.00000
G01 X12.55000 Y0.00000
G01 X12.55000 Y12.74996
G01 X-5.69998 Y12.74996
G01 X-5.69998 Y0.00000
G01 X12.55000 Y0.00000
G04 P0 ( dwell for no time -- G64 should not smooth over this point )
G00 Z2.00000 ( retract )

G00 X10.70002 Y6.24545 ( rapid move to begin. )
G01 F100.00000
( Mill infeed pass 1/1 )
G01 Z-0.10000
G04 P0 ( dwell for no time -- G64 should not smooth over this point )
G01 F600.00000
G01 X10.70002 Y6.24545
G01 X10.70002 Y6.47494
G01 X10.24993 Y6.47494
G01 X10.24871 Y6.26864
G01 X10.23766 Y6.21360
G01 X10.21790 Y6.16661
G01 X10.17916 Y6.11218
G01 X10.12781 Y6.06867
G01 X10.06723 Y6.03931
G01 X10.01254 Y6.02902
G01 X10.01254 Y5.57497
G01 X10.12742 Y5.58498
G01 X10.28711 Y5.63789
G01 X10.43012 Y5.72610
G01 X10.54891 Y5.84490
G01 X10.63710 Y5.98790
G01 X10.69001 Y6.14756
G01 X10.70002 Y6.24545
G04 P0 ( dwell for no time -- G64 should not smooth over this point )
G00 Z2.00000 ( retract )

G00 X10.70002 Y7.02498 ( rapid move to begin. )
G01 F100.00000
( Mill infeed pass 1/1 )
G01 Z-0.10000
G04 P0 ( dwell for no time -- G64 should not smooth over this point )
G01 F600.00000
G01 X10.70002 Y7.02498
G01 X10.70002 Y7.25452
G01 X10.69001 Y7.35239
G01 X10.63710 Y7.51205
G01 X10.54891 Y7.65505
G01 X10.43012 Y7.77385
G01 X10.28711 Y7.86206
G01 X10.12742 Y7.91497
G01 X10.01254 Y7.92498
G01 X10.01254 Y7.47098
G01 X10.06723 Y7.46067
G01 X10.12781 Y7.43130
G01 X10.17916 Y7.38779
G01 X10.21790 Y7.33336
G01 X10.23766 Y7.28637
G01 X10.24871 Y7.23133
G01 X10.24993 Y7.02498
G01 X10.70002 Y7.02498
G04 P0 ( dwell for no time -- G64 should not smooth over this point )
G00 Z2.00000 ( retract )

G00 X4.05075 Y6.33839 ( rapid move to begin. )
G01 F100.00000
( Mill infeed pass 1/1 )
G01 Z-0.10000
G04 P0 ( dwell for no time -- G64 should not smooth over this point )
G01 F600.00000
G01 X4.05075 Y6.33839
G01 X3.95647 Y6.23852
G01 X3.72604 Y5.96720
G01 X3.66218 Y5.90393
G01 X3.60788 Y5.86895
G01 X3.56566 Y5.84472
G01 X3.51415 Y5.82597
G01 X3.45464 Y5.80822
G01 X3.42883 Y5.80446
G01 X3.38238 Y5.80039
G01 X3.02475 Y5.79996
G01 X2.95276 Y5.79471
G01 X2.87651 Y5.78361
G01 X2.77948 Y5.70852
G01 X2.43041 Y5.36265
G01 X2.34880 Y5.30796
G01 X2.25810 Y5.27009
G01 X2.16163 Y5.25130
G01 X2.11251 Y5.24970
G01 X0.13725 Y5.24970
G01 X0.06527 Y5.24454
G01 X-0.00459 Y5.23448
G01 X-0.05559 Y5.22465
G01 X-0.13674 Y5.13230
G01 X-0.21210 Y5.03438
G01 X-0.25899 Y4.98518
G01 X-0.33509 Y4.91297
G01 X-0.47410 Y4.81056
G01 X-0.62828 Y4.73192
G01 X-0.71868 Y4.70085
G01 X-0.79272 Y4.67848
G01 X-0.96361 Y4.65264
G01 X-1.38759 Y4.65023
G01 X-1.49089 Y4.65874
G01 X-1.59402 Y4.67599
G01 X-1.69069 Y4.70390
G01 X-1.77156 Y4.73220
G01 X-1.88594 Y4.78876
G01 X-1.95261 Y4.82879
G01 X-2.06549 Y4.91221
G01 X-2.14182 Y4.98612
G01 X-2.19467 Y5.04312
G01 X-2.28914 Y5.17446
G01 X-2.36785 Y5.32818
G01 X-2.40097 Y5.42465
G01 X-2.42696 Y5.52186
G01 X-2.44756 Y5.65645
G01 X-2.44829 Y5.83641
G01 X-2.42106 Y6.00710
G01 X-2.36803 Y6.17167
G01 X-2.28909 Y6.32546
G01 X-2.18782 Y6.46557
G01 X-2.01083 Y6.64322
G01 X-1.90555 Y6.76636
G01 X-1.77956 Y6.96260
G01 X-1.69521 Y6.97586
G01 X-1.59158 Y6.98802
G01 X-1.44878 Y6.99780
G01 X-1.02528 Y6.99976
G01 X-0.80100 Y6.98744
G01 X-0.61817 Y6.96224
G01 X-0.56222 Y6.86643
G01 X-0.50649 Y6.78292
G01 X-0.46105 Y6.72541
G01 X-0.39999 Y6.65411
G01 X-0.22526 Y6.47969
G01 X-0.14919 Y6.38287
G01 X-0.05541 Y6.27586
G01 X0.04497 Y6.25663
G01 X0.13725 Y6.25020
G01 X1.75028 Y6.25020
G01 X1.82216 Y6.25538
G01 X1.89861 Y6.26638
G01 X1.99569 Y6.34159
G01 X2.26516 Y6.61005
G01 X2.31240 Y6.66463
G01 X2.35886 Y6.72676
G01 X2.37440 Y6.84774
G01 X2.37578 Y7.24304
G01 X2.38169 Y7.29430
G01 X2.39445 Y7.34365
G01 X2.42015 Y7.41543
G01 X2.46046 Y7.48414
G01 X2.49076 Y7.52513
G01 X2.55309 Y7.58734
G01 X2.62155 Y7.63377
G01 X2.65939 Y7.65528
G01 X2.71644 Y7.67593
G01 X2.77031 Y7.69211
G01 X2.83196 Y7.69953
G01 X3.39307 Y7.69904
G01 X3.45472 Y7.69211
G01 X3.56566 Y7.65523
G01 X3.66320 Y7.59536
G01 X3.70150 Y7.55901
G01 X3.76792 Y7.48637
G01 X3.88700 Y7.33991
G01 X4.04918 Y7.16168
G01 X4.13602 Y7.25228
G01 X4.36676 Y7.52516
G01 X4.43785 Y7.59605
G01 X4.53439 Y7.65523
G01 X4.64534 Y7.69203
G01 X4.74443 Y7.70021
G01 X5.26810 Y7.69943
G01 X5.32954 Y7.69130
G01 X5.37348 Y7.67890
G01 X5.44049 Y7.65482
G01 X5.48662 Y7.62856
G01 X5.53843 Y7.59470
G01 X5.58357 Y7.55185
G01 X5.61991 Y7.51352
G01 X5.75677 Y7.28899
G01 X5.88237 Y7.25952
G01 X5.99342 Y7.25023
G01 X6.85662 Y7.25023
G01 X6.99847 Y7.26544
G01 X7.09499 Y7.28828
G01 X7.18869 Y7.44898
G01 X7.22994 Y7.51365
G01 X7.24473 Y7.52955
G01 X7.31166 Y7.59468
G01 X7.39934 Y7.64946
G01 X7.45603 Y7.67217
G01 X7.52044 Y7.69153
G01 X7.61366 Y7.70019
G01 X8.11138 Y7.70019
G01 X8.20459 Y7.69153
G01 X8.31569 Y7.65531
G01 X8.38857 Y7.61182
G01 X8.42143 Y7.58767
G01 X8.49453 Y7.51345
G01 X8.61714 Y7.36255
G01 X8.79918 Y7.16123
G01 X8.80086 Y6.33877
G01 X8.71384 Y6.24784
G01 X8.47360 Y5.96362
G01 X8.41348 Y5.90520
G01 X8.31567 Y5.84472
G01 X8.20472 Y5.80794
G01 X8.10563 Y5.79973
G01 X7.58196 Y5.80052
G01 X7.52050 Y5.80865
G01 X7.47658 Y5.82104
G01 X7.40957 Y5.84512
G01 X7.36345 Y5.87136
G01 X7.31163 Y5.90527
G01 X7.26652 Y5.94804
G01 X7.23012 Y5.98642
G01 X7.09350 Y6.21088
G01 X6.96769 Y6.24042
G01 X6.85662 Y6.24972
G01 X5.99342 Y6.24972
G01 X5.85159 Y6.23451
G01 X5.75507 Y6.21167
G01 X5.65349 Y6.03768
G01 X5.62009 Y5.98630
G01 X5.60541 Y5.97047
G01 X5.53841 Y5.90527
G01 X5.45070 Y5.85048
G01 X5.39396 Y5.82778
G01 X5.32959 Y5.80842
G01 X5.23637 Y5.79976
G01 X4.73866 Y5.79976
G01 X4.64544 Y5.80842
G01 X4.53429 Y5.84449
G01 X4.46150 Y5.88813
G01 X4.42863 Y5.91228
G01 X4.35893 Y5.98254
G01 X4.21306 Y6.16003
G01 X4.05075 Y6.33839
G01 X4.04918 Y7.16168
G04 P0 ( dwell for no time -- G64 should not smooth over this point )
G00 Z2.00000 ( retract )

G00 X0.27502 Y8.52498 ( rapid move to begin. )
G01 F100.00000
( Mill infeed pass 1/1 )
G01 Z-0.10000
G04 P0 ( dwell for no time -- G64 should not smooth over this point )
G01 F600.00000
G01 X0.27502 Y8.52498
G01 X0.27502 Y8.89869
G01 X0.26493 Y8.99739
G01 X0.21157 Y9.15845
G01 X0.12259 Y9.30272
G01 X0.00276 Y9.42254
G01 X-0.14149 Y9.51151
G01 X-0.30253 Y9.56488
G01 X-0.40126 Y9.57496
G01 X-0.92498 Y9.57496
G01 X-0.92498 Y9.12498
G01 X-0.44489 Y9.12492
G01 X-0.38635 Y9.11741
G01 X-0.33349 Y9.09897
G01 X-0.28508 Y9.06986
G01 X-0.23700 Y9.02376
G01 X-0.20603 Y8.97654
G01 X-0.18411 Y8.91954
G01 X-0.17499 Y8.84999
G01 X-0.17499 Y8.52498
G01 X0.27502 Y8.52498
G04 P0 ( dwell for no time -- G64 should not smooth over this point )
G00 Z2.00000 ( retract )

G00 X-1.47499 Y9.12498 ( rapid move to begin. )
G01 F100.00000
( Mill infeed pass 1/1 )
G01 Z-0.10000
G04 P0 ( dwell for no time -- G64 should not smooth over this point )
G01 F600.00000
G01 X-1.47499 Y9.12498
G01 X-1.47499 Y9.57496
G01 X-1.99869 Y9.57496
G01 X-2.09739 Y9.56488
G01 X-2.25845 Y9.51151
G01 X-2.40270 Y9.42254
G01 X-2.52254 Y9.30272
G01 X-2.61151 Y9.15848
G01 X-2.66488 Y8.99739
G01 X-2.67496 Y8.89869
G01 X-2.67496 Y8.52498
G01 X-2.22498 Y8.52498
G01 X-2.22498 Y8.84999
G01 X-2.21604 Y8.91908
G01 X-2.19625 Y8.97197
G01 X-2.15972 Y9.02767
G01 X-2.11893 Y9.06676
G01 X-2.06691 Y9.09869
G01 X-2.01362 Y9.11741
G01 X-1.95510 Y9.12492
G01 X-1.47499 Y9.12498

G04 P0 ( dwell for no time -- G64 should not smooth over this point )
G00 Z35.000000 ( retract )

M5 ( Spindle off. )
G04 P1.000000
M9 ( Coolant off. )
M2 ( Program end. )

