( pcb2gcode 2.5.0 )
( Software-independent Gcode )

G94 ( Millimeters per minute feed rate. )
G21 ( Units == Millimeters. )

G90 ( Absolute coordinates. )
G00 S24000 ( RPM spindle speed. )
G01 F600.00000 ( Feedrate. )


G00 Z35.00000 (Retract to tool change height)
T1
M5      (Spindle stop.)
G04 P1.00000 (Wait for spindle to stop)
(MSG, Change tool bit to mill diameter 0.05000mm)
M0      (Temporary machine stop.)
M3 ( Spindle on clockwise. )
G04 P1.00000 (Wait for spindle to get up to speed)
G04 P0 ( dwell for no time -- G64 should not smooth over this point )
G00 Z2.00000 ( retract )

G00 X5.05295 Y3.53715 ( rapid move to begin. )
G01 F100.00000
( Mill infeed pass 1/1 )
G01 Z-0.10000
G04 P0 ( dwell for no time -- G64 should not smooth over this point )
G01 F600.00000
G01 X5.05295 Y3.53715
G01 X5.05056 Y3.60601
G01 X5.04220 Y3.67393
G01 X5.01802 Y3.81566
G01 X4.97522 Y3.95293
G01 X4.93385 Y4.05674
G01 X4.85574 Y4.20634
G01 X4.78853 Y4.30291
G01 X4.72651 Y4.38338
G01 X4.58089 Y4.52778
G01 X4.40967 Y4.65300
G01 X4.28236 Y4.71980
G01 X4.22034 Y4.74873
G01 X4.15666 Y4.77192
G01 X4.01866 Y4.81452
G01 X3.90284 Y4.83530
G01 X3.80202 Y4.84830
G01 X3.59705 Y4.84746
G01 X3.38739 Y4.81493
G01 X3.26194 Y4.77611
G01 X3.18580 Y4.74883
G01 X3.13555 Y4.72557
G01 X2.99679 Y4.65252
G01 X2.90932 Y4.59212
G01 X2.82054 Y4.52417
G01 X2.67520 Y4.37787
G01 X2.55006 Y4.20654
G01 X2.48323 Y4.07921
G01 X2.45433 Y4.01724
G01 X2.43114 Y3.95356
G01 X2.38854 Y3.81556
G01 X2.36779 Y3.69976
G01 X2.35476 Y3.59900
G01 X2.35549 Y3.39392
G01 X2.38813 Y3.18427
G01 X2.43093 Y3.04701
G01 X2.45433 Y2.98272
G01 X2.48295 Y2.92128
G01 X2.55041 Y2.79359
G01 X2.61757 Y2.69707
G01 X2.67962 Y2.61658
G01 X2.82527 Y2.47218
G01 X2.99651 Y2.34693
G01 X3.12384 Y2.28013
G01 X3.18582 Y2.25120
G01 X3.24945 Y2.22801
G01 X3.38750 Y2.18544
G01 X3.59700 Y2.15204
G01 X3.80911 Y2.15250
G01 X4.01876 Y2.18504
G01 X4.14421 Y2.22385
G01 X4.22036 Y2.25115
G01 X4.27159 Y2.27490
G01 X4.40947 Y2.34732
G01 X4.50601 Y2.41450
G01 X4.58648 Y2.47655
G01 X4.73098 Y2.62209
G01 X4.85610 Y2.79339
G01 X4.91739 Y2.90957
G01 X4.96291 Y3.01163
G01 X5.01287 Y3.16659
G01 X5.03456 Y3.27619
G01 X5.05102 Y3.39390
G01 X5.05295 Y3.53715
G04 P0 ( dwell for no time -- G64 should not smooth over this point )
G00 Z2.00000 ( retract )

G00 X6.71871 Y13.12464 ( rapid move to begin. )
G01 F100.00000
( Mill infeed pass 1/1 )
G01 Z-0.10000
G04 P0 ( dwell for no time -- G64 should not smooth over this point )
G01 F600.00000
G01 X6.71871 Y13.12464
G01 X6.55211 Y13.12169
G01 X6.50270 Y13.10935
G01 X6.45206 Y13.08555
G01 X6.39219 Y13.03675
G01 X6.35264 Y12.98189
G01 X6.32785 Y12.91956
G01 X6.32163 Y12.87498
G01 X5.86872 Y12.87498
G01 X5.87883 Y12.99738
G01 X5.93220 Y13.15847
G01 X6.02115 Y13.30272
G01 X6.14098 Y13.42255
G01 X6.28523 Y13.51150
G01 X6.44632 Y13.56487
G01 X6.54502 Y13.57498
G01 X6.71871 Y13.57498
G01 X6.71871 Y13.12464
G04 P0 ( dwell for no time -- G64 should not smooth over this point )
G00 Z2.00000 ( retract )

G00 X8.81873 Y12.87498 ( rapid move to begin. )
G01 F100.00000
( Mill infeed pass 1/1 )
G01 Z-0.10000
G04 P0 ( dwell for no time -- G64 should not smooth over this point )
G01 F600.00000
G01 X8.81873 Y12.87498
G01 X8.36585 Y12.87498
G01 X8.35962 Y12.91956
G01 X8.33483 Y12.98189
G01 X8.29528 Y13.03675
G01 X8.23542 Y13.08555
G01 X8.18477 Y13.10935
G01 X8.13537 Y13.12169
G01 X7.96874 Y13.12464
G01 X7.96874 Y13.57498
G01 X8.14243 Y13.57498
G01 X8.24116 Y13.56487
G01 X8.40222 Y13.51150
G01 X8.54646 Y13.42255
G01 X8.66630 Y13.30272
G01 X8.75525 Y13.15847
G01 X8.80864 Y12.99738
G01 X8.81873 Y12.87498
G04 P0 ( dwell for no time -- G64 should not smooth over this point )
G00 Z2.00000 ( retract )

G00 X15.09372 Y11.48258 ( rapid move to begin. )
G01 F100.00000
( Mill infeed pass 1/1 )
G01 Z-0.10000
G04 P0 ( dwell for no time -- G64 should not smooth over this point )
G01 F600.00000
G01 X15.09372 Y11.48258
G01 X15.09413 Y10.01776
G01 X15.26037 Y9.83597
G01 X15.40698 Y9.65825
G01 X15.48056 Y9.58464
G01 X15.57805 Y9.52464
G01 X15.68902 Y9.48784
G01 X15.78239 Y9.47974
G01 X16.30634 Y9.48045
G01 X16.37342 Y9.48784
G01 X16.48437 Y9.52467
G01 X16.58236 Y9.58494
G01 X16.66362 Y9.66643
G01 X16.68625 Y9.70021
G01 X16.72712 Y9.77201
G01 X16.78506 Y9.95144
G01 X16.82532 Y10.05837
G01 X16.97053 Y10.09950
G01 X17.04038 Y10.10956
G01 X17.11251 Y10.11471
G01 X18.27616 Y10.11436
G01 X18.37604 Y10.10437
G01 X18.44591 Y10.09043
G01 X18.55048 Y10.05921
G01 X18.65076 Y9.76424
G01 X18.68566 Y9.70516
G01 X18.71129 Y9.66640
G01 X18.79257 Y9.58494
G01 X18.89059 Y9.52472
G01 X18.99750 Y9.48939
G01 X19.06318 Y9.48075
G01 X19.62432 Y9.48103
G01 X19.68586 Y9.48814
G01 X19.79689 Y9.52464
G01 X19.83417 Y9.54585
G01 X19.89485 Y9.58494
G01 X19.97616 Y9.66643
G01 X20.03633 Y9.76442
G01 X20.09882 Y9.91037
G01 X20.15609 Y10.02381
G01 X20.28116 Y10.20829
G01 X20.28086 Y11.29005
G01 X20.18137 Y11.43198
G01 X20.11830 Y11.54679
G01 X20.03666 Y11.73564
G01 X19.97613 Y11.83353
G01 X19.89488 Y11.91499
G01 X19.83417 Y11.95408
G01 X19.79689 Y11.97529
G01 X19.68591 Y12.01204
G01 X19.59259 Y12.02019
G01 X19.06862 Y12.01951
G01 X19.00151 Y12.01212
G01 X18.89069 Y11.97508
G01 X18.79257 Y11.91501
G01 X18.71149 Y11.83371
G01 X18.68876 Y11.79982
G01 X18.64243 Y11.71349
G01 X18.58990 Y11.54854
G01 X18.54962 Y11.44158
G01 X18.40443 Y11.40043
G01 X18.26260 Y11.38522
G01 X17.11236 Y11.38522
G01 X16.99890 Y11.39558
G01 X16.92902 Y11.40953
G01 X16.82448 Y11.44072
G01 X16.72417 Y11.73569
G01 X16.66377 Y11.83366
G01 X16.58236 Y11.91499
G01 X16.52659 Y11.95100
G01 X16.48437 Y11.97524
G01 X16.37340 Y12.01204
G01 X16.27889 Y12.02019
G01 X15.75069 Y12.01890
G01 X15.68910 Y12.01179
G01 X15.57807 Y11.97529
G01 X15.48178 Y11.91578
G01 X15.43561 Y11.87132
G01 X15.17315 Y11.56523
G01 X15.09372 Y11.48258
G01 X14.93182 Y11.65880
G01 X14.82827 Y11.78629
G01 X14.75643 Y11.86779
G01 X14.70670 Y11.91509
G01 X14.60947 Y11.97544
G01 X14.49837 Y12.01191
G01 X14.43678 Y12.01890
G01 X13.87566 Y12.01943
G01 X13.81404 Y12.01204
G01 X13.74046 Y11.98923
G01 X13.70307 Y11.97529
G01 X13.63027 Y11.93188
G01 X13.59731 Y11.90780
G01 X13.52365 Y11.83366
G01 X13.48240 Y11.76899
G01 X13.46332 Y11.73569
G01 X13.44148 Y11.67414
G01 X13.42687 Y11.62461
G01 X13.41918 Y11.56305
G01 X13.41862 Y11.06561
G01 X13.41646 Y11.01217
G01 X13.40239 Y10.91745
G01 X13.35611 Y10.85555
G01 X13.30884 Y10.80099
G01 X12.98331 Y10.47646
G01 X12.88636 Y10.40140
G01 X12.81001 Y10.39040
G01 X12.73807 Y10.38522
G01 X8.51604 Y10.38738
G01 X8.40222 Y10.40620
G01 X8.32409 Y10.47478
G01 X8.15513 Y10.64110
G01 X8.11045 Y10.69025
G01 X8.00265 Y10.83216
G01 X7.92135 Y10.96284
G01 X7.76851 Y10.98497
G01 X7.63900 Y10.99579
G01 X7.51205 Y11.00016
G01 X7.14012 Y10.99942
G01 X7.02132 Y10.99406
G01 X6.90626 Y10.98344
G01 X6.76377 Y10.96305
G01 X6.67606 Y10.82109
G01 X6.62559 Y10.74989
G01 X6.53265 Y10.64344
G01 X6.35615 Y10.46536
G01 X6.25447 Y10.32556
G01 X6.17576 Y10.17163
G01 X6.12275 Y10.00709
G01 X6.09524 Y9.83643
G01 X6.09542 Y9.66353
G01 X6.11673 Y9.52195
G01 X6.14271 Y9.42464
G01 X6.17576 Y9.32833
G01 X6.25447 Y9.17440
G01 X6.33603 Y9.05998
G01 X6.41007 Y8.97781
G01 X6.47809 Y8.91205
G01 X6.61807 Y8.81065
G01 X6.77217 Y8.73229
G01 X6.93649 Y8.67847
G01 X7.02638 Y8.66262
G01 X7.10733 Y8.65177
G01 X7.14980 Y8.65027
G01 X7.58017 Y8.65154
G01 X7.75096 Y8.67854
G01 X7.91543 Y8.73194
G01 X7.99940 Y8.77293
G01 X8.07885 Y8.81680
G01 X8.21063 Y8.91360
G01 X8.40148 Y9.09508
G01 X8.49754 Y9.10956
G01 X8.56948 Y9.11474
G01 X13.15621 Y9.11474
G01 X13.21852 Y9.11736
G01 X13.26606 Y9.12467
G01 X13.34646 Y9.14265
G01 X13.45110 Y9.18601
G01 X13.48692 Y9.20740
G01 X13.56015 Y9.25779
G01 X13.70076 Y9.39490
G01 X13.80393 Y9.47283
G01 X13.93939 Y9.48035
G01 X14.43678 Y9.48042
G01 X14.50757 Y9.49066
G01 X14.60914 Y9.52520
G01 X14.70536 Y9.58459
G01 X14.76317 Y9.64019
G01 X15.00203 Y9.92043
G01 X15.09413 Y10.01776
G04 P0 ( dwell for no time -- G64 should not smooth over this point )
G00 Z2.00000 ( retract )

G00 X24.80310 Y16.97777 ( rapid move to begin. )
G01 F100.00000
( Mill infeed pass 1/1 )
G01 Z-0.10000
G04 P0 ( dwell for no time -- G64 should not smooth over this point )
G01 F600.00000
G01 X24.80310 Y16.97777
G01 X24.80122 Y16.84698
G01 X24.78253 Y16.71701
G01 X24.75934 Y16.60766
G01 X24.70198 Y16.43576
G01 X24.60610 Y16.24650
G01 X24.51550 Y16.11922
G01 X24.44293 Y16.03423
G01 X24.33132 Y15.92478
G01 X24.22718 Y15.84676
G01 X24.14247 Y15.79060
G01 X23.99861 Y15.71694
G01 X23.89426 Y15.67696
G01 X23.76876 Y15.63814
G01 X23.61466 Y15.61219
G01 X23.50323 Y15.60342
G01 X23.34699 Y15.60518
G01 X23.21697 Y15.62364
G01 X23.10765 Y15.64681
G01 X22.96582 Y15.69283
G01 X22.87278 Y15.73373
G01 X22.74651 Y15.80004
G01 X22.61913 Y15.89070
G01 X22.53417 Y15.96329
G01 X22.42477 Y16.07482
G01 X22.34611 Y16.17993
G01 X22.28517 Y16.27363
G01 X22.21692 Y16.40759
G01 X22.17694 Y16.51196
G01 X22.13813 Y16.63738
G01 X22.11220 Y16.79151
G01 X22.10344 Y16.90291
G01 X22.10516 Y17.05917
G01 X22.12343 Y17.18798
G01 X22.14359 Y17.28754
G01 X22.19284 Y17.44030
G01 X22.23371 Y17.53332
G01 X22.30006 Y17.65965
G01 X22.39066 Y17.78693
G01 X22.46323 Y17.87192
G01 X22.57483 Y17.98137
G01 X22.67994 Y18.06003
G01 X22.77364 Y18.12097
G01 X22.91781 Y18.19410
G01 X23.01301 Y18.22961
G01 X23.13744 Y18.26781
G01 X23.30277 Y18.29554
G01 X23.40409 Y18.30278
G01 X23.55919 Y18.30098
G01 X23.68918 Y18.28251
G01 X23.79850 Y18.25935
G01 X23.94036 Y18.21330
G01 X24.03340 Y18.17243
G01 X24.15967 Y18.10611
G01 X24.28702 Y18.01546
G01 X24.37199 Y17.94286
G01 X24.48138 Y17.83133
G01 X24.56005 Y17.72623
G01 X24.62098 Y17.63253
G01 X24.70191 Y17.47037
G01 X24.73719 Y17.37009
G01 X24.76906 Y17.26296
G01 X24.79553 Y17.10347
G01 X24.80310 Y16.97777
G04 P0 ( dwell for no time -- G64 should not smooth over this point )
G00 Z2.00000 ( retract )

G00 X22.17895 Y11.26249 ( rapid move to begin. )
G01 F100.00000
( Mill infeed pass 1/1 )
G01 Z-0.10000
G04 P0 ( dwell for no time -- G64 should not smooth over this point )
G01 F600.00000
G01 X22.17895 Y11.26249
G01 X21.73122 Y11.26249
G01 X21.73122 Y11.87435
G01 X21.76831 Y11.86205
G01 X21.91131 Y11.77387
G01 X22.03011 Y11.65507
G01 X22.11832 Y11.51207
G01 X22.17118 Y11.35258
G01 X22.17895 Y11.26249
G04 P0 ( dwell for no time -- G64 should not smooth over this point )
G00 Z2.00000 ( retract )

G00 X22.17895 Y10.23747 ( rapid move to begin. )
G01 F100.00000
( Mill infeed pass 1/1 )
G01 Z-0.10000
G04 P0 ( dwell for no time -- G64 should not smooth over this point )
G01 F600.00000
G01 X22.17895 Y10.23747
G01 X21.73122 Y10.23747
G01 X21.73122 Y9.62561
G01 X21.76831 Y9.63790
G01 X21.91131 Y9.72609
G01 X22.03011 Y9.84489
G01 X22.11832 Y9.98789
G01 X22.17118 Y10.14738
G01 X22.17895 Y10.23747
G04 P0 ( dwell for no time -- G64 should not smooth over this point )
G00 Z2.00000 ( retract )

G00 X27.50000 Y0.00000 ( rapid move to begin. )
G01 F100.00000
( Mill infeed pass 1/1 )
G01 Z-0.10000
G04 P0 ( dwell for no time -- G64 should not smooth over this point )
G01 F600.00000
G01 X27.50000 Y0.00000
G01 X27.50000 Y20.49998
G01 X-0.00000 Y20.49998
G01 X-0.00000 Y0.00000
G01 X27.50000 Y0.00000

G04 P0 ( dwell for no time -- G64 should not smooth over this point )
G00 Z35.000000 ( retract )

M5 ( Spindle off. )
G04 P1.000000
M9 ( Coolant off. )
M2 ( Program end. )

( pcb2gcode 2.5.0 )
( Software-independent Gcode )
( This file uses a mill head of 1.00000mm to drill the 2 hole sizes. )
( Hole sizes: [1mm] [2.2mm] )

G94       (Millimeters per minute feed rate.)
G21       (Units == Millimeters.)
G91.1     (Incremental arc distance mode.)
G90       (Absolute coordinates.)
S24000    (RPM spindle speed.)

G01 F80.00000 (Feedrate)
G00 Z35.00000 (Retract to tool change height)
T1
M5        (Spindle stop.)
G04 P1.00000
(MSG, Change tool bit to drill size 1.00000mm)
M0        (Temporary machine stop.)
M3        (Spindle on clockwise.)
G04 P1.00000
G00 Z2.00000

G0 X7.34400 Y9.75000
G1 Z-2.50000 F40.00000
G1 Z2.00000 F40.00000

G0 X7.34400 Y12.25000
G1 Z-2.50000 F40.00000
G1 Z2.00000 F40.00000

G0 X4.30300 Y3.50000
G1 Z2.50000 F40.00000
G1 F80.00000
G2 X4.30300 Y3.50000 Z-0.00000 I-0.60000 J0.00000
G2 X4.30300 Y3.50000 Z-2.50000 I-0.60000 J0.00000
G2 X4.30300 Y3.50000 I-0.60000 J0.00000
G1 Z2.00000 F40.00000

G0 X24.05300 Y16.95300
G1 Z2.50000 F40.00000
G1 F80.00000
G2 X24.05300 Y16.95300 Z-0.00000 I-0.60000 J0.00000
G2 X24.05300 Y16.95300 Z-2.50000 I-0.60000 J0.00000
G2 X24.05300 Y16.95300 I-0.60000 J0.00000
G1 Z2.00000 F40.00000

G00 Z35.000000 ( All done -- retract )

M5      (Spindle off.)
G04 P1.000000
M9      (Coolant off.)
M2      (Program end.)

( pcb2gcode 2.5.0 )
( Software-independent Gcode )

G94 ( Millimeters per minute feed rate. )
G21 ( Units == Millimeters. )

G90 ( Absolute coordinates. )
G00 S24000 ( RPM spindle speed. )
G01 F80.00000 ( Feedrate. )


G00 Z35.00000 (Retract to tool change height)
T1
M5      (Spindle stop.)
G04 P1.00000 (Wait for spindle to stop)
(MSG, Change tool bit to cutter diameter 2.00000mm)
M0      (Temporary machine stop.)
M3 ( Spindle on clockwise. )
G04 P1.00000 (Wait for spindle to get up to speed)
G04 P0 ( dwell for no time -- G64 should not smooth over this point )
G00 Z2.00000 ( retract )

G00 X28.49999 Y0.00000 ( rapid move to begin. )
G01 Z-2.50000 F40.00000 ( plunge. )
G04 P0 ( dwell for no time -- G64 should not smooth over this point )
G01 F80.00000
G01 X28.49977 Y20.52038
G01 X28.49121 Y20.63219
G01 X28.47017 Y20.74233
G01 X28.43332 Y20.85896
G01 X28.38724 Y20.96122
G01 X28.33004 Y21.05767
G01 X28.25572 Y21.15482
G01 X28.17767 Y21.23534
G01 X28.08280 Y21.31258
G01 X28.02336 Y21.35208
G01 X27.95217 Y21.39191
G01 X27.87795 Y21.42579
G01 X27.81094 Y21.45040
G01 X27.74234 Y21.47016
G01 X27.66245 Y21.48667
G01 X27.58150 Y21.49665
G01 X27.51018 Y21.49993
G01 X-0.01019 Y21.49993
G01 X-0.13221 Y21.49119
G01 X-0.24234 Y21.47016
G01 X-0.35898 Y21.43331
G01 X-0.46124 Y21.38723
G01 X-0.55768 Y21.33003
G01 X-0.65484 Y21.25571
G01 X-0.73536 Y21.17766
G01 X-0.81260 Y21.08279
G01 X-0.85209 Y21.02335
G01 X-0.89192 Y20.95216
G01 X-0.92580 Y20.87794
G01 X-0.95042 Y20.81093
G01 X-0.97018 Y20.74233
G01 X-0.98669 Y20.66244
G01 X-0.99667 Y20.58149
G01 X-0.99995 Y20.51017
G01 X-0.99995 Y-0.01019
G01 X-0.99121 Y-0.13221
G01 X-0.97018 Y-0.24234
G01 X-0.93332 Y-0.35898
G01 X-0.88725 Y-0.46124
G01 X-0.83005 Y-0.55768
G01 X-0.75573 Y-0.65484
G01 X-0.67767 Y-0.73536
G01 X-0.58280 Y-0.81260
G01 X-0.52337 Y-0.85209
G01 X-0.45217 Y-0.89192
G01 X-0.37795 Y-0.92580
G01 X-0.31095 Y-0.95042
G01 X-0.24234 Y-0.97018
G01 X-0.16246 Y-0.98669
G01 X-0.08151 Y-0.99667
G01 X-0.01019 Y-0.99995
G01 X27.53058 Y-0.99952
G01 X27.62207 Y-0.99250
G01 X27.71254 Y-0.97714
G01 X27.80124 Y-0.95354
G01 X27.89677 Y-0.91791
G01 X27.98816 Y-0.87274
G01 X28.06611 Y-0.82431
G01 X28.14711 Y-0.76238
G01 X28.21427 Y-0.69985
G01 X28.27541 Y-0.63142
G01 X28.33568 Y-0.54917
G01 X28.38724 Y-0.46124
G01 X28.42580 Y-0.37795
G01 X28.45656 Y-0.29149
G01 X28.48127 Y-0.19258
G01 X28.49578 Y-0.09167
G01 X28.49999 Y0.00000

G04 P0 ( dwell for no time -- G64 should not smooth over this point )
G00 Z35.000000 ( retract )

M5 ( Spindle off. )
G04 P1.000000
M9 ( Coolant off. )
M2 ( Program end. )

