( pcb2gcode 2.5.0 )
( Software-independent Gcode )

( This file uses only one drill bit. Forced by 'onedrill' option )

G94       (Millimeters per minute feed rate.)
G21       (Units == Millimeters.)
G91.1     (Incremental arc distance mode.)
G90       (Absolute coordinates.)
G00 S24000     (RPM spindle speed.)

G00 Z35.00000 (Retract)
T1
M5      (Spindle stop.)
G04 P1.00000
(MSG, Change tool bit to drill size 1mm)
M0      (Temporary machine stop.)
M3      (Spindle on clockwise.)
G0 Z2.00000
G04 P1.00000

G1 F200.00000
G0 X-11.24700 Y3.50000
G1 Z-2.50000
G1 Z2.00000
G0 X-7.60600 Y9.75000
G1 Z-2.50000
G1 Z2.00000
G0 X-7.60600 Y12.25000
G1 Z-2.50000
G1 Z2.00000
G0 X8.50300 Y16.95300
G1 Z-2.50000
G1 Z2.00000

G00 Z35.000 ( All done -- retract )

M5      (Spindle off.)
G04 P1.000000
M9      (Coolant off.)
M2      (Program end.)

