( pcb2gcode 2.5.0 )
( Software-independent Gcode )

G94 ( Millimeters per minute feed rate. )
G21 ( Units == Millimeters. )

G90 ( Absolute coordinates. )
G00 S24000 ( RPM spindle speed. )
G01 F80.00000 ( Feedrate. )


G00 Z35.00000 (Retract to tool change height)
T1
M5      (Spindle stop.)
G04 P1.00000 (Wait for spindle to stop)
(MSG, Change tool bit to cutter diameter 2.00000mm)
M0      (Temporary machine stop.)
M3 ( Spindle on clockwise. )
G04 P1.00000 (Wait for spindle to get up to speed)
G04 P0 ( dwell for no time -- G64 should not smooth over this point )
G00 Z2.00000 ( retract )

G00 X13.55000 Y0.00000 ( rapid move to begin. )
G01 Z-2.50000 F40.00000 ( plunge. )
G04 P0 ( dwell for no time -- G64 should not smooth over this point )
G01 F80.00000
G01 X13.54952 Y12.78054
G01 X13.53831 Y12.90239
G01 X13.51230 Y13.02189
G01 X13.47580 Y13.12794
G01 X13.42274 Y13.23812
G01 X13.36260 Y13.33279
G01 X13.28536 Y13.42766
G01 X13.19712 Y13.51237
G01 X13.09917 Y13.58567
G01 X13.03816 Y13.62273
G01 X12.97466 Y13.65532
G01 X12.90898 Y13.68331
G01 X12.84149 Y13.70655
G01 X12.70240 Y13.73830
G01 X12.63151 Y13.74666
G01 X12.56019 Y13.74993
G01 X-5.71016 Y13.74993
G01 X-5.83218 Y13.74120
G01 X-5.95220 Y13.71763
G01 X-6.06848 Y13.67960
G01 X-6.17922 Y13.62766
G01 X-6.28278 Y13.56258
G01 X-6.37765 Y13.48534
G01 X-6.46236 Y13.39710
G01 X-6.53566 Y13.29916
G01 X-6.57272 Y13.23812
G01 X-6.60531 Y13.17465
G01 X-6.63330 Y13.10897
G01 X-6.65654 Y13.04148
G01 X-6.68829 Y12.90239
G01 X-6.69665 Y12.83150
G01 X-6.69992 Y12.76015
G01 X-6.69975 Y-0.02040
G01 X-6.68979 Y-0.14229
G01 X-6.66500 Y-0.26208
G01 X-6.62959 Y-0.36850
G01 X-6.57765 Y-0.47925
G01 X-6.51257 Y-0.58280
G01 X-6.43533 Y-0.67767
G01 X-6.34709 Y-0.76238
G01 X-6.24915 Y-0.83569
G01 X-6.18814 Y-0.87274
G01 X-6.12464 Y-0.90533
G01 X-6.05895 Y-0.93332
G01 X-5.99147 Y-0.95656
G01 X-5.85238 Y-0.98831
G01 X-5.78148 Y-0.99667
G01 X-5.71016 Y-0.99995
G01 X12.59077 Y-0.99916
G01 X12.69229 Y-0.98981
G01 X12.78244 Y-0.97259
G01 X12.87062 Y-0.94719
G01 X12.96539 Y-0.90962
G01 X13.04705 Y-0.86771
G01 X13.13280 Y-0.81260
G01 X13.20484 Y-0.75573
G01 X13.27136 Y-0.69253
G01 X13.33814 Y-0.61547
G01 X13.39125 Y-0.54064
G01 X13.44192 Y-0.45217
G01 X13.47961 Y-0.36850
G01 X13.50948 Y-0.28171
G01 X13.53128 Y-0.19258
G01 X13.54578 Y-0.09167
G01 X13.55000 Y0.00000

G04 P0 ( dwell for no time -- G64 should not smooth over this point )
G00 Z35.000000 ( retract )

M5 ( Spindle off. )
G04 P1.000000
M9 ( Coolant off. )
M2 ( Program end. )

