( pcb2gcode 2.5.0 )
( Software-independent Gcode )

G94 ( Millimeters per minute feed rate. )
G21 ( Units == Millimeters. )

G90 ( Absolute coordinates. )
G00 S24000 ( RPM spindle speed. )
G01 F80.00000 ( Feedrate. )


G00 Z35.00000 (Retract to tool change height)
T1
M5      (Spindle stop.)
G04 P1.00000 (Wait for spindle to stop)
(MSG, Change tool bit to cutter diameter 2.00000mm)
M0      (Temporary machine stop.)
M3 ( Spindle on clockwise. )
G04 P1.00000 (Wait for spindle to get up to speed)
G04 P0 ( dwell for no time -- G64 should not smooth over this point )
G00 Z2.00000 ( retract )

G00 X28.49999 Y0.00000 ( rapid move to begin. )
G01 Z-2.50000 F40.00000 ( plunge. )
G04 P0 ( dwell for no time -- G64 should not smooth over this point )
G01 F80.00000
G01 X28.49977 Y20.52038
G01 X28.49121 Y20.63219
G01 X28.47017 Y20.74233
G01 X28.43332 Y20.85896
G01 X28.38724 Y20.96122
G01 X28.33004 Y21.05767
G01 X28.25572 Y21.15482
G01 X28.17767 Y21.23534
G01 X28.08280 Y21.31258
G01 X28.02336 Y21.35208
G01 X27.95217 Y21.39191
G01 X27.87795 Y21.42579
G01 X27.81094 Y21.45040
G01 X27.74234 Y21.47016
G01 X27.66245 Y21.48667
G01 X27.58150 Y21.49665
G01 X27.51018 Y21.49993
G01 X-0.01019 Y21.49993
G01 X-0.13221 Y21.49119
G01 X-0.24234 Y21.47016
G01 X-0.35898 Y21.43331
G01 X-0.46124 Y21.38723
G01 X-0.55768 Y21.33003
G01 X-0.65484 Y21.25571
G01 X-0.73536 Y21.17766
G01 X-0.81260 Y21.08279
G01 X-0.85209 Y21.02335
G01 X-0.89192 Y20.95216
G01 X-0.92580 Y20.87794
G01 X-0.95042 Y20.81093
G01 X-0.97018 Y20.74233
G01 X-0.98669 Y20.66244
G01 X-0.99667 Y20.58149
G01 X-0.99995 Y20.51017
G01 X-0.99995 Y-0.01019
G01 X-0.99121 Y-0.13221
G01 X-0.97018 Y-0.24234
G01 X-0.93332 Y-0.35898
G01 X-0.88725 Y-0.46124
G01 X-0.83005 Y-0.55768
G01 X-0.75573 Y-0.65484
G01 X-0.67767 Y-0.73536
G01 X-0.58280 Y-0.81260
G01 X-0.52337 Y-0.85209
G01 X-0.45217 Y-0.89192
G01 X-0.37795 Y-0.92580
G01 X-0.31095 Y-0.95042
G01 X-0.24234 Y-0.97018
G01 X-0.16246 Y-0.98669
G01 X-0.08151 Y-0.99667
G01 X-0.01019 Y-0.99995
G01 X27.53058 Y-0.99952
G01 X27.62207 Y-0.99250
G01 X27.71254 Y-0.97714
G01 X27.80124 Y-0.95354
G01 X27.89677 Y-0.91791
G01 X27.98816 Y-0.87274
G01 X28.06611 Y-0.82431
G01 X28.14711 Y-0.76238
G01 X28.21427 Y-0.69985
G01 X28.27541 Y-0.63142
G01 X28.33568 Y-0.54917
G01 X28.38724 Y-0.46124
G01 X28.42580 Y-0.37795
G01 X28.45656 Y-0.29149
G01 X28.48127 Y-0.19258
G01 X28.49578 Y-0.09167
G01 X28.49999 Y0.00000

G04 P0 ( dwell for no time -- G64 should not smooth over this point )
G00 Z35.000000 ( retract )

M5 ( Spindle off. )
G04 P1.000000
M9 ( Coolant off. )
M2 ( Program end. )

